; generated by PrusaSlicer 2.7.2-alpha2+win64 on 2024-02-19 at 20:36:28 UTC


;
;

;
;
; 

; external perimeters extrusion width = 0.42mm
; perimeters extrusion width = 0.44mm
; infill extrusion width = 0.44mm
; solid infill extrusion width = 0.44mm
; top infill extrusion width = 0.40mm
; first layer extrusion width = 0.42mm

M73 P0 R38

; printing object 4040-ender-3-extrusion-cover.stl id:0 copy 0
; stop printing object 4040-ender-3-extrusion-cover.stl id:0 copy 0

M190 S60 ; set bed temperature and wait for it to be reached
M104 S210 ; set temperature
;TYPE:Custom
SET_PRINT_STATS_INFO TOTAL_LAYER=64

START_PRINT EXTRUDER_TEMP=210 BED_TEMP=60 AREA_START=101.434,81.4344 AREA_END=148.566,128.566
M109 S210 ; set temperature and wait for it to be reached
G21 ; set units to millimeters
G90 ; use absolute coordinates
M83 ; use relative distances for extrusion
; Filament gcode
M107
;LAYER_CHANGE
;Z:0.2
;HEIGHT:0.2
G1 E-.8 F1800
G1 Z.2 F9000
G1 X103.029 Y84.012
G1 Z.2
G1 E.8 F1800
M204 S500
;TYPE:Skirt/Brim
;WIDTH:0.42
G1 F1200
G1 X104.012 Y83.029 E.04359
G1 X105.135 Y82.307 E.04186
G1 X106.437 Y81.822 E.04356
G1 X107.759 Y81.632 E.04188
G1 X142.241 Y81.632 E1.08116
G1 X143.145 Y81.731 E.02851
G1 X144.426 Y82.107 E.04186
G1 X145.24 Y82.512 E.02851
G1 X146.353 Y83.345 E.04359
G1 X147.195 Y84.312 E.0402
G1 X147.693 Y85.135 E.03016
G1 X148.178 Y86.437 E.04356
G1 X148.338 Y87.332 E.02851
G1 X148.377 Y122 E1.08699
G1 X148.269 Y123.145 E.03606
G1 X148.043 Y124.025 E.02849
G1 X147.488 Y125.24 E.04188
G1 X146.971 Y125.988 E.02851
G1 X145.988 Y126.971 E.04359
G1 X144.865 Y127.693 E.04186
G1 X143.563 Y128.178 E.04356
G1 X142 Y128.377 E.0494
G1 X107.759 Y128.368 E1.0736
G1 X106.855 Y128.269 E.02851
G1 X105.975 Y128.043 E.02849
G1 X105.135 Y127.693 E.02853
G1 X104.012 Y126.971 E.04186
G1 X103.029 Y125.988 E.04359
G1 X102.307 Y124.865 E.04186
G1 X101.822 Y123.563 E.04356
G1 X101.623 Y122 E.0494
G1 X101.632 Y87.759 E1.0736
G1 X101.731 Y86.855 E.02851
G1 X101.957 Y85.975 E.02849
G1 X102.503 Y84.776 E.04131
G1 X102.995 Y84.061 E.02721
; printing object 4040-ender-3-extrusion-cover.stl id:0 copy 0
;WIPE_START
G1 F7200
G1 X103.029 Y84.012 E-.01416
G1 X104.012 Y83.029 E-.33017
G1 X105.135 Y82.307 E-.31708
G1 X105.682 Y82.103 E-.13859
;WIPE_END
G1 X106.539 Y86.734 F9000
G1 E.8 F1800
;TYPE:Perimeter
;WIDTH:0.419999
G1 F1200
G1 X106.947 Y86.38 E.01694
G1 X107.455 Y86.145 E.01755
G1 X108.038 Y86.064 E.01846
G1 X142.05 Y86.07 E1.06642
G1 X142.545 Y86.145 E.0157
G1 X143.045 Y86.374 E.01724
G1 X143.462 Y86.736 E.01731
G1 X143.758 Y87.197 E.01718
G1 X143.884 Y87.59 E.01294
G1 X143.936 Y88.111 E.01642
G1 X143.936 Y121.889 E1.05908
G1 X143.913 Y122.275 E.01212
G1 X143.758 Y122.803 E.01725
G1 X143.461 Y123.266 E.01725
G1 X143.045 Y123.626 E.01725
G1 X142.545 Y123.855 E.01724
G1 X141.962 Y123.936 E.01846
G1 X108.111 Y123.936 E1.06137
G1 X107.725 Y123.913 E.01212
G1 X107.197 Y123.758 E.01725
G1 X106.734 Y123.461 E.01725
G1 X106.38 Y123.053 E.01694
G1 X106.145 Y122.545 E.01755
G1 X106.064 Y121.962 E.01846
G1 X106.064 Y88.111 E1.06137
G1 X106.087 Y87.725 E.01212
G1 X106.242 Y87.197 E.01725
G1 X106.507 Y86.785 E.01536
G1 X106.271 Y86.502 F9000
G1 F1200
G1 X106.487 Y86.253 E.01034
G1 X107.041 Y85.897 E.02065
G1 X107.511 Y85.747 E.01547
G1 X108.025 Y85.687 E.01623
G1 X142.077 Y85.694 E1.06767
G1 X142.651 Y85.782 E.01821
G1 X143.25 Y86.056 E.02065
G1 X143.747 Y86.487 E.02063
G1 X144.102 Y87.04 E.0206
G1 X144.253 Y87.51 E.01548
G1 X144.313 Y88.111 E.01894
G1 X144.313 Y121.889 E1.05908
G1 X144.307 Y122.062 E.00543
G1 X144.218 Y122.651 E.01868
G1 X143.944 Y123.25 E.02065
G1 X143.513 Y123.747 E.02063
G1 X142.96 Y124.102 E.0206
G1 X142.49 Y124.253 E.01548
G1 X141.975 Y124.313 E.01626
G1 X108.111 Y124.313 E1.06178
G1 X107.938 Y124.307 E.00543
M73 P1 R38
G1 X107.349 Y124.218 E.01868
G1 X106.75 Y123.944 E.02065
G1 X106.253 Y123.513 E.02063
G1 X105.897 Y122.959 E.02065
G1 X105.747 Y122.489 E.01547
G1 X105.687 Y121.975 E.01623
G1 X105.687 Y88.111 E1.06178
G1 X105.693 Y87.938 E.00543
G1 X105.782 Y87.349 E.01868
G1 X106.056 Y86.75 E.02065
G1 X106.232 Y86.547 E.00842
G1 X105.968 Y86.239 F9000
;TYPE:External perimeter
G1 F1200
G1 X106.39 Y85.855 E.01789
G1 X106.883 Y85.554 E.01811
G1 X107.431 Y85.379 E.01804
G1 X108.011 Y85.31 E.01831
G1 X141.89 Y85.311 E1.06225
G1 X142.383 Y85.338 E.01548
G1 X142.938 Y85.487 E.01802
G1 X143.454 Y85.738 E.01799
G1 X143.895 Y86.102 E.01793
G1 X144.262 Y86.546 E.01806
G1 X144.513 Y87.063 E.01802
G1 X144.662 Y87.617 E.01799
G1 X144.69 Y88.111 E.01551
G1 X144.69 Y121.889 E1.05908
G1 X144.676 Y122.191 E.00948
G1 X144.58 Y122.758 E.01803
G1 X144.354 Y123.286 E.01801
G1 X144.032 Y123.761 E.01799
G1 X143.607 Y124.147 E.018
G1 X143.117 Y124.446 E.018
G1 X142.57 Y124.621 E.01801
G1 X141.989 Y124.69 E.01834
G1 X108.111 Y124.69 E1.06222
G1 X107.809 Y124.676 E.00948
G1 X107.242 Y124.58 E.01803
G1 X106.714 Y124.354 E.01801
G1 X106.239 Y124.032 E.01799
G1 X105.855 Y123.61 E.01789
G1 X105.554 Y123.117 E.01811
G1 X105.379 Y122.569 E.01804
G1 X105.31 Y121.989 E.01831
G1 X105.31 Y88.111 E1.06222
G1 X105.324 Y87.809 E.00948
G1 X105.42 Y87.242 E.01803
G1 X105.646 Y86.714 E.01801
G1 X105.934 Y86.289 E.0161
;WIPE_START
G1 F7200
G1 X105.968 Y86.239 E-.01436
G1 X106.39 Y85.855 E-.13551
G1 X106.883 Y85.554 E-.13719
G1 X107.431 Y85.379 E-.13663
G1 X108.011 Y85.31 E-.13872
G1 X109.011 Y85.31 E-.23759
;WIPE_END
G1 X132.595 Y104.75 F9000
G1 E.8 F1800
;WIDTH:0.38292
G1 F1200
G1 X132.594 Y103.909 E.02378
;WIPE_START
G1 F7200
G1 X132.595 Y104.75 E-.19974
;WIPE_END
G1 E-.60026 F1800
G1 X131.425 Y108.3 F9000
G1 E.8 F1800
;WIDTH:0.447174
G1 F1200
G1 X131.425 Y107.468 E.02797
;WIPE_START
G1 F7200
G1 X131.425 Y108.3 E-.1976
;WIPE_END
G1 E-.6024 F1800
G1 X127.771 Y108.215 F9000
G1 E.8 F1800
;WIDTH:0.532952
G1 F1200
G1 X127.638 Y107.899 E.01397
;WIPE_START
G1 F7200
G1 X127.771 Y108.215 E-.08143
;WIPE_END
G1 E-.71857 F1800
G1 X124.653 Y107.317 F9000
G1 E.8 F1800
;WIDTH:0.6085
G1 F1200
G1 X124.233 Y108.129 E.04299
;WIDTH:0.612788
G1 X124.212 Y108.173 E.00231
G1 X124.653 Y107.317 F9000
;WIDTH:0.608456
G1 F1200
G1 X124.675 Y107.226 E.0044
;WIDTH:0.564055
G1 X124.698 Y107.134 E.00411
;WIDTH:0.519654
G1 X124.72 Y107.043 E.00371
;WIDTH:0.475252
G1 X124.802 Y106.855 E.00737
;WIDTH:0.447626
G1 X124.883 Y106.668 E.00686
;WIDTH:0.419999
G1 X125.21 Y106.036 E.02231
G1 X125.438 Y106.408 E.01368
G1 X125.734 Y107.154 E.02516
;WIDTH:0.447626
G1 X125.299 Y107.194 E.0147
;WIDTH:0.475252
G1 X124.864 Y107.235 E.01571
;WIDTH:0.519654
G1 X124.793 Y107.262 E.00301
;WIDTH:0.564055
G1 X124.723 Y107.29 E.00327
;WIDTH:0.608456
G1 X124.709 Y107.295 E.0007
G1 X125.223 Y106.796 F9000
;TYPE:Perimeter
;WIDTH:0.383742
G1 F1200
G1 X125.159 Y106.833 E.0021
G1 X125.223 Y106.87 E.0021
G1 X125.244 Y106.833 E.00121
;WIPE_START
G1 F7200
G1 X125.223 Y106.87 E-.0101
G1 X125.159 Y106.833 E-.01756
G1 X125.223 Y106.796 E-.01756
;WIPE_END
G1 E-.75478 F1800
G1 X118.12 Y105.758 F9000
G1 E.8 F1800
;TYPE:External perimeter
;WIDTH:0.533262
G1 F1200
G1 X118.222 Y105.224 E.02217
;WIPE_START
G1 F7200
G1 X118.12 Y105.758 E-.12912
;WIPE_END
G1 E-.67088 F1800
G1 X116.833 Y105.313 F9000
G1 E.8 F1800
;WIDTH:0.399721
G1 F1200
G1 X116.738 Y105.361 E.00316
;WIDTH:0.415737
G1 X116.331 Y105.385 E.01264
;WIDTH:0.434594
G1 X115.549 Y105.405 E.02548
;WIDTH:0.449458
G1 X114.843 Y105.434 E.02389
G1 X114.86 Y105.015 E.01418
G1 X115.546 Y105.014 E.02319
;WIDTH:0.434463
G1 X116.661 Y105.024 E.0363
;WIDTH:0.399721
G1 X116.829 Y105.09 E.00536
G1 X116.872 Y105.196 E.00339
G1 X116.852 Y105.256 E.00188
;WIPE_START
G1 F7200
G1 X116.833 Y105.313 E-.01427
G1 X116.738 Y105.361 E-.02528
G1 X116.331 Y105.385 E-.09683
G1 X115.549 Y105.405 E-.18579
G1 X114.843 Y105.434 E-.16782
G1 X114.86 Y105.015 E-.09959
G1 X115.546 Y105.014 E-.16293
G1 X115.746 Y105.016 E-.04749
;WIPE_END
G1 X113.602 Y104.762 F9000
G1 E.8 F1800
;WIDTH:0.495608
G1 F1200
G1 X113.604 Y103.909 E.03211
;WIDTH:0.492206
G1 X113.604 Y103.908 E.00004
;WIPE_START
G1 F7200
G1 X113.604 Y103.909 E-.00024
G1 X113.602 Y104.762 E-.20259
;WIPE_END
G1 E-.59717 F1800
G1 X112.767 Y105.827 F9000
G1 E.8 F1800
;TYPE:Perimeter
;WIDTH:0.526971
G1 F1200
G1 X112.761 Y106.364 E.02162
G1 X112.433 Y106.337 E.01325
;WIDTH:0.523611
G1 X111.22 Y106.336 E.04848
;WIDTH:0.514859
G1 X111.085 Y106.312 E.00538
G1 X110.999 Y106.222 E.00488
G1 X110.992 Y106.009 E.00836
G1 X111.061 Y105.892 E.00533
G1 X111.213 Y105.864 E.00607
;WIDTH:0.523605
G1 X112.431 Y105.856 E.04868
;WIDTH:0.526971
G1 X112.707 Y105.832 E.01115
;WIPE_START
G1 F7200
G1 X112.767 Y105.827 E-.0143
G1 X112.761 Y106.364 E-.12755
G1 X112.433 Y106.337 E-.07816
G1 X111.22 Y106.336 E-.28809
G1 X111.085 Y106.312 E-.03257
G1 X110.999 Y106.222 E-.02956
G1 X110.992 Y106.009 E-.05061
G1 X111.061 Y105.892 E-.03226
G1 X111.213 Y105.864 E-.03671
G1 X111.677 Y105.861 E-.11019
;WIPE_END
G1 X113.233 Y106.847 F9000
G1 E.8 F1800
;WIDTH:0.419999
G1 F1200
G1 X112.431 Y106.766 E.02527
G1 X111.218 Y106.761 E.03803
G1 X110.89 Y106.704 E.01044
G1 X110.725 Y106.583 E.00642
G1 X110.597 Y106.382 E.00747
G1 X110.544 Y106.111 E.00866
G1 X110.574 Y105.938 E.00551
G1 X110.667 Y105.704 E.0079
G1 X110.877 Y105.499 E.0092
G1 X111.133 Y105.441 E.00823
G1 X112.427 Y105.427 E.04057
G1 X113.254 Y105.342 E.02607
G1 X113.199 Y105.764 E.01334
G1 X113.187 Y106.296 E.01668
G1 X113.228 Y106.787 E.01545
G1 X113.604 Y107.468 F9000
;TYPE:External perimeter
;WIDTH:0.491968
G1 F1200
G1 X113.535 Y107.329 E.00579
;WIDTH:0.460434
G1 X113.362 Y107.24 E.00675
;WIDTH:0.419999
G1 X112.429 Y107.143 E.02941
G1 X111.216 Y107.138 E.03803
G1 X110.732 Y107.055 E.0154
G1 X110.444 Y106.846 E.01116
G1 X110.241 Y106.523 E.01196
G1 X110.161 Y106.116 E.01301
G1 X110.232 Y105.699 E.01326
G1 X110.429 Y105.366 E.01213
G1 X110.714 Y105.149 E.01123
G1 X111.089 Y105.064 E.01206
G1 X112.423 Y105.05 E.04183
G1 X113.285 Y104.96 E.02717
;WIDTH:0.458827
G1 X113.498 Y104.903 E.00763
;WIDTH:0.495608
G1 X113.602 Y104.762 E.00659
G1 X113.621 Y104.982 E.00831
;WIDTH:0.457804
G1 X113.64 Y105.202 E.00762
;WIDTH:0.419999
G1 X113.578 Y105.755 E.01745
G1 X113.563 Y106.265 E.016
G1 X113.623 Y106.985 E.02265
;WIDTH:0.455984
G1 X113.614 Y107.226 E.00828
;WIDTH:0.491968
G1 X113.607 Y107.408 E.0068
G1 X113.604 Y108.302 F9000
;WIDTH:0.49368
G1 F1200
G1 X113.604 Y107.468 E.03126
;WIPE_START
G1 F7200
G1 X113.604 Y108.302 E-.19808
;WIPE_END
G1 E-.60192 F1800
G1 X114.883 Y109.316 F9000
G1 E.8 F1800
;TYPE:Perimeter
;WIDTH:0.419999
G1 F1200
G1 X114.819 Y109.342 E.00217
G1 X114.436 Y109.342 E.01201
G1 X113.753 Y109.259 E.02157
G1 X113.605 Y109.209 E.0049
G1 X113.441 Y109.261 E.00539
G1 X112.434 Y109.362 E.03173
G1 X111.073 Y109.368 E.04267
G1 X110.534 Y109.313 E.01699
G1 X109.924 Y109.125 E.02001
G1 X109.378 Y108.816 E.01967
G1 X108.911 Y108.407 E.01946
G1 X108.533 Y107.916 E.01943
G1 X108.252 Y107.358 E.01959
G1 X108.076 Y106.745 E.02
G1 X108.016 Y106.088 E.02069
G1 X108.033 Y105.839 E.00783
G1 X108.205 Y104.984 E.02734
G1 X108.326 Y104.678 E.01032
G1 X108.76 Y103.97 E.02604
G1 X108.989 Y103.715 E.01075
G1 X109.622 Y103.23 E.025
G1 X110.249 Y102.952 E.0215
G1 X110.977 Y102.835 E.02312
G1 X112.528 Y102.833 E.04863
G1 X113.674 Y102.944 E.0361
G1 X114.835 Y102.829 E.03658
G1 X116.774 Y102.823 E.0608
G1 X117.48 Y102.961 E.02256
G1 X117.817 Y103.113 E.01159
G1 X118.26 Y103.468 E.0178
G1 X118.382 Y103.605 E.00575
G1 X118.646 Y103.372 E.01104
G1 X119.114 Y103.091 E.01712
G1 X119.587 Y102.923 E.01574
G1 X120.316 Y102.823 E.02307
G1 X122.599 Y102.824 E.07158
G1 X122.919 Y102.88 E.01019
G1 X123.113 Y102.977 E.0068
G1 X123.391 Y103.238 E.01196
G1 X123.501 Y103.387 E.00581
G1 X123.634 Y103.893 E.0164
G1 X123.616 Y104.636 E.0233
G1 X124.273 Y103.363 E.04492
G1 X124.426 Y103.147 E.0083
G1 X124.733 Y102.931 E.01177
G1 X124.995 Y102.859 E.00852
G1 X125.51 Y102.866 E.01615
G1 X125.848 Y102.995 E.01134
G1 X126.09 Y103.211 E.01017
G1 X126.827 Y104.605 E.04944
G1 X126.825 Y103.874 E.02292
G1 X126.959 Y103.388 E.01581
G1 X127.16 Y103.137 E.01008
G1 X127.464 Y102.912 E.01186
G1 X127.793 Y102.827 E.01065
G1 X128.685 Y102.824 E.02797
G1 X129.041 Y102.894 E.01138
G1 X129.227 Y102.996 E.00665
G1 X129.479 Y103.241 E.01102
G1 X129.63 Y103.468 E.00855
G1 X129.721 Y103.871 E.01295
G1 X129.721 Y106.386 E.07886
G1 X130.34 Y106.389 E.01941
G1 X130.639 Y106.417 E.00942
G1 X130.589 Y105.855 E.01769
G1 X130.589 Y104.401 E.04559
G1 X130.615 Y103.896 E.01585
G1 X130.711 Y103.473 E.0136
G1 X130.95 Y103.154 E.0125
G1 X131.223 Y102.953 E.01063
G1 X131.572 Y102.859 E.01133
G1 X132.113 Y102.924 E.01708
G1 X132.656 Y102.934 E.01703
G1 X133.157 Y102.864 E.01586
G1 X134.19 Y102.825 E.03241
G1 X137.103 Y102.824 E.09133
G1 X137.469 Y102.898 E.01171
G1 X137.743 Y103.053 E.00987
G1 X137.927 Y103.238 E.00818
G1 X138.471 Y103.96 E.02834
G1 X139.014 Y103.237 E.02835
G1 X139.335 Y102.966 E.01317
G1 X139.637 Y102.846 E.01019
G1 X139.839 Y102.824 E.00637
G1 X140.883 Y102.824 E.03273
G1 X141.09 Y102.847 E.00653
G1 X141.327 Y102.936 E.00794
G1 X141.566 Y103.118 E.00942
G1 X141.831 Y103.594 E.01708
G1 X141.903 Y103.955 E.01154
G1 X141.858 Y104.242 E.00911
G1 X141.714 Y104.521 E.00984
G1 X139.919 Y106.908 E.09364
G1 X139.919 Y108.321 E.0443
G1 X139.888 Y108.559 E.00753
G1 X139.802 Y108.775 E.00729
G1 X139.582 Y109.057 E.01121
G1 X139.288 Y109.276 E.01149
G1 X139.005 Y109.36 E.00926
G1 X138.059 Y109.368 E.02966
G1 X137.741 Y109.312 E.01012
G1 X137.505 Y109.187 E.00837
G1 X137.264 Y108.951 E.01058
G1 X137.105 Y108.707 E.00913
G1 X137.023 Y108.321 E.01237
G1 X137.023 Y106.908 E.0443
G1 X136.201 Y105.815 E.04288
G1 X136.201 Y108.321 E.07857
G1 X136.119 Y108.707 E.01237
G1 X135.864 Y109.057 E.01358
G1 X135.538 Y109.29 E.01256
G1 X135.247 Y109.364 E.00941
G1 X134.342 Y109.367 E.02838
G1 X133.975 Y109.293 E.01174
G1 X133.635 Y109.049 E.01312
G1 X133.389 Y108.71 E.01313
G1 X133.379 Y108.669 E.00132
G1 X133.202 Y108.955 E.01055
G1 X132.901 Y109.218 E.01253
G1 X132.538 Y109.337 E.01198
G1 X131.57 Y109.262 E.03044
G1 X131.276 Y109.262 E.00922
G1 X130.322 Y109.358 E.03006
G1 X129.28 Y109.363 E.03267
G1 X128.174 Y109.262 E.03482
G1 X127.936 Y109.188 E.00781
G1 X127.629 Y109.278 E.01003
G1 X127.107 Y109.335 E.01646
G1 X126.04 Y109.366 E.03347
G1 X124.993 Y109.333 E.03284
G1 X124.391 Y109.257 E.01903
G1 X124.152 Y109.189 E.00779
G1 X123.478 Y109.296 E.0214
G1 X122.898 Y109.266 E.01821
G1 X121.28 Y109.362 E.05082
G1 X120.32 Y109.368 E.0301
G1 X119.791 Y109.315 E.01667
G1 X119.191 Y109.131 E.01968
G1 X118.9 Y108.98 E.01028
G1 X118.694 Y109.199 E.00943
G1 X118.328 Y109.352 E.01244
G1 X118.157 Y109.367 E.00538
G1 X117.035 Y109.368 E.03518
G1 X116.714 Y109.311 E.01022
G1 X116.466 Y109.192 E.00862
G1 X116.227 Y108.979 E.01004
G1 X115.662 Y108.344 E.02665
G1 X115.418 Y108.967 E.02098
G1 X115.159 Y109.204 E.01101
G1 X114.939 Y109.294 E.00745
G1 X114.75 Y108.957 F9000
G1 F1200
G1 X114.622 Y108.982 E.00409
G1 X113.836 Y108.89 E.02481
G1 X113.604 Y108.794 E.00787
G1 X113.402 Y108.886 E.00696
G1 X112.433 Y108.985 E.03054
G1 X111.071 Y108.991 E.0427
G1 X110.454 Y108.91 E.01951
G1 X109.94 Y108.717 E.01721
G1 X109.484 Y108.426 E.01696
G1 X109.096 Y108.05 E.01694
G1 X108.784 Y107.603 E.01709
G1 X108.557 Y107.098 E.01736
G1 X108.432 Y106.607 E.01589
G1 X108.392 Y106.063 E.0171
G1 X108.575 Y105.059 E.032
G1 X108.647 Y104.876 E.00617
G1 X109.081 Y104.167 E.02606
G1 X109.219 Y104.014 E.00646
G1 X109.851 Y103.529 E.02498
G1 X110.38 Y103.305 E.01801
G1 X110.896 Y103.218 E.01641
G1 X112.528 Y103.21 E.05117
G1 X113.366 Y103.301 E.02643
G1 X113.529 Y103.333 E.00521
G1 X113.604 Y103.383 E.00283
G1 X113.81 Y103.304 E.00692
G1 X114.782 Y103.208 E.03062
G1 X116.774 Y103.2 E.06246
G1 X117.395 Y103.328 E.01988
G1 X117.624 Y103.44 E.00799
G1 X118.023 Y103.762 E.01608
G1 X118.223 Y104.052 E.01105
G1 X118.326 Y104.267 E.00747
G1 X118.515 Y104.012 E.00995
G1 X118.845 Y103.692 E.01441
G1 X119.314 Y103.417 E.01705
G1 X119.8 Y103.256 E.01605
G1 X120.316 Y103.2 E.01627
G1 X122.599 Y103.201 E.07158
G1 X122.837 Y103.254 E.00765
G1 X123.111 Y103.491 E.01136
G1 X123.178 Y103.58 E.00349
G1 X123.257 Y103.884 E.00985
G1 X123.236 Y104.769 E.02776
