; generated by PrusaSlicer 2.7.2-beta1+win64 on 2024-02-24 at 18:00:50 UTC


;
;

;
;
; 

; external perimeters extrusion width = 0.42mm
; perimeters extrusion width = 0.44mm
; infill extrusion width = 0.44mm
; solid infill extrusion width = 0.44mm
; top infill extrusion width = 0.40mm
; support material extrusion width = 0.36mm
; first layer extrusion width = 0.42mm

; external perimeters extrusion width = 0.42mm
; perimeters extrusion width = 0.44mm
; infill extrusion width = 0.44mm
; solid infill extrusion width = 0.44mm
; top infill extrusion width = 0.40mm
; support material extrusion width = 0.36mm
; first layer extrusion width = 0.42mm

M73 P0 R39

; printing object Bed_Handle_L.stl id:1 copy 0
; stop printing object Bed_Handle_L.stl id:1 copy 0
; printing object Bed_Handle_R.stl id:2 copy 0
; stop printing object Bed_Handle_R.stl id:2 copy 0

M190 S60 ; set bed temperature and wait for it to be reached
M104 S215 ; set temperature
;TYPE:Custom
SET_PRINT_STATS_INFO TOTAL_LAYER=31
START_PRINT EXTRUDER_TEMP=215 BED_TEMP=60 AREA_START=73.9352,64.2114 AREA_END=158.764,166.789
M109 S215 ; set temperature and wait for it to be reached
G21 ; set units to millimeters
G90 ; use absolute coordinates
M83 ; use relative distances for extrusion
; Filament gcode
M107
;LAYER_CHANGE
;Z:0.2
;HEIGHT:0.2
G1 E-1.5 F5100
G1 Z.2 F9000
G1 X78.369 Y80.976
G1 Z.2
G1 E1.5 F3600
M204 S3000
;TYPE:Skirt/Brim
;WIDTH:0.42
G1 F1200
G1 X79.479 Y80.046 E.0454
G1 X80.527 Y79.336 E.03969
G1 X81.967 Y78.572 E.05111
G1 X83.317 Y78.045 E.04544
G1 X127.916 Y64.545 E1.46103
G1 X128.894 Y64.4 E.031
G1 X135.474 Y64.4 E.20631
G1 X137.057 Y64.794 E.05115
G1 X137.824 Y65.352 E.02974
G1 X138.245 Y65.76 E.01838
G1 X138.953 Y66.753 E.03824
G1 X158.041 Y108.569 E1.44125
G1 X158.311 Y109.343 E.0257
G1 X158.483 Y110.16 E.02618
G1 X158.575 Y111.148 E.03111
G1 X158.551 Y159.771 E1.52454
G1 X158.413 Y160.722 E.03013
G1 X158.185 Y161.545 E.02678
G1 X156.952 Y164.247 E.09312
G1 X156.244 Y165.24 E.03824
G1 X155.822 Y165.648 E.0184
G1 X154.411 Y166.467 E.05115
G1 X153.472 Y166.6 E.02974
G1 X146.892 Y166.6 E.20631
G1 X145.914 Y166.455 E.031
G1 X101.315 Y152.955 E1.46103
G1 X99.153 Y152.025 E.07379
G1 X97.332 Y150.843 E.06807
G1 X96.234 Y149.898 E.04542
G1 X94.906 Y148.418 E.06235
G1 X94.085 Y147.224 E.04543
G1 X93.398 Y145.95 E.04538
G1 X74.426 Y104.145 E1.43943
G1 X74.124 Y102.75 E.04475
G1 X74.14 Y90.117 E.3961
G1 X74.286 Y88.676 E.04541
G1 X74.588 Y87.259 E.04543
G1 X75.4 Y85.05 E.07379
G1 X75.993 Y83.932 E.03968
G1 X76.797 Y82.728 E.04539
G1 X78.329 Y81.021 E.07192
; printing object Bed_Handle_L.stl id:1 copy 0
G1 E-1.05 F5100
;WIPE_START
G1 F7200
G1 X78.369 Y80.976 E-.04051
G1 X78.835 Y80.585 E-.40949
;WIPE_END
G1 X130.286 Y120.774 F9000
G1 E1.5 F3600
;TYPE:Support material interface
;WIDTH:0.36
G1 F1200
G1 X130.286 Y98.66 E.58304
G1 X130.79 Y98.66 E.01329
G1 X130.804 Y120.774 E.58304
G1 X131.321 Y120.774 E.01363
G1 X131.321 Y120.596 E.00469
G1 X131.525 Y120.689 E.00591
G1 X131.479 Y120.774 E.00255
G1 X131.479 Y120.774 F9000
G1 X133.389 Y120.774
G1 F1200
G1 X133.906 Y120.418 E.01655
G1 X133.906 Y120.774 E.00939
G1 X134.423 Y120.774 E.01363
G1 X134.423 Y120.262 E.0135
G1 X134.568 Y119.763 E.0137
G1 X134.565 Y71.736 E1.26625
G1 X134.423 Y71.245 E.01348
G1 X134.423 Y70.725 E.01371
G1 X134.94 Y70.725 E.01363
G1 X134.94 Y120.774 E1.31956
G1 X135.457 Y120.774 E.01363
M73 P1 R39
G1 X135.457 Y70.725 E1.31956
G1 X135.457 Y70.725 F9000
G1 X134.265 Y70.725
G1 F1200
G1 X133.906 Y70.725 E.00947
G1 X133.906 Y71.087 E.00954
G1 X133.389 Y70.725 E.01664
G1 X133.389 Y70.725 F9000
G1 X133.525 Y71.248
;TYPE:Support material
;WIDTH:0.42
G1 F1200
G1 X133.801 Y71.556 E.01297
G1 X133.84 Y71.748 E.00614
G1 X133.85 Y114.11 E1.32823
G1 X133.846 Y119.752 E.1769
G1 X133.807 Y119.944 E.00614
G1 X133.526 Y120.257 E.01319
G1 X133.726 Y119.787 E.01602
G1 X133.733 Y115.56 E.13253
G1 X133.715 Y71.712 E1.37482
G1 X133.517 Y71.248 E.01582
G1 E-1.05 F5100
;WIPE_START
G1 F7200
G1 X133.715 Y71.712 E-.33947
G1 X133.715 Y71.876 E-.11053
;WIPE_END
G1 X131.493 Y71.238 F9000
G1 E1.5 F3600
G1 F1200
G1 X131.289 Y71.72 E.01641
G1 X131.284 Y74.124 E.07538
G1 X131.158 Y74.178 E.0043
G1 X131.161 Y71.745 E.07629
G1 X131.201 Y71.555 E.00609
G1 X131.466 Y71.256 E.01253
G1 X131.466 Y71.256 F9000
G1 X130.835 Y71.49
;TYPE:Support material interface
;WIDTH:0.36
G1 F1200
G1 X131.028 Y71.154 E.01022
G1 X131.321 Y70.909 E.01007
G1 X131.321 Y70.725 E.00485
G1 X130.804 Y70.725 E.01363
G1 X130.793 Y82.839 E.31939
G1 X130.286 Y82.839 E.01337
G1 X130.286 Y70.725 E.31939
G1 E-1.05 F5100
;WIPE_START
G1 F7200
G1 X130.286 Y71.394 E-.45
;WIPE_END
G1 X135.474 Y68.279 F9000
G1 E1.5 F3600
;TYPE:Support material
;WIDTH:0.42
G1 F1200
G1 X135.895 Y68.185 E.01353
G1 X136.965 Y70.469 E.07908
G1 X137.196 Y71.649 E.0377
G1 X137.187 Y120.048 E1.51752
G1 X136.969 Y121.03 E.03154
G1 X135.896 Y123.322 E.07935
G1 X135.474 Y123.228 E.01356
G1 X135.474 Y123.723 E.01552
G1 X128.894 Y123.723 E.20631
G1 X128.894 Y116.355 E.23102
G1 X129.84 Y116.76 E.03227
G1 X129.84 Y121.143 E.13743
G1 X131.894 Y121.143 E.0644
G1 X131.894 Y120.539 E.01894
G1 X132.474 Y120.633 E.01842
G1 X132.474 Y121.143 E.01599
G1 X135.845 Y121.143 E.1057
G1 X135.845 Y70.357 E1.59236
G1 X132.474 Y70.357 E.1057
G1 X132.474 Y70.872 E.01615
G1 X131.894 Y70.966 E.01842
G1 X131.894 Y70.357 E.01909
G1 X129.84 Y70.357 E.0644
G1 X129.84 Y74.743 E.13752
G1 X128.894 Y75.148 E.03227
G1 X128.894 Y67.777 E.23111
G1 X135.474 Y67.777 E.20631
G1 X135.474 Y68.223 E.01398
G1 E-1.05 F5100
;WIPE_START
G1 F7200
G1 X135.474 Y67.777 E-.30012
G1 X135.251 Y67.777 E-.14988
;WIPE_END
G1 X136.667 Y121.275 F9000
G1 E1.5 F3600
G1 F1200
G1 X136.667 Y70.652 E1.58725
G1 X136.248 Y69.739 E.0315
G1 X136.248 Y121.769 E1.63136
G1 X135.829 Y122.664 E.03099
M73 P2 R39
G1 X135.829 Y121.482 E.03706
G1 X135.41 Y121.482 E.01314
G1 X135.41 Y122.866 E.04339
G1 X135.134 Y122.805 E.00886
G1 X135.134 Y123.384 E.01815
G1 X134.991 Y123.384 E.00448
G1 X134.991 Y121.482 E.05964
G1 X134.572 Y121.482 E.01314
G1 X134.572 Y123.384 E.05964
G1 X134.153 Y123.384 E.01314
G1 X134.153 Y121.482 E.05964
G1 X133.734 Y121.482 E.01314
G1 X133.734 Y123.384 E.05964
G1 X133.315 Y123.384 E.01314
G1 X133.315 Y121.482 E.05964
G1 X132.896 Y121.482 E.01314
G1 X132.896 Y123.384 E.05964
G1 X132.477 Y123.384 E.01314
G1 X132.477 Y121.482 E.05964
G1 X132.058 Y121.482 E.01314
G1 X132.058 Y123.384 E.05964
G1 X131.639 Y123.384 E.01314
G1 X131.639 Y121.482 E.05964
G1 X131.22 Y121.482 E.01314
G1 X131.22 Y123.384 E.05964
G1 X130.801 Y123.384 E.01314
G1 X130.801 Y121.482 E.05964
G1 X130.383 Y121.482 E.01311
G1 X130.383 Y123.384 E.05964
G1 X129.964 Y123.384 E.01314
G1 X129.964 Y121.482 E.05964
G1 X129.545 Y121.482 E.01314
G1 X129.545 Y123.553 E.06493
G1 E-1.05 F5100
;WIPE_START
G1 F7200
G1 X129.545 Y122.884 E-.45
;WIPE_END
G1 X135.829 Y70.187 F9000
G1 E1.5 F3600
G1 F1200
G1 X135.829 Y68.844 E.04211
G1 X135.703 Y68.576 E.00929
G1 X135.41 Y68.641 E.00941
G1 X135.41 Y70.017 E.04314
G1 X134.991 Y70.017 E.01314
G1 X134.991 Y68.116 E.0596
G1 X134.572 Y68.116 E.01314
G1 X134.572 Y70.017 E.0596
G1 X134.153 Y70.017 E.01314
G1 X134.153 Y68.116 E.0596
G1 X133.734 Y68.116 E.01314
G1 X133.734 Y70.017 E.0596
G1 X133.315 Y70.017 E.01314
G1 X133.315 Y68.116 E.0596
G1 X132.896 Y68.116 E.01314
G1 X132.896 Y70.017 E.0596
G1 X132.477 Y70.017 E.01314
G1 X132.477 Y68.116 E.0596
G1 X132.058 Y68.116 E.01314
G1 X132.058 Y70.017 E.0596
G1 X131.639 Y70.017 E.01314
G1 X131.639 Y68.116 E.0596
G1 X131.22 Y68.116 E.01314
G1 X131.22 Y70.017 E.0596
G1 X130.801 Y70.017 E.01314
G1 X130.801 Y68.116 E.0596
G1 X130.383 Y68.116 E.01311
G1 X130.383 Y70.017 E.0596
G1 X129.964 Y70.017 E.01314
G1 X129.964 Y68.116 E.0596
G1 X129.545 Y68.116 E.01314
G1 X129.545 Y74.684 E.20594
G1 E-1.05 F5100
;WIPE_START
G1 F7200
G1 X129.545 Y74.015 E-.45
;WIPE_END
G1 X131.276 Y117.375 F9000
G1 E1.5 F3600
G1 F1200
G1 X131.28 Y119.78 E.07541
G1 X131.477 Y120.258 E.01621
G1 X131.195 Y119.944 E.01323
G1 X131.156 Y119.754 E.00608
G1 X131.153 Y117.323 E.07622
G1 X131.224 Y117.353 E.00242
G1 E-1.05 F5100
;WIPE_START
G1 F7200
G1 X131.153 Y117.323 E-.05187
G1 X131.154 Y117.915 E-.39813
;WIPE_END
G1 X132.195 Y97.294 F9000
G1 E1.5 F3600
;TYPE:Perimeter
;WIDTH:0.419999
G1 F1200
G1 X131.869 Y97.186 E.01077
G1 X97.372 Y97.186 E1.08163
G1 X96.614 Y97.207 E.02378
G1 X96.326 Y97.32 E.0097
G1 X96.091 Y97.521 E.0097
G1 X95.687 Y98.001 E.01967
G1 X95.316 Y98.399 E.01706
G1 X94.926 Y98.778 E.01705
G1 X94.517 Y99.137 E.01706
G1 X94.092 Y99.476 E.01705
G1 X93.649 Y99.793 E.01708
G1 X93.192 Y100.088 E.01705
G1 X92.72 Y100.359 E.01707
G1 X92.236 Y100.607 E.01705
G1 X91.74 Y100.83 E.01705
G1 X91.233 Y101.029 E.01708
G1 X90.717 Y101.202 E.01706
G1 X90.194 Y101.349 E.01703
G1 X89.663 Y101.469 E.01707
G1 X89.127 Y101.564 E.01707
G1 X88.587 Y101.631 E.01706
G1 X88.045 Y101.672 E.01704
G1 X87.488 Y101.686 E.01747
G1 X78.565 Y101.686 E.27977
G1 X78.566 Y90.726 E.34364
G1 X78.59 Y90.125 E.01886
G1 X78.669 Y89.408 E.02262
G1 X78.76 Y88.904 E.01606
G1 X78.891 Y88.359 E.01757
G1 X79.059 Y87.825 E.01755
G1 X79.266 Y87.288 E.01804
G1 X79.504 Y86.77 E.01787
G1 X79.792 Y86.235 E.01905
G1 X80.064 Y85.8 E.01609
G1 X80.387 Y85.342 E.01757
G1 X80.741 Y84.908 E.01756
G1 X81.116 Y84.503 E.01731
G1 X81.627 Y84.02 E.02205
G1 X82.034 Y83.684 E.01655
G1 X82.486 Y83.354 E.01755
G1 X82.961 Y83.056 E.01758
G1 X83.432 Y82.797 E.01685
G1 X83.969 Y82.546 E.01859
G1 X84.576 Y82.308 E.02044
G1 X85.11 Y82.14 E.01755
G1 X85.655 Y82.009 E.01757
G1 X86.203 Y81.912 E.01745
G1 X86.941 Y81.834 E.02327
G1 X87.515 Y81.814 E.01801
G1 X98.437 Y81.814 E.34245
G1 X98.437 Y83.371 E.04882
M73 P2 R38
G1 X98.534 Y83.788 E.01342
G1 X98.757 Y84.079 E.0115
G1 X99.014 Y84.24 E.00951
G1 X99.379 Y84.314 E.01168
G1 X131.872 Y84.314 E1.01879
G1 X132.192 Y84.208 E.01057
G1 X132.195 Y97.234 E.40842
G1 X132.195 Y97.234 F9000
G1 X131.965 Y97.595
G1 F1200
G1 X131.869 Y97.563 E.00317
G1 X96.812 Y97.563 E1.09919
G1 X96.582 Y97.612 E.00737
G1 X96.379 Y97.764 E.00795
G1 X95.969 Y98.251 E.01996
G1 X95.586 Y98.663 E.01764
G1 X95.182 Y99.055 E.01765
G1 X94.759 Y99.427 E.01766
G1 X94.319 Y99.777 E.01763
G1 X93.861 Y100.105 E.01766
G1 X93.388 Y100.41 E.01765
G1 X92.9 Y100.691 E.01766
G1 X92.399 Y100.947 E.01764
G1 X91.886 Y101.178 E.01764
G1 X91.362 Y101.383 E.01764
G1 X90.828 Y101.562 E.01766
G1 X90.286 Y101.714 E.01765
G1 X89.738 Y101.839 E.01762
G1 X89.183 Y101.937 E.01767
G1 X88.625 Y102.007 E.01763
G1 X88.063 Y102.048 E.01767
G1 X87.492 Y102.063 E.01791
G1 X78.188 Y102.063 E.29172
G1 X78.188 Y90.759 E.35443
G1 X78.202 Y90.246 E.01609
G1 X78.243 Y89.743 E.01582
G1 X78.311 Y89.243 E.01582
G1 X78.406 Y88.748 E.0158
G1 X78.528 Y88.258 E.01583
G1 X78.676 Y87.776 E.01581
G1 X78.85 Y87.303 E.0158
G1 X79.049 Y86.839 E.01583
G1 X79.273 Y86.388 E.01579
G1 X79.521 Y85.949 E.01581
G1 X79.793 Y85.524 E.01582
G1 X80.087 Y85.114 E.01582
G1 X80.403 Y84.721 E.01581
G1 X80.74 Y84.345 E.01583
G1 X81.096 Y83.989 E.01579
G1 X81.472 Y83.652 E.01583
G1 X81.865 Y83.336 E.01581
G1 X82.275 Y83.042 E.01582
G1 X82.7 Y82.77 E.01582
G1 X83.139 Y82.522 E.01581
G1 X83.591 Y82.298 E.01582
G1 X84.054 Y82.099 E.0158
G1 X84.527 Y81.925 E.0158
G1 X85.009 Y81.777 E.01581
G1 X85.499 Y81.655 E.01583
G1 X85.994 Y81.56 E.0158
G1 X86.494 Y81.492 E.01582
G1 X86.997 Y81.451 E.01582
G1 X87.51 Y81.437 E.01609
G1 X98.814 Y81.437 E.35443
G1 X98.814 Y83.371 E.06064
G1 X98.833 Y83.518 E.00465
G1 X98.915 Y83.694 E.00609
G1 X99.097 Y83.862 E.00777
G1 X99.379 Y83.937 E.00915
G1 X131.872 Y83.937 E1.01879
G1 X132.212 Y83.824 E.01123
;WIDTH:0.466671
G1 X132.307 Y83.709 E.00526
;WIDTH:0.513343
G1 X132.403 Y83.595 E.00583
;WIDTH:0.560014
G1 X132.499 Y83.481 E.00641
G1 X132.522 Y83.655 E.00755
;WIDTH:0.513343
G1 X132.545 Y83.828 E.00683
;WIDTH:0.466671
G1 X132.569 Y84.002 E.00619
;WIDTH:0.419999
G1 X132.572 Y97.494 E.42303
;WIDTH:0.465665
G1 X132.549 Y97.706 E.0075
;WIDTH:0.511331
G1 X132.526 Y97.917 E.00827
;WIDTH:0.556996
G1 X132.504 Y98.128 E.00907
G1 X132.405 Y97.977 E.00772
;WIDTH:0.511331
G1 X132.307 Y97.827 E.00698
;WIDTH:0.465665
G1 X132.209 Y97.676 E.00633
;WIDTH:0.419999
G1 X132.022 Y97.614 E.00618
G1 X132.022 Y97.614 F9000
G1 X131.869 Y97.94
;TYPE:External perimeter
G1 F1200
G1 X96.812 Y97.94 E1.09919
G1 X96.668 Y98.007 E.00498
G1 X96.252 Y98.501 E.02025
G1 X95.855 Y98.926 E.01823
G1 X95.438 Y99.332 E.01825
G1 X95.001 Y99.716 E.01824
G1 X94.546 Y100.078 E.01823
G1 X94.074 Y100.417 E.01822
G1 X93.585 Y100.732 E.01824
G1 X93.081 Y101.022 E.01823
G1 X92.563 Y101.287 E.01824
G1 X92.032 Y101.526 E.01826
G1 X91.491 Y101.738 E.01822
G1 X90.939 Y101.923 E.01825
G1 X90.379 Y102.08 E.01824
G1 X89.812 Y102.209 E.01823
G1 X89.239 Y102.31 E.01824
G1 X88.662 Y102.382 E.01823
G1 X88.082 Y102.425 E.01824
G1 X87.497 Y102.44 E.01835
G1 X77.811 Y102.44 E.3037
G1 X77.811 Y90.754 E.36641
G1 X77.825 Y90.225 E.01659
G1 X77.868 Y89.702 E.01645
G1 X77.939 Y89.182 E.01646
G1 X78.037 Y88.667 E.01644
G1 X78.164 Y88.157 E.01648
G1 X78.318 Y87.656 E.01643
G1 X78.499 Y87.163 E.01647
G1 X78.707 Y86.681 E.01646
G1 X78.94 Y86.211 E.01645
G1 X79.198 Y85.754 E.01645
G1 X79.481 Y85.312 E.01646
G1 X79.787 Y84.886 E.01645
G1 X80.116 Y84.477 E.01646
G1 X80.466 Y84.086 E.01645
G1 X80.837 Y83.715 E.01645
G1 X81.228 Y83.365 E.01645
G1 X81.637 Y83.036 E.01646
G1 X82.063 Y82.73 E.01645
G1 X82.505 Y82.447 E.01646
G1 X82.962 Y82.189 E.01645
G1 X83.432 Y81.955 E.01646
G1 X83.914 Y81.748 E.01645
M73 P3 R38
G1 X84.407 Y81.567 E.01647
G1 X84.908 Y81.413 E.01643
G1 X85.418 Y81.286 E.01648
G1 X85.933 Y81.188 E.01644
G1 X86.453 Y81.117 E.01646
G1 X86.976 Y81.074 E.01645
G1 X87.505 Y81.06 E.01659
G1 X99.191 Y81.06 E.36641
G1 X99.191 Y83.371 E.07246
G1 X99.239 Y83.497 E.00423
G1 X99.379 Y83.56 E.00481
G1 X131.872 Y83.56 E1.01879
G1 X131.986 Y83.522 E.00377
G1 X132.061 Y83.371 E.00529
G1 X132.061 Y71.805 E.36264
G1 X132.141 Y71.716 E.00375
G1 X132.387 Y71.644 E.00804
G1 X132.826 Y71.69 E.01384
G1 X132.943 Y71.811 E.00528
G1 X132.954 Y119.69 E1.50121
G1 X132.873 Y119.784 E.00389
G1 X132.614 Y119.861 E.00847
G1 X132.175 Y119.815 E.01384
G1 X132.052 Y119.707 E.00513
G1 X132.058 Y98.128 E.67659
G1 X131.983 Y97.978 E.00526
G1 X131.926 Y97.959 E.00188
G1 E-1.05 F5100
;WIPE_START
G1 F7200
G1 X131.869 Y97.94 E-.04043
G1 X131.26 Y97.94 E-.40957
;WIPE_END
G1 X132.499 Y83.481 F9000
G1 E1.5 F3600
;TYPE:Perimeter
;WIDTH:0.560014
G1 F1200
G1 X132.503 Y83.371 E.00473
;WIDTH:0.550456
G1 X132.502 Y72.085 E.47629
G1 E-1.05 F5100
;WIPE_START
G1 F7200
G1 X132.502 Y72.754 E-.45
;WIPE_END
G1 X132.503 Y119.41 F9000
G1 E1.5 F3600
;WIDTH:0.568156
G1 F1200
G1 X132.504 Y98.129 E.92942
;WIDTH:0.556996
G1 X132.504 Y98.128 E.00004
G1 E-1.05 F5100
;WIPE_START
G1 F7200
G1 X132.504 Y98.129 E-.00067
G1 X132.504 Y98.797 E-.44933
;WIPE_END
G1 X84.991 Y88.612 F9000
G1 E1.5 F3600
;WIDTH:0.419999
G1 F1200
G1 X85.438 Y88.162 E.01989
G1 X86.043 Y87.783 E.02238
G1 X86.355 Y87.65 E.01063
G1 X86.861 Y87.499 E.01656
G1 X87.584 Y87.441 E.02274
G1 X88.345 Y87.549 E.0241
G1 X89.06 Y87.83 E.02409
G1 X89.691 Y88.269 E.0241
G1 X90.204 Y88.841 E.02409
G1 X90.572 Y89.516 E.02411
G1 X90.774 Y90.257 E.02408
G1 X90.799 Y91.025 E.02409
G1 X90.647 Y91.778 E.02409
G1 X90.325 Y92.476 E.0241
G1 X89.905 Y93.016 E.02145
G1 X89.691 Y93.231 E.00951
G1 X89.245 Y93.563 E.01743
G1 X88.747 Y93.804 E.01735
G1 X88.345 Y93.95 E.01341
G1 X87.802 Y94.046 E.01729
G1 X87.034 Y94.027 E.02409
G1 X86.291 Y93.831 E.02409
G1 X85.575 Y93.445 E.0255
G1 X85.041 Y92.964 E.02253
G1 X84.594 Y92.332 E.02427
G1 X84.307 Y91.619 E.0241
G1 X84.194 Y90.88 E.02344
G1 X84.256 Y90.099 E.02456
G1 X84.464 Y89.449 E.0214
G1 X84.61 Y89.142 E.01066
G1 X84.896 Y88.707 E.01632
G1 X84.949 Y88.654 E.00235
G1 X84.949 Y88.654 F9000
G1 X85.262 Y88.865
G1 F1200
G1 X85.696 Y88.436 E.01913
G1 X86.232 Y88.109 E.01969
G1 X86.781 Y87.916 E.01825
G1 X87.056 Y87.849 E.00887
G1 X87.606 Y87.817 E.01727
G1 X88.279 Y87.921 E.02135
G1 X88.911 Y88.176 E.02137
G1 X89.466 Y88.571 E.02136
G1 X89.916 Y89.083 E.02137
G1 X90.235 Y89.685 E.02136
G1 X90.407 Y90.344 E.02135
G1 X90.422 Y91.025 E.02136
G1 X90.28 Y91.691 E.02135
