; generated by PrusaSlicer 2.7.2-rc1+win64 on 2024-02-25 at 14:12:26 UTC


;
;

;
;
; 

; external perimeters extrusion width = 0.42mm
; perimeters extrusion width = 0.44mm
; infill extrusion width = 0.44mm
; solid infill extrusion width = 0.44mm
; top infill extrusion width = 0.40mm
; first layer extrusion width = 0.42mm

M73 P0 R21

; printing object EASYESTEPSV2.stl id:0 copy 0
; stop printing object EASYESTEPSV2.stl id:0 copy 0

M190 S60 ; set bed temperature and wait for it to be reached
M104 S205 ; set temperature
;TYPE:Custom
SET_PRINT_STATS_INFO TOTAL_LAYER=27
START_PRINT EXTRUDER_TEMP=205 BED_TEMP=60 AREA_START=49.4344,100.607 AREA_END=181.566,117.377
M109 S205 ; set temperature and wait for it to be reached
G21 ; set units to millimeters
G90 ; use absolute coordinates
M83 ; use relative distances for extrusion
; Filament gcode
M107
;LAYER_CHANGE
;Z:0.2
;HEIGHT:0.2
G1 E-1.5 F5100
G1 Z.2 F9000
G1 X51.107 Y101.376
G1 Z.2
G1 E1.5 F3600
M204 S3000
;TYPE:Skirt/Brim
;WIDTH:0.42
G1 F1200
G1 X53 Y100.795 E.06209
G1 X178 Y100.795 E3.91929
G1 X179.583 Y101.189 E.05115
G1 X180.797 Y102.28 E.05118
G1 X181.377 Y104.172 E.06205
G1 X181.377 Y113.812 E.30226
G1 X180.983 Y115.395 E.05115
G1 X179.893 Y116.609 E.05116
G1 X178 Y117.189 E.06208
G1 X53 Y117.189 E3.91929
G1 X51.417 Y116.795 E.05115
M73 P1 R21
G1 X50.203 Y115.704 E.05118
G1 X49.623 Y113.812 E.06205
G1 X49.623 Y104.172 E.30226
G1 X50.017 Y102.589 E.05115
G1 X51.067 Y101.42 E.04927
; printing object EASYESTEPSV2.stl id:0 copy 0
G1 E-1.05 F5100
;WIPE_START
G1 F7200
G1 X51.107 Y101.376 E-.04001
G1 X51.689 Y101.197 E-.40999
;WIPE_END
G1 X53.687 Y104.86 F9000
G1 E1.5 F3600
;TYPE:Perimeter
;WIDTH:0.419999
G1 F1200
G1 X177.313 Y104.86 E3.8762
G1 X177.313 Y108.992 E.12956
G1 X177.313 Y113.125 E.12959
G1 X53.687 Y113.125 E3.8762
G1 X53.687 Y104.92 E.25726
M73 P2 R20
G1 X53.687 Y104.92 F9000
G1 X53.31 Y104.482
;TYPE:External perimeter
G1 F1200
G1 X177.69 Y104.482 E3.89984
G1 X177.69 Y108.992 E.14141
G1 X177.69 Y113.502 E.14141
G1 X53.31 Y113.502 E3.89984
G1 X53.31 Y104.542 E.28093
M73 P3 R20
G1 E-1.05 F5100
;WIPE_START
G1 F7200
G1 X53.31 Y104.482 E-.04038
G1 X53.919 Y104.482 E-.40962
;WIPE_END
G1 X176.428 Y104.98 F9000
G1 E1.5 F3600
;TYPE:Solid infill
;WIDTH:0.420859
G1 F1200
G1 X177.023 Y105.575 E.02644
G1 X177.023 Y106.109 E.01678
G1 X176.063 Y105.15 E.04264
G1 X175.529 Y105.15 E.01678
G1 X177.023 Y106.644 E.0664
G1 X177.023 Y107.178 E.01678
G1 X174.994 Y105.15 E.09015
G1 X174.46 Y105.15 E.01678
G1 X177.023 Y107.713 E.11391
G1 X177.023 Y108.247 E.01678
G1 X173.925 Y105.15 E.13766
G1 X173.391 Y105.15 E.01678
G1 X177.023 Y108.781 E.16139
G1 X177.023 Y109.316 E.01681
G1 X172.856 Y105.15 E.18517
G1 X172.322 Y105.15 E.01678
G1 X177.023 Y109.85 E.2089
G1 X177.023 Y110.385 E.01681
G1 X171.787 Y105.15 E.23268
G1 X171.253 Y105.15 E.01678
G1 X177.023 Y110.919 E.25641
G1 X177.023 Y111.454 E.01681
G1 X170.719 Y105.15 E.28017
G1 X170.184 Y105.15 E.01681
G1 X177.023 Y111.988 E.30392
G1 X177.023 Y112.523 E.01681
G1 X169.65 Y105.15 E.32768
G1 X169.115 Y105.15 E.01681
G1 X176.799 Y112.834 E.3415
G1 X176.265 Y112.834 E.01678
G1 X168.581 Y105.15 E.3415
G1 X168.046 Y105.15 E.01681
G1 X175.73 Y112.834 E.3415
G1 X175.196 Y112.834 E.01678
G1 X167.512 Y105.15 E.3415
G1 X166.977 Y105.15 E.01681
G1 X174.662 Y112.834 E.34152
G1 X174.127 Y112.834 E.01681
G1 X166.443 Y105.15 E.3415
G1 X165.908 Y105.15 E.01681
G1 X173.593 Y112.834 E.34152
G1 X173.058 Y112.834 E.01681
M73 P4 R20
G1 X165.374 Y105.15 E.3415
G1 X164.839 Y105.15 E.01681
G1 X172.524 Y112.834 E.34152
G1 X171.989 Y112.834 E.01681
G1 X164.305 Y105.15 E.3415
G1 X163.77 Y105.15 E.01681
G1 X171.455 Y112.834 E.34152
G1 X170.92 Y112.834 E.01681
G1 X163.236 Y105.15 E.3415
G1 X162.701 Y105.15 E.01681
G1 X170.386 Y112.834 E.34152
G1 X169.851 Y112.834 E.01681
G1 X162.167 Y105.15 E.3415
G1 X161.632 Y105.15 E.01681
G1 X169.317 Y112.834 E.34152
G1 X168.782 Y112.834 E.01681
G1 X161.098 Y105.15 E.3415
G1 X160.563 Y105.15 E.01681
G1 X168.248 Y112.834 E.34152
G1 X167.713 Y112.834 E.01681
G1 X160.029 Y105.15 E.3415
G1 X159.494 Y105.15 E.01681
G1 X167.179 Y112.834 E.34152
G1 X166.644 Y112.834 E.01681
G1 X158.96 Y105.15 E.3415
G1 X158.425 Y105.15 E.01681
G1 X166.11 Y112.834 E.34152
G1 X165.575 Y112.834 E.01681
G1 X157.891 Y105.15 E.3415
G1 X157.356 Y105.15 E.01681
G1 X165.041 Y112.834 E.34152
G1 X164.506 Y112.834 E.01681
G1 X156.822 Y105.15 E.3415
G1 X156.287 Y105.15 E.01681
G1 X163.972 Y112.834 E.34152
G1 X163.437 Y112.834 E.01681
G1 X155.753 Y105.15 E.3415
G1 X155.218 Y105.15 E.01681
G1 X162.903 Y112.834 E.34152
G1 X162.368 Y112.834 E.01681
G1 X154.684 Y105.15 E.3415
G1 X154.149 Y105.15 E.01681
G1 X161.834 Y112.834 E.34152
G1 X161.299 Y112.834 E.01681
M73 P5 R20
G1 X153.615 Y105.15 E.3415
G1 X153.08 Y105.15 E.01681
G1 X160.765 Y112.834 E.34152
G1 X160.23 Y112.834 E.01681
G1 X152.546 Y105.15 E.3415
G1 X152.011 Y105.15 E.01681
G1 X159.696 Y112.834 E.34152
G1 X159.161 Y112.834 E.01681
G1 X151.477 Y105.15 E.3415
G1 X150.943 Y105.15 E.01678
G1 X158.627 Y112.834 E.3415
G1 X158.092 Y112.834 E.01681
G1 X150.408 Y105.15 E.3415
G1 X149.874 Y105.15 E.01678
G1 X157.558 Y112.834 E.3415
G1 X157.023 Y112.834 E.01681
G1 X149.339 Y105.15 E.3415
G1 X148.805 Y105.15 E.01678
G1 X156.489 Y112.834 E.3415
G1 X155.954 Y112.834 E.01681
G1 X148.27 Y105.15 E.3415
G1 X147.736 Y105.15 E.01678
G1 X155.42 Y112.834 E.3415
G1 X154.886 Y112.834 E.01678
G1 X147.201 Y105.15 E.34152
G1 X146.667 Y105.15 E.01678
G1 X154.351 Y112.834 E.3415
G1 X153.817 Y112.834 E.01678
G1 X146.132 Y105.15 E.34152
G1 X145.598 Y105.15 E.01678
G1 X153.282 Y112.834 E.3415
G1 X152.748 Y112.834 E.01678
G1 X145.063 Y105.15 E.34152
G1 X144.529 Y105.15 E.01678
G1 X152.213 Y112.834 E.3415
G1 X151.679 Y112.834 E.01678
G1 X143.994 Y105.15 E.34152
G1 X143.46 Y105.15 E.01678
G1 X151.144 Y112.834 E.3415
G1 X150.61 Y112.834 E.01678
G1 X142.925 Y105.15 E.34152
G1 X142.391 Y105.15 E.01678
G1 X150.075 Y112.834 E.3415
G1 X149.541 Y112.834 E.01678
G1 X141.856 Y105.15 E.34152
G1 X141.322 Y105.15 E.01678
M73 P6 R20
G1 X149.006 Y112.834 E.3415
G1 X148.472 Y112.834 E.01678
G1 X140.787 Y105.15 E.34152
G1 X140.253 Y105.15 E.01678
G1 X147.937 Y112.834 E.3415
G1 X147.403 Y112.834 E.01678
G1 X139.718 Y105.15 E.34152
G1 X139.184 Y105.15 E.01678
G1 X146.868 Y112.834 E.3415
G1 X146.334 Y112.834 E.01678
G1 X138.649 Y105.15 E.34152
G1 X138.115 Y105.15 E.01678
G1 X145.799 Y112.834 E.3415
G1 X145.265 Y112.834 E.01678
G1 X137.58 Y105.15 E.34152
G1 X137.046 Y105.15 E.01678
G1 X144.73 Y112.834 E.3415
G1 X144.196 Y112.834 E.01678
G1 X136.511 Y105.15 E.34152
G1 X135.977 Y105.15 E.01678
G1 X143.661 Y112.834 E.3415
G1 X143.127 Y112.834 E.01678
G1 X135.442 Y105.15 E.34152
G1 X134.908 Y105.15 E.01678
G1 X142.592 Y112.834 E.3415
G1 X142.058 Y112.834 E.01678
M73 P6 R19
G1 X134.373 Y105.15 E.34152
G1 X133.839 Y105.15 E.01678
G1 X141.523 Y112.834 E.3415
G1 X140.989 Y112.834 E.01678
G1 X133.304 Y105.15 E.34152
G1 X132.77 Y105.15 E.01678
G1 X140.454 Y112.834 E.3415
G1 X139.92 Y112.834 E.01678
G1 X132.235 Y105.15 E.34152
G1 X131.701 Y105.15 E.01678
G1 X139.385 Y112.834 E.3415
G1 X138.851 Y112.834 E.01678
G1 X131.167 Y105.15 E.3415
G1 X130.632 Y105.15 E.01681
G1 X138.316 Y112.834 E.3415
G1 X137.782 Y112.834 E.01678
G1 X130.098 Y105.15 E.3415
G1 X129.563 Y105.15 E.01681
M73 P7 R19
G1 X137.247 Y112.834 E.3415
G1 X136.713 Y112.834 E.01678
G1 X129.029 Y105.15 E.3415
G1 X128.494 Y105.15 E.01681
G1 X136.178 Y112.834 E.3415
G1 X135.644 Y112.834 E.01678
G1 X127.96 Y105.15 E.3415
G1 X127.425 Y105.15 E.01681
G1 X135.11 Y112.834 E.34152
G1 X134.575 Y112.834 E.01681
G1 X126.891 Y105.15 E.3415
G1 X126.356 Y105.15 E.01681
G1 X134.041 Y112.834 E.34152
G1 X133.506 Y112.834 E.01681
G1 X125.822 Y105.15 E.3415
G1 X125.287 Y105.15 E.01681
G1 X132.972 Y112.834 E.34152
G1 X132.437 Y112.834 E.01681
G1 X124.753 Y105.15 E.3415
G1 X124.218 Y105.15 E.01681
G1 X131.903 Y112.834 E.34152
G1 X131.368 Y112.834 E.01681
G1 X123.684 Y105.15 E.3415
G1 X123.149 Y105.15 E.01681
G1 X130.834 Y112.834 E.34152
G1 X130.299 Y112.834 E.01681
G1 X122.615 Y105.15 E.3415
G1 X122.08 Y105.15 E.01681
G1 X129.765 Y112.834 E.34152
G1 X129.23 Y112.834 E.01681
G1 X121.546 Y105.15 E.3415
G1 X121.011 Y105.15 E.01681
G1 X128.696 Y112.834 E.34152
G1 X128.161 Y112.834 E.01681
G1 X120.477 Y105.15 E.3415
G1 X119.942 Y105.15 E.01681
G1 X127.627 Y112.834 E.34152
G1 X127.092 Y112.834 E.01681
G1 X119.408 Y105.15 E.3415
G1 X118.873 Y105.15 E.01681
G1 X126.558 Y112.834 E.34152
G1 X126.023 Y112.834 E.01681
G1 X118.339 Y105.15 E.3415
G1 X117.804 Y105.15 E.01681
M73 P8 R19
G1 X125.489 Y112.834 E.34152
G1 X124.954 Y112.834 E.01681
G1 X117.27 Y105.15 E.3415
G1 X116.735 Y105.15 E.01681
G1 X124.42 Y112.834 E.34152
G1 X123.885 Y112.834 E.01681
G1 X116.201 Y105.15 E.3415
G1 X115.666 Y105.15 E.01681
G1 X123.351 Y112.834 E.34152
G1 X122.816 Y112.834 E.01681
G1 X115.132 Y105.15 E.3415
G1 X114.597 Y105.15 E.01681
G1 X122.282 Y112.834 E.34152
G1 X121.747 Y112.834 E.01681
G1 X114.063 Y105.15 E.3415
G1 X113.528 Y105.15 E.01681
G1 X121.213 Y112.834 E.34152
G1 X120.678 Y112.834 E.01681
G1 X112.994 Y105.15 E.3415
G1 X112.459 Y105.15 E.01681
G1 X120.144 Y112.834 E.34152
G1 X119.609 Y112.834 E.01681
G1 X111.925 Y105.15 E.3415
G1 X111.391 Y105.15 E.01678
G1 X119.075 Y112.834 E.3415
G1 X118.54 Y112.834 E.01681
G1 X110.856 Y105.15 E.3415
G1 X110.322 Y105.15 E.01678
G1 X118.006 Y112.834 E.3415
G1 X117.471 Y112.834 E.01681
G1 X109.787 Y105.15 E.3415
G1 X109.253 Y105.15 E.01678
G1 X116.937 Y112.834 E.3415
G1 X116.402 Y112.834 E.01681
G1 X108.718 Y105.15 E.3415
G1 X108.184 Y105.15 E.01678
G1 X115.868 Y112.834 E.3415
G1 X115.334 Y112.834 E.01678
G1 X107.649 Y105.15 E.34152
G1 X107.115 Y105.15 E.01678
G1 X114.799 Y112.834 E.3415
G1 X114.265 Y112.834 E.01678
G1 X106.58 Y105.15 E.34152
G1 X106.046 Y105.15 E.01678
G1 X113.73 Y112.834 E.3415
G1 X113.196 Y112.834 E.01678
M73 P9 R19
G1 X105.511 Y105.15 E.34152
G1 X104.977 Y105.15 E.01678
G1 X112.661 Y112.834 E.3415
G1 X112.127 Y112.834 E.01678
G1 X104.442 Y105.15 E.34152
G1 X103.908 Y105.15 E.01678
G1 X111.592 Y112.834 E.3415
G1 X111.058 Y112.834 E.01678
G1 X103.373 Y105.15 E.34152
G1 X102.839 Y105.15 E.01678
G1 X110.523 Y112.834 E.3415
G1 X109.989 Y112.834 E.01678
G1 X102.304 Y105.15 E.34152
G1 X101.77 Y105.15 E.01678
G1 X109.454 Y112.834 E.3415
G1 X108.92 Y112.834 E.01678
G1 X101.235 Y105.15 E.34152
G1 X100.701 Y105.15 E.01678
G1 X108.385 Y112.834 E.3415
G1 X107.851 Y112.834 E.01678
G1 X100.166 Y105.15 E.34152
G1 X99.632 Y105.15 E.01678
G1 X107.316 Y112.834 E.3415
G1 X106.782 Y112.834 E.01678
G1 X99.097 Y105.15 E.34152
G1 X98.563 Y105.15 E.01678
G1 X106.247 Y112.834 E.3415
G1 X105.713 Y112.834 E.01678
G1 X98.028 Y105.15 E.34152
G1 X97.494 Y105.15 E.01678
G1 X105.178 Y112.834 E.3415
G1 X104.644 Y112.834 E.01678
G1 X96.959 Y105.15 E.34152
G1 X96.425 Y105.15 E.01678
G1 X104.109 Y112.834 E.3415
G1 X103.575 Y112.834 E.01678
G1 X95.89 Y105.15 E.34152
G1 X95.356 Y105.15 E.01678
G1 X103.04 Y112.834 E.3415
G1 X102.506 Y112.834 E.01678
G1 X94.821 Y105.15 E.34152
G1 X94.287 Y105.15 E.01678
G1 X101.971 Y112.834 E.3415
G1 X101.437 Y112.834 E.01678
M73 P10 R19
G1 X93.752 Y105.15 E.34152
G1 X93.218 Y105.15 E.01678
G1 X100.902 Y112.834 E.3415
G1 X100.368 Y112.834 E.01678
G1 X92.683 Y105.15 E.34152
G1 X92.149 Y105.15 E.01678
G1 X99.833 Y112.834 E.3415
G1 X99.299 Y112.834 E.01678
G1 X91.615 Y105.15 E.3415
G1 X91.08 Y105.15 E.01681
G1 X98.764 Y112.834 E.3415
G1 X98.23 Y112.834 E.01678
G1 X90.546 Y105.15 E.3415
G1 X90.011 Y105.15 E.01681
G1 X97.695 Y112.834 E.3415
G1 X97.161 Y112.834 E.01678
G1 X89.477 Y105.15 E.3415
G1 X88.942 Y105.15 E.01681
G1 X96.626 Y112.834 E.3415
G1 X96.092 Y112.834 E.01678
G1 X88.408 Y105.15 E.3415
G1 X87.873 Y105.15 E.01681
G1 X95.558 Y112.834 E.34152
G1 X95.023 Y112.834 E.01681
G1 X87.339 Y105.15 E.3415
G1 X86.804 Y105.15 E.01681
G1 X94.489 Y112.834 E.34152
G1 X93.954 Y112.834 E.01681
G1 X86.27 Y105.15 E.3415
G1 X85.735 Y105.15 E.01681
G1 X93.42 Y112.834 E.34152
G1 X92.885 Y112.834 E.01681
G1 X85.201 Y105.15 E.3415
G1 X84.666 Y105.15 E.01681
G1 X92.351 Y112.834 E.34152
G1 X91.816 Y112.834 E.01681
G1 X84.132 Y105.15 E.3415
G1 X83.597 Y105.15 E.01681
G1 X91.282 Y112.834 E.34152
G1 X90.747 Y112.834 E.01681
G1 X83.063 Y105.15 E.3415
G1 X82.528 Y105.15 E.01681
G1 X90.213 Y112.834 E.34152
G1 X89.678 Y112.834 E.01681
M73 P11 R19
G1 X81.994 Y105.15 E.3415
G1 X81.459 Y105.15 E.01681
G1 X89.144 Y112.834 E.34152
G1 X88.609 Y112.834 E.01681
G1 X80.925 Y105.15 E.3415
G1 X80.39 Y105.15 E.01681
G1 X88.075 Y112.834 E.34152
G1 X87.54 Y112.834 E.01681
G1 X79.856 Y105.15 E.3415
G1 X79.321 Y105.15 E.01681
G1 X87.006 Y112.834 E.34152
G1 X86.471 Y112.834 E.01681
M73 P11 R18
G1 X78.787 Y105.15 E.3415
G1 X78.252 Y105.15 E.01681
G1 X85.937 Y112.834 E.34152
G1 X85.402 Y112.834 E.01681
G1 X77.718 Y105.15 E.3415
G1 X77.183 Y105.15 E.01681
G1 X84.868 Y112.834 E.34152
G1 X84.333 Y112.834 E.01681
G1 X76.649 Y105.15 E.3415
G1 X76.114 Y105.15 E.01681
G1 X83.799 Y112.834 E.34152
G1 X83.264 Y112.834 E.01681
G1 X75.58 Y105.15 E.3415
G1 X75.045 Y105.15 E.01681
G1 X82.73 Y112.834 E.34152
G1 X82.195 Y112.834 E.01681
G1 X74.511 Y105.15 E.3415
G1 X73.976 Y105.15 E.01681
G1 X81.661 Y112.834 E.34152
G1 X81.126 Y112.834 E.01681
G1 X73.442 Y105.15 E.3415
G1 X72.907 Y105.15 E.01681
G1 X80.592 Y112.834 E.34152
G1 X80.057 Y112.834 E.01681
G1 X72.373 Y105.15 E.3415
G1 X71.839 Y105.15 E.01678
G1 X79.523 Y112.834 E.3415
G1 X78.988 Y112.834 E.01681
G1 X71.304 Y105.15 E.3415
G1 X70.77 Y105.15 E.01678
G1 X78.454 Y112.834 E.3415
G1 X77.919 Y112.834 E.01681
G1 X70.235 Y105.15 E.3415
G1 X69.701 Y105.15 E.01678
M73 P12 R18
G1 X77.385 Y112.834 E.3415
G1 X76.85 Y112.834 E.01681
G1 X69.166 Y105.15 E.3415
G1 X68.632 Y105.15 E.01678
G1 X76.316 Y112.834 E.3415
G1 X75.782 Y112.834 E.01678
G1 X68.097 Y105.15 E.34152
G1 X67.563 Y105.15 E.01678
G1 X75.247 Y112.834 E.3415
G1 X74.713 Y112.834 E.01678
G1 X67.028 Y105.15 E.34152
G1 X66.494 Y105.15 E.01678
G1 X74.178 Y112.834 E.3415
G1 X73.644 Y112.834 E.01678
G1 X65.959 Y105.15 E.34152
G1 X65.425 Y105.15 E.01678
G1 X73.109 Y112.834 E.3415
G1 X72.575 Y112.834 E.01678
G1 X64.89 Y105.15 E.34152
G1 X64.356 Y105.15 E.01678
G1 X72.04 Y112.834 E.3415
G1 X71.506 Y112.834 E.01678
G1 X63.821 Y105.15 E.34152
G1 X63.287 Y105.15 E.01678
G1 X70.971 Y112.834 E.3415
G1 X70.437 Y112.834 E.01678
G1 X62.752 Y105.15 E.34152
G1 X62.218 Y105.15 E.01678
G1 X69.902 Y112.834 E.3415
G1 X69.368 Y112.834 E.01678
G1 X61.683 Y105.15 E.34152
G1 X61.149 Y105.15 E.01678
G1 X68.833 Y112.834 E.3415
G1 X68.299 Y112.834 E.01678
G1 X60.614 Y105.15 E.34152
G1 X60.08 Y105.15 E.01678
G1 X67.764 Y112.834 E.3415
G1 X67.23 Y112.834 E.01678
G1 X59.545 Y105.15 E.34152
G1 X59.011 Y105.15 E.01678
G1 X66.695 Y112.834 E.3415
G1 X66.161 Y112.834 E.01678
G1 X58.476 Y105.15 E.34152
G1 X57.942 Y105.15 E.01678
M73 P13 R18
G1 X65.626 Y112.834 E.3415
G1 X65.092 Y112.834 E.01678
G1 X57.407 Y105.15 E.34152
G1 X56.873 Y105.15 E.01678
G1 X64.557 Y112.834 E.3415
G1 X64.023 Y112.834 E.01678
G1 X56.338 Y105.15 E.34152
G1 X55.804 Y105.15 E.01678
G1 X63.488 Y112.834 E.3415
G1 X62.954 Y112.834 E.01678
G1 X55.269 Y105.15 E.34152
G1 X54.735 Y105.15 E.01678
G1 X62.419 Y112.834 E.3415
G1 X61.885 Y112.834 E.01678
G1 X54.2 Y105.15 E.34152
G1 X53.977 Y105.15 E.00701
G1 X53.977 Y105.461 E.00977
G1 X61.35 Y112.834 E.32768
G1 X60.816 Y112.834 E.01678
G1 X53.977 Y105.996 E.30392
G1 X53.977 Y106.53 E.01678
G1 X60.281 Y112.834 E.28017
G1 X59.747 Y112.834 E.01678
G1 X53.977 Y107.065 E.25641
G1 X53.977 Y107.599 E.01678
G1 X59.212 Y112.834 E.23266
G1 X58.678 Y112.834 E.01678
G1 X53.977 Y108.134 E.2089
G1 X53.977 Y108.668 E.01678
G1 X58.143 Y112.834 E.18515
G1 X57.609 Y112.834 E.01678
G1 X53.977 Y109.203 E.16139
G1 X53.977 Y109.737 E.01678
G1 X57.074 Y112.834 E.13764
G1 X56.54 Y112.834 E.01678
G1 X53.977 Y110.272 E.11388
G1 X53.977 Y110.806 E.01678
G1 X56.006 Y112.834 E.09015
G1 X55.471 Y112.834 E.01681
G1 X53.977 Y111.341 E.06638
G1 X53.977 Y111.875 E.01678
G1 X54.937 Y112.834 E.04264
G1 X54.402 Y112.834 E.01681
G1 X53.808 Y112.24 E.0264
; stop printing object EASYESTEPSV2.stl id:0 copy 0
