; generated by PrusaSlicer 2.7.2-rc1+win64 on 2024-02-25 at 15:58:36 UTC


;
;

;
;
; 

; external perimeters extrusion width = 0.42mm
; perimeters extrusion width = 0.44mm
; infill extrusion width = 0.44mm
; solid infill extrusion width = 0.44mm
; top infill extrusion width = 0.40mm
; first layer extrusion width = 0.42mm

M73 P0 R74

; printing object square_tower(3).stl id:0 copy 0
; stop printing object square_tower(3).stl id:0 copy 0

M190 S60 ; set bed temperature and wait for it to be reached
M104 S205 ; set temperature
;TYPE:Custom
SET_PRINT_STATS_INFO TOTAL_LAYER=179
START_PRINT EXTRUDER_TEMP=205 BED_TEMP=60 AREA_START=78.9344,78.9618 AREA_END=152.066,152.038
M109 S205 ; set temperature and wait for it to be reached
G21 ; set units to millimeters
G90 ; use absolute coordinates
M83 ; use relative distances for extrusion
; Filament gcode
M107
;LAYER_CHANGE
;Z:0.2
;HEIGHT:0.2
G1 E-1.5 F5100
G1 Z.2 F9000
G1 X82.169 Y81.052
G1 Z.2
G1 E1.5 F3600
;TYPE:Skirt/Brim
;WIDTH:0.42
G1 F1200
G1 X83.626 Y80.085 E.05483
G1 X85.253 Y79.441 E.05486
G1 X86.977 Y79.15 E.05482
G1 X144.023 Y79.15 E1.78864
G1 X144.725 Y79.224 E.02213
G1 X145.747 Y79.441 E.03276
G1 X147.374 Y80.085 E.05486
G1 X148.831 Y81.052 E.05483
G1 X149.355 Y81.525 E.02213
G1 X150.055 Y82.301 E.03277
G1 X150.992 Y83.778 E.05484
G1 X151.603 Y85.417 E.05484
G1 X151.859 Y87.147 E.05483
G1 X151.877 Y143.5 E1.76691
G1 X151.749 Y144.893 E.04386
M73 P0 R73
G1 X151.279 Y146.577 E.05482
G1 X150.47 Y148.127 E.05482
G1 X150.055 Y148.699 E.02216
G1 X148.831 Y149.948 E.05483
G1 X147.374 Y150.915 E.05483
G1 X145.747 Y151.559 E.05486
G1 X144.023 Y151.85 E.05482
G1 X86.977 Y151.85 E1.78864
G1 X85.253 Y151.559 E.05482
G1 X84.581 Y151.34 E.02216
G1 X83.015 Y150.562 E.05483
G1 X82.169 Y149.948 E.03278
G1 X80.945 Y148.699 E.05483
G1 X80.008 Y147.222 E.05484
G1 X79.397 Y145.583 E.05484
G1 X79.251 Y144.893 E.02211
G1 X79.123 Y143.5 E.04386
G1 X79.123 Y87.5 E1.75584
G1 X79.251 Y86.107 E.04386
G1 X79.72 Y84.423 E.05481
G1 X80.008 Y83.778 E.02215
G1 X80.945 Y82.301 E.05484
G1 X82.127 Y81.095 E.05295
; printing object square_tower(3).stl id:0 copy 0
G1 E-1.05 F5100
;WIPE_START
G1 F7200
G1 X82.169 Y81.052 E-.04045
G1 X82.676 Y80.715 E-.40955
;WIPE_END
G1 X86.095 Y91.165 F9000
G1 E1.5 F3600
;TYPE:Perimeter
;WIDTH:0.419999
G1 F1200
G1 X86.005 Y91.113 E.00326
G1 X85.535 Y90.903 E.01614
G1 X84.87 Y90.421 E.02575
G1 X84.321 Y89.81 E.02575
G1 X83.91 Y89.098 E.02578
G1 X83.656 Y88.317 E.02575
G1 X83.57 Y87.5 E.02576
G1 X83.656 Y86.683 E.02576
G1 X83.91 Y85.902 E.02575
G1 X84.321 Y85.19 E.02578
G1 X84.87 Y84.579 E.02575
G1 X85.535 Y84.097 E.02575
G1 X86.286 Y83.762 E.02578
G1 X87.089 Y83.592 E.02574
G1 X87.911 Y83.592 E.02577
G1 X88.714 Y83.762 E.02574
G1 X89.465 Y84.097 E.02578
G1 X90.13 Y84.579 E.02575
G1 X90.679 Y85.19 E.02575
G1 X91.224 Y86.17 E.03516
G1 X91.417 Y86.37 E.00871
G1 X91.68 Y86.512 E.00937
G1 X91.99 Y86.564 E.00986
G1 X139.009 Y86.564 E1.47425
G1 X139.172 Y86.55 E.00513
G1 X139.582 Y86.37 E.01404
G1 X139.776 Y86.17 E.00874
G1 X139.909 Y85.902 E.00938
G1 X140.321 Y85.19 E.02579
G1 X140.87 Y84.579 E.02575
G1 X141.535 Y84.097 E.02575
G1 X142.286 Y83.762 E.02578
G1 X143.089 Y83.592 E.02574
G1 X143.911 Y83.592 E.02577
G1 X144.714 Y83.762 E.02574
G1 X145.465 Y84.097 E.02578
G1 X146.13 Y84.579 E.02575
G1 X146.377 Y84.854 E.01159
G1 X146.679 Y85.19 E.01417
G1 X147.09 Y85.902 E.02578
G1 X147.344 Y86.683 E.02575
G1 X147.43 Y87.5 E.02576
G1 X147.344 Y88.317 E.02576
G1 X147.09 Y89.098 E.02575
G1 X146.679 Y89.81 E.02578
G1 X146.13 Y90.421 E.02575
G1 X145.465 Y90.903 E.02575
G1 X144.825 Y91.211 E.02227
G1 X144.626 Y91.406 E.00874
G1 X144.487 Y91.666 E.00924
G1 X144.436 Y91.974 E.00979
G1 X144.436 Y139.026 E1.47528
G1 X144.45 Y139.189 E.00513
G1 X144.626 Y139.595 E.01387
G1 X144.825 Y139.789 E.00871
G1 X144.995 Y139.887 E.00615
G1 X145.465 Y140.097 E.01614
G1 X146.13 Y140.579 E.02575
G1 X146.679 Y141.19 E.02575
G1 X147.09 Y141.902 E.02578
G1 X147.344 Y142.683 E.02575
G1 X147.43 Y143.5 E.02576
G1 X147.344 Y144.317 E.02576
G1 X147.09 Y145.098 E.02575
G1 X146.679 Y145.81 E.02578
G1 X146.13 Y146.421 E.02575
G1 X145.465 Y146.903 E.02575
G1 X144.714 Y147.238 E.02578
G1 X143.911 Y147.408 E.02574
G1 X143.089 Y147.408 E.02577
G1 X142.286 Y147.238 E.02574
G1 X141.535 Y146.903 E.02578
G1 X140.87 Y146.421 E.02575
G1 X140.321 Y145.81 E.02575
G1 X139.776 Y144.83 E.03516
G1 X139.583 Y144.63 E.00871
G1 X139.32 Y144.488 E.00937
G1 X139.009 Y144.436 E.00989
G1 X91.99 Y144.436 E1.47425
G1 X91.68 Y144.488 E.00986
G1 X91.417 Y144.63 E.00937
G1 X91.224 Y144.83 E.00871
G1 X91.09 Y145.099 E.00942
G1 X90.679 Y145.81 E.02575
G1 X90.13 Y146.421 E.02575
G1 X89.465 Y146.903 E.02575
G1 X88.714 Y147.238 E.02578
G1 X87.911 Y147.408 E.02574
G1 X87.089 Y147.408 E.02577
G1 X86.286 Y147.238 E.02574
G1 X85.535 Y146.903 E.02578
G1 X84.87 Y146.421 E.02575
G1 X84.321 Y145.81 E.02575
G1 X83.91 Y145.098 E.02578
G1 X83.656 Y144.317 E.02575
G1 X83.57 Y143.5 E.02576
G1 X83.656 Y142.683 E.02576
G1 X83.91 Y141.902 E.02575
G1 X84.321 Y141.19 E.02578
G1 X84.87 Y140.579 E.02575
G1 X85.535 Y140.097 E.02575
G1 X86.175 Y139.789 E.02227
G1 X86.374 Y139.595 E.00871
G1 X86.513 Y139.334 E.00927
G1 X86.564 Y139.026 E.00979
G1 X86.564 Y91.974 E1.47528
G1 X86.55 Y91.811 E.00513
G1 X86.374 Y91.406 E.01385
G1 X86.175 Y91.211 E.00874
G1 X86.147 Y91.195 E.00101
G1 X86.147 Y91.195 F9000
G1 X85.921 Y91.512
G1 F1200
G1 X85.852 Y91.457 E.00277
G1 X85.345 Y91.232 E.01739
G1 X84.617 Y90.702 E.02823
G1 X84.014 Y90.033 E.02824
G1 X83.563 Y89.253 E.02825
G1 X83.285 Y88.396 E.02825
G1 X83.191 Y87.5 E.02825
G1 X83.285 Y86.604 E.02825
G1 X83.563 Y85.747 E.02825
G1 X84.014 Y84.967 E.02825
G1 X84.617 Y84.298 E.02824
G1 X85.345 Y83.768 E.02823
G1 X86.168 Y83.402 E.02824
G1 X87.05 Y83.214 E.02828
G1 X87.95 Y83.214 E.02822
G1 X88.832 Y83.402 E.02828
G1 X89.655 Y83.768 E.02824
G1 X90.383 Y84.298 E.02823
G1 X90.986 Y84.967 E.02824
G1 X91.472 Y85.848 E.03155
G1 X91.647 Y86.071 E.00889
G1 X91.804 Y86.156 E.0056
G1 X91.99 Y86.187 E.00591
G1 X139.009 Y86.187 E1.47425
G1 X139.107 Y86.179 E.00308
G1 X139.353 Y86.071 E.00842
G1 X139.469 Y85.951 E.00523
G1 X139.563 Y85.748 E.00701
G1 X140.014 Y84.967 E.02828
G1 X140.617 Y84.298 E.02824
G1 X141.345 Y83.768 E.02823
G1 X142.168 Y83.402 E.02824
G1 X143.05 Y83.214 E.02828
G1 X143.95 Y83.214 E.02822
G1 X144.832 Y83.402 E.02828
G1 X145.655 Y83.768 E.02824
G1 X146.383 Y84.298 E.02823
G1 X146.657 Y84.602 E.01283
G1 X146.986 Y84.967 E.01541
G1 X147.437 Y85.747 E.02825
G1 X147.715 Y86.604 E.02825
G1 X147.809 Y87.5 E.02825
G1 X147.715 Y88.396 E.02825
G1 X147.437 Y89.253 E.02825
G1 X146.986 Y90.033 E.02825
G1 X146.383 Y90.702 E.02824
G1 X145.655 Y91.232 E.02823
G1 X145.148 Y91.457 E.01739
G1 X144.927 Y91.633 E.00886
G1 X144.844 Y91.789 E.00554
G1 X144.813 Y91.974 E.00588
G1 X144.813 Y139.026 E1.47528
G1 X144.821 Y139.124 E.00308
G1 X144.927 Y139.367 E.00831
G1 X145.148 Y139.543 E.00886
G1 X145.655 Y139.768 E.01739
G1 X146.383 Y140.298 E.02823
G1 X146.986 Y140.967 E.02824
G1 X147.437 Y141.747 E.02825
G1 X147.715 Y142.604 E.02825
G1 X147.809 Y143.5 E.02825
G1 X147.715 Y144.396 E.02825
G1 X147.437 Y145.253 E.02825
G1 X146.986 Y146.033 E.02825
G1 X146.383 Y146.702 E.02824
G1 X145.655 Y147.232 E.02823
G1 X144.832 Y147.598 E.02824
G1 X143.95 Y147.786 E.02828
G1 X143.05 Y147.786 E.02822
G1 X142.168 Y147.598 E.02828
G1 X141.345 Y147.232 E.02824
G1 X140.617 Y146.702 E.02823
G1 X140.014 Y146.033 E.02824
G1 X139.528 Y145.152 E.03155
G1 X139.353 Y144.929 E.00889
G1 X139.196 Y144.844 E.0056
G1 X139.009 Y144.813 E.00594
G1 X91.99 Y144.813 E1.47425
G1 X91.804 Y144.844 E.00591
G1 X91.647 Y144.929 E.0056
G1 X91.53 Y145.049 E.00525
G1 X91.437 Y145.253 E.00703
G1 X90.986 Y146.033 E.02825
G1 X90.383 Y146.702 E.02824
G1 X89.655 Y147.232 E.02823
G1 X88.832 Y147.598 E.02824
G1 X87.95 Y147.786 E.02828
G1 X87.05 Y147.786 E.02822
G1 X86.168 Y147.598 E.02828
G1 X85.345 Y147.232 E.02824
G1 X84.617 Y146.702 E.02823
G1 X84.014 Y146.033 E.02824
G1 X83.563 Y145.253 E.02825
G1 X83.285 Y144.396 E.02825
G1 X83.191 Y143.5 E.02825
G1 X83.285 Y142.604 E.02825
G1 X83.563 Y141.747 E.02825
G1 X84.014 Y140.967 E.02825
G1 X84.617 Y140.298 E.02824
G1 X85.345 Y139.768 E.02823
G1 X85.852 Y139.543 E.01739
G1 X86.073 Y139.367 E.00886
G1 X86.156 Y139.211 E.00554
G1 X86.187 Y139.026 E.00588
G1 X86.187 Y91.974 E1.47528
G1 X86.179 Y91.876 E.00308
G1 X86.073 Y91.633 E.00831
G1 X85.968 Y91.549 E.00422
G1 X85.968 Y91.549 F9000
G1 X85.698 Y91.802
;TYPE:External perimeter
G1 F1200
G1 X85.156 Y91.56 E.01861
G1 X84.363 Y90.984 E.03073
G1 X83.707 Y90.256 E.03073
G1 X83.217 Y89.407 E.03074
G1 X82.914 Y88.475 E.03073
G1 X82.812 Y87.5 E.03074
G1 X82.914 Y86.525 E.03074
G1 X83.217 Y85.593 E.03073
G1 X83.707 Y84.744 E.03074
G1 X84.363 Y84.016 E.03073
G1 X85.156 Y83.44 E.03073
G1 X86.051 Y83.041 E.03072
G1 X87.01 Y82.837 E.03074
G1 X87.99 Y82.837 E.03073
G1 X88.949 Y83.041 E.03074
G1 X89.844 Y83.44 E.03072
G1 X90.637 Y84.016 E.03073
G1 X91.293 Y84.744 E.03073
G1 X91.837 Y85.731 E.03534
G1 X91.99 Y85.81 E.0054
G1 X139.009 Y85.81 E1.47425
G1 X139.124 Y85.771 E.00381
M73 P1 R73
G1 X139.707 Y84.744 E.03703
G1 X140.363 Y84.016 E.03073
G1 X141.156 Y83.44 E.03073
G1 X142.051 Y83.041 E.03072
G1 X143.01 Y82.837 E.03074
G1 X143.99 Y82.837 E.03073
G1 X144.949 Y83.041 E.03074
G1 X145.844 Y83.44 E.03072
G1 X146.637 Y84.016 E.03073
G1 X146.938 Y84.35 E.0141
G1 X147.293 Y84.744 E.01663
G1 X147.783 Y85.593 E.03074
G1 X148.086 Y86.525 E.03073
G1 X148.188 Y87.5 E.03074
G1 X148.086 Y88.475 E.03074
G1 X147.783 Y89.407 E.03073
G1 X147.293 Y90.256 E.03074
G1 X146.637 Y90.984 E.03073
G1 X145.844 Y91.56 E.03073
G1 X145.268 Y91.821 E.01983
G1 X145.19 Y91.974 E.00538
G1 X145.19 Y139.026 E1.47528
G1 X145.2 Y139.088 E.00197
G1 X145.302 Y139.198 E.0047
G1 X145.844 Y139.44 E.01861
G1 X146.637 Y140.016 E.03073
G1 X147.293 Y140.744 E.03073
G1 X147.783 Y141.593 E.03074
G1 X148.086 Y142.525 E.03073
G1 X148.188 Y143.5 E.03074
G1 X148.086 Y144.475 E.03074
G1 X147.783 Y145.407 E.03073
G1 X147.293 Y146.256 E.03074
G1 X146.637 Y146.984 E.03073
G1 X145.844 Y147.56 E.03073
G1 X144.949 Y147.959 E.03072
G1 X143.99 Y148.163 E.03074
G1 X143.01 Y148.163 E.03073
G1 X142.051 Y147.959 E.03074
G1 X141.156 Y147.56 E.03072
G1 X140.363 Y146.984 E.03073
G1 X139.707 Y146.256 E.03073
G1 X139.163 Y145.269 E.03534
G1 X139.009 Y145.19 E.00543
G1 X91.99 Y145.19 E1.47425
G1 X91.876 Y145.229 E.00378
G1 X91.293 Y146.256 E.03703
G1 X90.637 Y146.984 E.03073
G1 X89.844 Y147.56 E.03073
G1 X88.949 Y147.959 E.03072
G1 X87.99 Y148.163 E.03074
G1 X87.01 Y148.163 E.03073
G1 X86.051 Y147.959 E.03074
G1 X85.156 Y147.56 E.03072
G1 X84.363 Y146.984 E.03073
G1 X83.707 Y146.256 E.03073
G1 X83.217 Y145.407 E.03074
G1 X82.914 Y144.475 E.03073
G1 X82.812 Y143.5 E.03074
G1 X82.914 Y142.525 E.03074
G1 X83.217 Y141.593 E.03073
G1 X83.707 Y140.744 E.03074
G1 X84.363 Y140.016 E.03073
G1 X85.156 Y139.44 E.03073
G1 X85.772 Y139.14 E.02148
G1 X85.81 Y139.026 E.00377
G1 X85.81 Y91.974 E1.47528
G1 X85.8 Y91.912 E.00197
G1 X85.739 Y91.846 E.00282
G1 E-1.05 F5100
;WIPE_START
G1 F7200
G1 X85.698 Y91.802 E-.04047
G1 X85.156 Y91.56 E-.39942
G1 X85.144 Y91.551 E-.01011
;WIPE_END
G1 X89.456 Y90.244 F9000
G1 E1.5 F3600
;TYPE:Perimeter
G1 F1200
G1 X89.477 Y90.104 E.00444
G1 X89.665 Y89.762 E.01224
G1 X89.922 Y89.554 E.01037
G1 X90.103 Y89.477 E.00617
G1 X90.379 Y89.436 E.00875
G1 X113.653 Y89.436 E.72974
G1 X113.8 Y89.134 E.01053
G1 X114.216 Y88.95 E.01426
G1 X114.379 Y88.936 E.00513
G1 X116.621 Y88.936 E.0703
G1 X116.935 Y88.99 E.00999
G1 X117.2 Y89.134 E.00946
G1 X117.347 Y89.436 E.01053
G1 X140.621 Y89.436 E.72974
G1 X140.896 Y89.477 E.00872
G1 X141.23 Y89.659 E.01193
G1 X141.447 Y89.923 E.01071
G1 X141.523 Y90.104 E.00616
G1 X141.564 Y90.379 E.00872
G1 X141.564 Y113.653 E.72974
G1 X141.866 Y113.8 E.01053
G1 X142.05 Y114.216 E.01426
G1 X142.064 Y114.379 E.00513
G1 X142.064 Y116.621 E.0703
G1 X142.01 Y116.935 E.00999
G1 X141.866 Y117.2 E.00946
G1 X141.564 Y117.347 E.01053
G1 X141.564 Y140.621 E.72974
G1 X141.523 Y140.896 E.00872
G1 X141.335 Y141.238 E.01224
G1 X141.077 Y141.447 E.01041
G1 X140.896 Y141.523 E.00616
G1 X140.621 Y141.564 E.00872
G1 X117.347 Y141.564 E.72974
G1 X117.2 Y141.866 E.01053
G1 X116.784 Y142.05 E.01426
G1 X116.621 Y142.064 E.00513
G1 X114.379 Y142.064 E.0703
G1 X114.065 Y142.01 E.00999
G1 X113.8 Y141.866 E.00946
G1 X113.653 Y141.564 E.01053
G1 X90.379 Y141.564 E.72974
G1 X90.103 Y141.523 E.00875
G1 X89.77 Y141.341 E.0119
G1 X89.637 Y141.203 E.00601
G1 X89.477 Y140.896 E.01085
G1 X89.436 Y140.621 E.00872
G1 X89.436 Y113.347 E.85516
G1 X89.134 Y113.2 E.01053
G1 X88.95 Y112.784 E.01426
G1 X88.936 Y112.621 E.00513
G1 X88.936 Y110.379 E.0703
G1 X88.99 Y110.065 E.00999
G1 X89.134 Y109.8 E.00946
G1 X89.436 Y109.653 E.01053
G1 X89.436 Y90.379 E.60432
G1 X89.447 Y90.304 E.00238
G1 X89.447 Y90.304 F9000
G1 X90.297 Y89.834
G1 F1200
G1 X90.379 Y89.813 E.00265
G1 X113.845 Y89.813 E.73576
G1 X114.032 Y89.432 E.01331
G1 X114.281 Y89.321 E.00855
G1 X114.379 Y89.313 E.00308
G1 X116.621 Y89.313 E.0703
G1 X116.81 Y89.345 E.00601
M73 P1 R72
G1 X116.968 Y89.432 E.00566
G1 X117.155 Y89.813 E.01331
G1 X140.621 Y89.813 E.73576
G1 X140.895 Y89.883 E.00887
G1 X141.102 Y90.079 E.00894
G1 X141.187 Y90.379 E.00978
G1 X141.187 Y113.845 E.73576
G1 X141.568 Y114.032 E.01331
G1 X141.679 Y114.281 E.00855
G1 X141.687 Y116.621 E.07337
G1 X141.655 Y116.81 E.00601
G1 X141.568 Y116.968 E.00566
G1 X141.187 Y117.155 E.01331
G1 X141.187 Y140.621 E.73576
G1 X141.102 Y140.921 E.00978
G1 X140.895 Y141.117 E.00894
G1 X140.621 Y141.187 E.00887
G1 X117.155 Y141.187 E.73576
G1 X116.968 Y141.568 E.01331
G1 X116.719 Y141.679 E.00855
G1 X116.621 Y141.687 E.00308
G1 X114.379 Y141.687 E.0703
G1 X114.19 Y141.655 E.00601
G1 X114.032 Y141.568 E.00566
G1 X113.845 Y141.187 E.01331
G1 X90.379 Y141.187 E.73576
G1 X90.105 Y141.116 E.00887
G1 X89.933 Y140.97 E.00707
G1 X89.837 Y140.786 E.00651
G1 X89.813 Y139.824 E.03017
G1 X89.813 Y113.155 E.83619
G1 X89.432 Y112.968 E.01331
G1 X89.321 Y112.719 E.00855
G1 X89.313 Y112.621 E.00308
G1 X89.313 Y110.379 E.0703
G1 X89.345 Y110.19 E.00601
G1 X89.432 Y110.032 E.00566
G1 X89.813 Y109.845 E.01331
G1 X89.813 Y90.379 E.61034
G1 X89.898 Y90.079 E.00978
G1 X90.105 Y89.884 E.00892
G1 X90.239 Y89.849 E.00434
G1 X90.379 Y90.19 F9000
;TYPE:External perimeter
G1 F1200
G1 X114.19 Y90.19 E.74658
G1 X114.19 Y89.879 E.00975
G1 X114.263 Y89.73 E.0052
G1 X114.379 Y89.69 E.00385
G1 X116.621 Y89.69 E.0703
G1 X116.737 Y89.73 E.00385
G1 X116.81 Y89.879 E.0052
G1 X116.81 Y90.19 E.00975
G1 X140.621 Y90.19 E.74658
G1 X140.77 Y90.262 E.00519
G1 X140.81 Y90.379 E.00388
G1 X140.81 Y114.19 E.74658
G1 X141.121 Y114.19 E.00975
G1 X141.27 Y114.263 E.0052
G1 X141.31 Y114.379 E.00385
G1 X141.31 Y116.621 E.0703
G1 X141.27 Y116.737 E.00385
G1 X141.121 Y116.81 E.0052
G1 X140.81 Y116.81 E.00975
G1 X140.81 Y140.621 E.74658
G1 X140.74 Y140.768 E.0051
G1 X140.621 Y140.81 E.00396
G1 X116.81 Y140.81 E.74658
G1 X116.81 Y141.121 E.00975
G1 X116.737 Y141.27 E.0052
G1 X116.621 Y141.31 E.00385
G1 X114.379 Y141.31 E.0703
G1 X114.263 Y141.27 E.00385
G1 X114.19 Y141.121 E.0052
G1 X114.19 Y140.81 E.00975
G1 X90.379 Y140.81 E.74658
G1 X90.23 Y140.738 E.00519
G1 X90.19 Y140.621 E.00388
G1 X90.19 Y112.81 E.87199
G1 X89.879 Y112.81 E.00975
G1 X89.73 Y112.737 E.0052
G1 X89.69 Y112.621 E.00385
G1 X89.69 Y110.379 E.0703
G1 X89.73 Y110.263 E.00385
G1 X89.879 Y110.19 E.0052
G1 X90.19 Y110.19 E.00975
G1 X90.19 Y90.379 E.62116
G1 X90.26 Y90.232 E.0051
G1 X90.322 Y90.21 E.00206
G1 E-1.05 F5100
;WIPE_START
G1 F7200
G1 X90.379 Y90.19 E-.04065
G1 X90.987 Y90.19 E-.40935
;WIPE_END
G1 X144.43 Y83.825 F9000
G1 E1.5 F3600
;TYPE:Solid infill
;WIDTH:0.420488
G1 F1200
G1 X146.919 Y86.314 E.11051
G1 X147.059 Y86.744 E.0142
G1 X147.087 Y87.016 E.00858
G1 X143.972 Y83.901 E.1383
G1 X143.88 Y83.882 E.00295
G1 X143.419 Y83.882 E.01447
G1 X147.128 Y87.592 E.1647
G1 X147.078 Y88.075 E.01524
G1 X142.926 Y83.923 E.18435
G1 X142.486 Y84.017 E.01413
G1 X146.977 Y88.508 E.1994
G1 X146.846 Y88.911 E.0133
G1 X142.098 Y84.164 E.21078
G1 X141.729 Y84.328 E.01268
