; generated by PrusaSlicer 2.7.2-rc1+win64 on 2024-02-25 at 16:09:26 UTC


;
;

;
;
; 

; external perimeters extrusion width = 0.42mm
; perimeters extrusion width = 0.44mm
; infill extrusion width = 0.44mm
; solid infill extrusion width = 0.44mm
; top infill extrusion width = 0.40mm
; first layer extrusion width = 0.42mm

M73 P0 R37

; printing object ringing_tower(1).stl id:0 copy 0
; stop printing object ringing_tower(1).stl id:0 copy 0

M190 S60 ; set bed temperature and wait for it to be reached
M104 S205 ; set temperature
;TYPE:Custom
SET_PRINT_STATS_INFO TOTAL_LAYER=250
START_PRINT EXTRUDER_TEMP=205 BED_TEMP=60 AREA_START=51.9344,51.9344 AREA_END=179.066,179.066
M109 S205 ; set temperature and wait for it to be reached
G21 ; set units to millimeters
G90 ; use absolute coordinates
M83 ; use relative distances for extrusion
; Filament gcode
M107
;LAYER_CHANGE
;Z:0.2
;HEIGHT:0.2
G1 E-1.5 F5100
G1 Z.2 F9000
G1 X53.607 Y52.703
G1 Z.2
G1 E1.5 F3600
;TYPE:Skirt/Brim
;WIDTH:0.42
G1 F1200
G1 X55.5 Y52.123 E.06208
G1 X175.5 Y52.123 E3.76252
G1 X177.083 Y52.517 E.05115
G1 X178.297 Y53.607 E.05116
G1 X178.877 Y55.5 E.06208
G1 X178.877 Y63.5 E.25083
G1 X178.483 Y65.083 E.05115
G1 X177.888 Y65.888 E.03139
G1 X65.888 Y177.888 E4.96627
G1 X64.49 Y178.729 E.05115
G1 X63.5 Y178.877 E.03139
G1 X55.5 Y178.877 E.25083
G1 X53.917 Y178.483 E.05115
G1 X52.703 Y177.393 E.05116
G1 X52.123 Y175.5 E.06208
G1 X52.123 Y55.5 E3.76252
G1 X52.517 Y53.917 E.05115
G1 X53.567 Y52.748 E.04927
; printing object ringing_tower(1).stl id:0 copy 0
G1 E-1.05 F5100
;WIPE_START
G1 F7200
G1 X53.607 Y52.703 E-.04051
G1 X54.189 Y52.525 E-.40949
;WIPE_END
G1 X55.81 Y55.81 F9000
G1 E1.5 F3600
;TYPE:External perimeter
;WIDTH:0.419999
G1 F1200
M73 P1 R37
G1 X88.271 Y55.81 E1.01779
G1 X88.271 Y55.902 E.00288
G1 X85.134 Y60.383 E.17151
G1 X85.117 Y60.413 E.00108
G1 X85.121 Y60.578 E.00517
G1 X85.252 Y60.778 E.0075
G1 X85.357 Y60.81 E.00344
G1 X91.956 Y60.81 E.20691
G1 X91.988 Y60.807 E.00101
G1 X92.123 Y60.709 E.00523
G1 X92.212 Y60.5 E.00712
G1 X92.178 Y60.383 E.00382
G1 X89.054 Y55.92 E.17081
G1 X89.041 Y55.81 E.00347
G1 X127.918 Y55.81 E1.21896
G1 X131.362 Y60.73 E.1883
G1 X131.517 Y60.81 E.00547
G1 X139.143 Y60.81 E.23911
G1 X139.298 Y60.73 E.00547
G1 X142.743 Y55.81 E.18832
G1 X175.19 Y55.81 E1.01735
G1 X175.19 Y59.5 E.1157
G1 X175.19 Y63.19 E.1157
G1 X123.628 Y63.19 E1.61669
G1 X122.184 Y61.745 E.06405
G1 X122.05 Y61.69 E.00454
G1 X116.95 Y61.69 E.15991
G1 X116.816 Y61.745 E.00454
G1 X115.372 Y63.19 E.06405
G1 X63.379 Y63.19 E1.6302
G1 X63.245 Y63.245 E.00454
G1 X63.19 Y63.379 E.00454
G1 X63.19 Y97.714 E1.07655
G1 X61.736 Y99.388 E.06952
G1 X61.69 Y99.512 E.00415
G1 X61.69 Y105.359 E.18333
G1 X61.736 Y105.483 E.00415
G1 X63.19 Y107.157 E.06952
G1 X63.19 Y131.843 E.77401
G1 X61.736 Y133.517 E.06952
G1 X61.69 Y133.641 E.00415
G1 X61.69 Y139.488 E.18333
G1 X61.736 Y139.612 E.00415
G1 X63.19 Y141.286 E.06952
G1 X63.19 Y175.19 E1.06303
G1 X55.81 Y175.19 E.23139
G1 X55.81 Y142.729 E1.01779
G1 X55.902 Y142.729 E.00288
G1 X60.383 Y145.866 E.17151
G1 X60.413 Y145.883 E.00108
G1 X60.578 Y145.879 E.00517
G1 X60.778 Y145.748 E.0075
G1 X60.81 Y145.643 E.00344
G1 X60.81 Y139.044 E.20691
G1 X60.709 Y138.877 E.00612
G1 X60.451 Y138.792 E.00852
G1 X60.383 Y138.822 E.00233
G1 X55.92 Y141.946 E.17081
G1 X55.81 Y141.959 E.00347
G1 X55.81 Y103.082 E1.21896
G1 X60.73 Y99.638 E.1883
M73 P2 R37
G1 X60.81 Y99.483 E.00547
G1 X60.81 Y91.857 E.23911
G1 X60.73 Y91.702 E.00547
G1 X55.81 Y88.257 E.18832
G1 X55.81 Y55.87 E1.01547
G1 E-1.05 F5100
;WIPE_START
G1 F7200
G1 X55.81 Y55.81 E-.04038
G1 X56.419 Y55.81 E-.40962
;WIPE_END
G1 X174.305 Y55.931 F9000
G1 E1.5 F3600
;TYPE:Solid infill
;WIDTH:0.420814
G1 F1200
G1 X174.9 Y56.525 E.02642
G1 X174.9 Y57.059 E.01678
G1 X173.941 Y56.1 E.04262
G1 X173.406 Y56.1 E.01681
G1 X174.9 Y57.594 E.06639
G1 X174.9 Y58.128 E.01678
G1 X172.872 Y56.1 E.09012
G1 X172.337 Y56.1 E.01681
G1 X174.9 Y58.663 E.11389
G1 X174.9 Y59.197 E.01678
G1 X171.803 Y56.1 E.13762
G1 X171.268 Y56.1 E.01681
G1 X174.9 Y59.732 E.1614
G1 X174.9 Y60.266 E.01678
G1 X170.734 Y56.1 E.18513
G1 X170.2 Y56.1 E.01678
G1 X174.9 Y60.8 E.20886
G1 X174.9 Y61.335 E.01681
G1 X169.665 Y56.1 E.23263
G1 X169.131 Y56.1 E.01678
G1 X174.9 Y61.869 E.25636
G1 X174.9 Y62.404 E.01681
G1 X168.596 Y56.1 E.28013
G1 X168.062 Y56.1 E.01678
G1 X174.861 Y62.9 E.30215
G1 X174.327 Y62.9 E.01678
G1 X167.528 Y56.1 E.30215
G1 X166.993 Y56.1 E.01681
G1 X173.792 Y62.9 E.30215
G1 X173.258 Y62.9 E.01678
G1 X166.459 Y56.1 E.30215
G1 X165.924 Y56.1 E.01681
G1 X172.724 Y62.9 E.30217
G1 X172.189 Y62.9 E.01681
G1 X165.39 Y56.1 E.30215
G1 X164.855 Y56.1 E.01681
G1 X171.655 Y62.9 E.30217
G1 X171.12 Y62.9 E.01681
G1 X164.321 Y56.1 E.30215
G1 X163.787 Y56.1 E.01678
M73 P2 R36
G1 X170.586 Y62.9 E.30215
G1 X170.051 Y62.9 E.01681
G1 X163.252 Y56.1 E.30215
G1 X162.718 Y56.1 E.01678
G1 X169.517 Y62.9 E.30215
G1 X168.983 Y62.9 E.01678
G1 X162.183 Y56.1 E.30217
G1 X161.649 Y56.1 E.01678
G1 X168.448 Y62.9 E.30215
G1 X167.914 Y62.9 E.01678
G1 X161.114 Y56.1 E.30217
G1 X160.58 Y56.1 E.01678
G1 X167.379 Y62.9 E.30215
G1 X166.845 Y62.9 E.01678
G1 X160.046 Y56.1 E.30215
G1 X159.511 Y56.1 E.01681
G1 X166.31 Y62.9 E.30215
G1 X165.776 Y62.9 E.01678
G1 X158.977 Y56.1 E.30215
G1 X158.442 Y56.1 E.01681
G1 X165.242 Y62.9 E.30217
G1 X164.707 Y62.9 E.01681
G1 X157.908 Y56.1 E.30215
G1 X157.373 Y56.1 E.01681
G1 X164.173 Y62.9 E.30217
G1 X163.638 Y62.9 E.01681
G1 X156.839 Y56.1 E.30215
G1 X156.305 Y56.1 E.01678
G1 X163.104 Y62.9 E.30215
G1 X162.57 Y62.9 E.01678
G1 X155.77 Y56.1 E.30217
G1 X155.236 Y56.1 E.01678
G1 X162.035 Y62.9 E.30215
G1 X161.501 Y62.9 E.01678
G1 X154.701 Y56.1 E.30217
G1 X154.167 Y56.1 E.01678
G1 X160.966 Y62.9 E.30215
G1 X160.432 Y62.9 E.01678
G1 X153.633 Y56.1 E.30215
G1 X153.098 Y56.1 E.01681
G1 X159.897 Y62.9 E.30215
G1 X159.363 Y62.9 E.01678
M73 P3 R36
G1 X152.564 Y56.1 E.30215
G1 X152.029 Y56.1 E.01681
G1 X158.829 Y62.9 E.30217
G1 X158.294 Y62.9 E.01681
G1 X151.495 Y56.1 E.30215
G1 X150.96 Y56.1 E.01681
G1 X157.76 Y62.9 E.30217
G1 X157.225 Y62.9 E.01681
G1 X150.426 Y56.1 E.30215
G1 X149.892 Y56.1 E.01678
G1 X156.691 Y62.9 E.30215
G1 X156.156 Y62.9 E.01681
G1 X149.357 Y56.1 E.30215
G1 X148.823 Y56.1 E.01678
G1 X155.622 Y62.9 E.30215
G1 X155.088 Y62.9 E.01678
G1 X148.288 Y56.1 E.30217
G1 X147.754 Y56.1 E.01678
G1 X154.553 Y62.9 E.30215
G1 X154.019 Y62.9 E.01678
G1 X147.219 Y56.1 E.30217
G1 X146.685 Y56.1 E.01678
G1 X153.484 Y62.9 E.30215
G1 X152.95 Y62.9 E.01678
G1 X146.151 Y56.1 E.30215
G1 X145.616 Y56.1 E.01681
G1 X152.415 Y62.9 E.30215
G1 X151.881 Y62.9 E.01678
G1 X145.082 Y56.1 E.30215
G1 X144.547 Y56.1 E.01681
G1 X151.347 Y62.9 E.30217
G1 X150.812 Y62.9 E.01681
G1 X144.013 Y56.1 E.30215
G1 X143.479 Y56.1 E.01678
G1 X150.278 Y62.9 E.30215
G1 X149.743 Y62.9 E.01681
G1 X142.944 Y56.1 E.30215
G1 X142.894 Y56.1 E.00157
G1 X142.694 Y56.385 E.01094
G1 X149.209 Y62.9 E.28951
G1 X148.675 Y62.9 E.01678
G1 X142.474 Y56.699 E.27556
G1 X142.254 Y57.014 E.01207
G1 X148.14 Y62.9 E.26156
G1 X147.606 Y62.9 E.01678
G1 X142.034 Y57.328 E.24761
G1 X141.814 Y57.642 E.01205
G1 X147.071 Y62.9 E.23363
G1 X146.537 Y62.9 E.01678
G1 X141.594 Y57.957 E.21965
G1 X141.374 Y58.271 E.01205
G1 X146.002 Y62.9 E.20568
G1 X145.468 Y62.9 E.01678
G1 X141.154 Y58.585 E.19173
G1 X140.934 Y58.9 E.01207
G1 X144.934 Y62.9 E.17775
G1 X144.399 Y62.9 E.01681
G1 X140.714 Y59.214 E.16377
G1 X140.493 Y59.528 E.01207
G1 X143.865 Y62.9 E.14984
G1 X143.33 Y62.9 E.01681
G1 X140.273 Y59.843 E.13585
G1 X140.053 Y60.157 E.01205
G1 X142.796 Y62.9 E.12189
G1 X142.261 Y62.9 E.01681
G1 X139.833 Y60.471 E.10792
G1 X139.613 Y60.786 E.01207
G1 X141.727 Y62.9 E.09394
G1 X141.193 Y62.9 E.01678
G1 X139.344 Y61.051 E.08216
G1 X139.156 Y61.1 E.0061
G1 X138.859 Y61.1 E.00933
G1 X140.658 Y62.9 E.07997
G1 X140.124 Y62.9 E.01678
G1 X138.324 Y61.1 E.07999
G1 X137.79 Y61.1 E.01678
G1 X139.589 Y62.9 E.07997
G1 X139.055 Y62.9 E.01678
G1 X137.256 Y61.1 E.07997
G1 X136.721 Y61.1 E.01681
G1 X138.521 Y62.9 E.07999
G1 X137.986 Y62.9 E.01681
G1 X136.187 Y61.1 E.07997
G1 X135.652 Y61.1 E.01681
G1 X137.452 Y62.9 E.07999
G1 X136.917 Y62.9 E.01681
G1 X135.118 Y61.1 E.07997
G1 X134.584 Y61.1 E.01678
G1 X136.383 Y62.9 E.07997
G1 X135.848 Y62.9 E.01681
G1 X134.049 Y61.1 E.07997
G1 X133.515 Y61.1 E.01678
G1 X135.314 Y62.9 E.07997
G1 X134.78 Y62.9 E.01678
G1 X132.98 Y61.1 E.07999
G1 X132.446 Y61.1 E.01678
G1 X134.245 Y62.9 E.07997
G1 X133.711 Y62.9 E.01678
G1 X131.742 Y60.931 E.0875
G1 E-1.05 F5100
;WIPE_START
G1 F7200
G1 X132.215 Y61.404 E-.45
;WIPE_END
G1 X129.207 Y57.861 F9000
G1 E1.5 F3600
G1 F1200
G1 X127.446 Y56.1 E.07825
G1 X126.911 Y56.1 E.01681
G1 X130.455 Y59.644 E.15749
G1 E-1.05 F5100
;WIPE_START
G1 F7200
G1 X129.982 Y59.171 E-.45
;WIPE_END
G1 X126.207 Y55.931 F9000
G1 E1.5 F3600
G1 F1200
G1 X133.176 Y62.9 E.30968
G1 X132.642 Y62.9 E.01678
G1 X125.843 Y56.1 E.30215
G1 X125.308 Y56.1 E.01681
G1 X132.107 Y62.9 E.30215
G1 X131.573 Y62.9 E.01678
G1 X124.774 Y56.1 E.30215
G1 X124.239 Y56.1 E.01681
G1 X131.039 Y62.9 E.30217
G1 X130.504 Y62.9 E.01681
G1 X123.705 Y56.1 E.30215
G1 X123.17 Y56.1 E.01681
G1 X129.97 Y62.9 E.30217
G1 X129.435 Y62.9 E.01681
G1 X122.636 Y56.1 E.30215
G1 X122.102 Y56.1 E.01678
G1 X128.901 Y62.9 E.30215
G1 X128.366 Y62.9 E.01681
G1 X121.567 Y56.1 E.30215
G1 X121.033 Y56.1 E.01678
M73 P4 R36
G1 X127.832 Y62.9 E.30215
G1 X127.298 Y62.9 E.01678
G1 X120.498 Y56.1 E.30217
G1 X119.964 Y56.1 E.01678
G1 X126.763 Y62.9 E.30215
G1 X126.229 Y62.9 E.01678
G1 X119.429 Y56.1 E.30217
G1 X118.895 Y56.1 E.01678
G1 X125.694 Y62.9 E.30215
G1 X125.16 Y62.9 E.01678
G1 X118.361 Y56.1 E.30215
G1 X117.826 Y56.1 E.01681
G1 X124.626 Y62.9 E.30217
G1 X124.091 Y62.9 E.01681
G1 X117.292 Y56.1 E.30215
G1 X116.757 Y56.1 E.01681
G1 X122.057 Y61.4 E.23552
G1 X121.522 Y61.4 E.01681
G1 X116.223 Y56.1 E.2355
G1 X115.689 Y56.1 E.01678
G1 X120.988 Y61.4 E.2355
G1 X120.453 Y61.4 E.01681
G1 X115.154 Y56.1 E.2355
G1 X114.62 Y56.1 E.01678
G1 X119.919 Y61.4 E.2355
G1 X119.385 Y61.4 E.01678
G1 X114.085 Y56.1 E.23552
G1 X113.551 Y56.1 E.01678
G1 X118.85 Y61.4 E.2355
G1 X118.316 Y61.4 E.01678
G1 X113.016 Y56.1 E.23552
G1 X112.482 Y56.1 E.01678
G1 X117.781 Y61.4 E.2355
G1 X117.247 Y61.4 E.01678
G1 X111.948 Y56.1 E.2355
G1 X111.413 Y56.1 E.01681
G1 X116.761 Y61.448 E.23765
G1 X116.62 Y61.531 E.00514
G1 X116.465 Y61.686 E.00689
G1 X110.879 Y56.1 E.24823
G1 X110.344 Y56.1 E.01681
G1 X116.197 Y61.954 E.26011
G1 X115.93 Y62.221 E.01186
G1 X109.81 Y56.1 E.27198
G1 X109.275 Y56.1 E.01681
G1 X115.663 Y62.488 E.28387
G1 X115.396 Y62.755 E.01186
G1 X108.741 Y56.1 E.29573
G1 X108.207 Y56.1 E.01678
G1 X115.006 Y62.9 E.30215
G1 X114.471 Y62.9 E.01681
G1 X107.672 Y56.1 E.30215
G1 X107.138 Y56.1 E.01678
G1 X113.937 Y62.9 E.30215
G1 X113.403 Y62.9 E.01678
G1 X106.603 Y56.1 E.30217
G1 X106.069 Y56.1 E.01678
G1 X112.868 Y62.9 E.30215
G1 X112.334 Y62.9 E.01678
G1 X105.534 Y56.1 E.30217
G1 X105 Y56.1 E.01678
G1 X111.799 Y62.9 E.30215
G1 X111.265 Y62.9 E.01678
G1 X104.466 Y56.1 E.30215
G1 X103.931 Y56.1 E.01681
G1 X110.731 Y62.9 E.30217
G1 X110.196 Y62.9 E.01681
G1 X103.397 Y56.1 E.30215
G1 X102.862 Y56.1 E.01681
G1 X109.662 Y62.9 E.30217
G1 X109.127 Y62.9 E.01681
G1 X102.328 Y56.1 E.30215
G1 X101.794 Y56.1 E.01678
G1 X108.593 Y62.9 E.30215
G1 X108.058 Y62.9 E.01681
G1 X101.259 Y56.1 E.30215
G1 X100.725 Y56.1 E.01678
G1 X107.524 Y62.9 E.30215
G1 X106.99 Y62.9 E.01678
G1 X100.19 Y56.1 E.30217
G1 X99.656 Y56.1 E.01678
G1 X106.455 Y62.9 E.30215
G1 X105.921 Y62.9 E.01678
G1 X99.121 Y56.1 E.30217
G1 X98.587 Y56.1 E.01678
G1 X105.386 Y62.9 E.30215
G1 X104.852 Y62.9 E.01678
G1 X98.053 Y56.1 E.30215
G1 X97.518 Y56.1 E.01681
G1 X104.317 Y62.9 E.30215
G1 X103.783 Y62.9 E.01678
G1 X96.984 Y56.1 E.30215
G1 X96.449 Y56.1 E.01681
G1 X103.249 Y62.9 E.30217
G1 X102.714 Y62.9 E.01681
M73 P5 R36
G1 X95.915 Y56.1 E.30215
G1 X95.38 Y56.1 E.01681
G1 X102.18 Y62.9 E.30217
G1 X101.645 Y62.9 E.01681
G1 X94.846 Y56.1 E.30215
G1 X94.312 Y56.1 E.01678
G1 X101.111 Y62.9 E.30215
G1 X100.576 Y62.9 E.01681
G1 X93.777 Y56.1 E.30215
G1 X93.243 Y56.1 E.01678
G1 X100.042 Y62.9 E.30215
G1 X99.508 Y62.9 E.01678
G1 X92.708 Y56.1 E.30217
G1 X92.174 Y56.1 E.01678
M73 P5 R35
G1 X98.973 Y62.9 E.30215
G1 X98.439 Y62.9 E.01678
G1 X91.639 Y56.1 E.30217
G1 X91.105 Y56.1 E.01678
G1 X97.904 Y62.9 E.30215
G1 X97.37 Y62.9 E.01678
G1 X90.571 Y56.1 E.30215
G1 X90.036 Y56.1 E.01681
G1 X96.836 Y62.9 E.30217
G1 X96.301 Y62.9 E.01681
G1 X89.609 Y56.207 E.2974
G1 X90.846 Y57.979 E.0679
G1 X95.767 Y62.9 E.21868
G1 X95.232 Y62.9 E.01681
G1 X92.083 Y59.751 E.13993
G1 X92.463 Y60.295 E.02085
G1 X92.505 Y60.513 E.00698
G1 X92.464 Y60.665 E.00495
G1 X94.698 Y62.9 E.0993
G1 X94.163 Y62.9 E.01681
G1 X92.253 Y60.989 E.0849
G1 X92.225 Y61.021 E.00134
G1 X92.045 Y61.093 E.00609
G1 X91.83 Y61.1 E.00676
G1 X93.629 Y62.9 E.07997
G1 X93.095 Y62.9 E.01678
G1 X91.295 Y61.1 E.07999
G1 X90.761 Y61.1 E.01678
G1 X92.56 Y62.9 E.07997
G1 X92.026 Y62.9 E.01678
G1 X90.226 Y61.1 E.07999
G1 X89.692 Y61.1 E.01678
G1 X91.491 Y62.9 E.07997
G1 X90.957 Y62.9 E.01678
G1 X89.158 Y61.1 E.07997
G1 X88.623 Y61.1 E.01681
G1 X90.422 Y62.9 E.07997
G1 X89.888 Y62.9 E.01678
G1 X88.089 Y61.1 E.07997
G1 X87.554 Y61.1 E.01681
G1 X89.354 Y62.9 E.07999
G1 X88.819 Y62.9 E.01681
G1 X87.02 Y61.1 E.07997
G1 X86.485 Y61.1 E.01681
G1 X88.285 Y62.9 E.07999
G1 X87.75 Y62.9 E.01681
G1 X85.781 Y60.931 E.0875
G1 E-1.05 F5100
;WIPE_START
G1 F7200
G1 X86.254 Y61.404 E-.45
;WIPE_END
G1 X87.729 Y56.466 F9000
G1 E1.5 F3600
G1 F1200
G1 X87.364 Y56.1 E.01624
G1 X86.83 Y56.1 E.01678
G1 X87.387 Y56.658 E.02477
G1 X87.167 Y56.972 E.01205
G1 X86.295 Y56.1 E.03875
G1 X85.761 Y56.1 E.01678
G1 X86.947 Y57.287 E.05273
G1 X86.727 Y57.601 E.01205
G1 X85.226 Y56.1 E.0667
G1 X84.692 Y56.1 E.01678
G1 X86.507 Y57.915 E.08065
G1 X86.287 Y58.23 E.01207
G1 X84.158 Y56.1 E.09463
G1 X83.623 Y56.1 E.01681
G1 X86.067 Y58.544 E.10861
G1 X85.847 Y58.858 E.01205
G1 X83.089 Y56.1 E.12256
G1 X82.554 Y56.1 E.01681
G1 X85.627 Y59.173 E.13656
G1 X85.407 Y59.487 E.01205
G1 X82.02 Y56.1 E.15051
G1 X81.485 Y56.1 E.01681
G1 X85.187 Y59.801 E.16449
G1 X84.966 Y60.116 E.01209
G1 X80.951 Y56.1 E.17844
G1 X80.417 Y56.1 E.01678
G1 X84.811 Y60.495 E.19528
G1 X84.859 Y60.702 E.00668
G1 X84.938 Y60.854 E.00538
G1 X85.09 Y61.024 E.00717
G1 X85.341 Y61.1 E.00824
G1 X85.417 Y61.1 E.00239
G1 X87.216 Y62.9 E.07997
G1 X86.681 Y62.9 E.01681
G1 X79.882 Y56.1 E.30215
G1 X79.348 Y56.1 E.01678
G1 X86.147 Y62.9 E.30215
G1 X85.613 Y62.9 E.01678
G1 X78.813 Y56.1 E.30217
G1 X78.279 Y56.1 E.01678
G1 X85.078 Y62.9 E.30215
G1 X84.544 Y62.9 E.01678
G1 X77.744 Y56.1 E.30217
G1 X77.21 Y56.1 E.01678
G1 X84.009 Y62.9 E.30215
G1 X83.475 Y62.9 E.01678
G1 X76.676 Y56.1 E.30215
G1 X76.141 Y56.1 E.01681
G1 X82.941 Y62.9 E.30217
G1 X82.406 Y62.9 E.01681
G1 X75.607 Y56.1 E.30215
G1 X75.072 Y56.1 E.01681
G1 X81.872 Y62.9 E.30217
G1 X81.337 Y62.9 E.01681
G1 X74.538 Y56.1 E.30215
G1 X74.004 Y56.1 E.01678
G1 X80.803 Y62.9 E.30215
G1 X80.268 Y62.9 E.01681
G1 X73.469 Y56.1 E.30215
G1 X72.935 Y56.1 E.01678
G1 X79.734 Y62.9 E.30215
G1 X79.2 Y62.9 E.01678
G1 X72.4 Y56.1 E.30217
G1 X71.866 Y56.1 E.01678
G1 X78.665 Y62.9 E.30215
G1 X78.131 Y62.9 E.01678
G1 X71.331 Y56.1 E.30217
G1 X70.797 Y56.1 E.01678
G1 X77.596 Y62.9 E.30215
G1 X77.062 Y62.9 E.01678
G1 X70.263 Y56.1 E.30215
G1 X69.728 Y56.1 E.01681
G1 X76.527 Y62.9 E.30215
G1 X75.993 Y62.9 E.01678
M73 P6 R35
G1 X69.194 Y56.1 E.30215
G1 X68.659 Y56.1 E.01681
G1 X75.459 Y62.9 E.30217
G1 X74.924 Y62.9 E.01681
G1 X68.125 Y56.1 E.30215
G1 X67.59 Y56.1 E.01681
G1 X74.39 Y62.9 E.30217
G1 X73.855 Y62.9 E.01681
G1 X67.056 Y56.1 E.30215
G1 X66.522 Y56.1 E.01678
G1 X73.321 Y62.9 E.30215
G1 X72.786 Y62.9 E.01681
G1 X65.987 Y56.1 E.30215
G1 X65.453 Y56.1 E.01678
G1 X72.252 Y62.9 E.30215
G1 X71.718 Y62.9 E.01678
G1 X64.918 Y56.1 E.30217
G1 X64.384 Y56.1 E.01678
G1 X71.183 Y62.9 E.30215
G1 X70.649 Y62.9 E.01678
G1 X63.85 Y56.1 E.30215
G1 X63.315 Y56.1 E.01681
G1 X70.114 Y62.9 E.30215
G1 X69.58 Y62.9 E.01678
G1 X62.781 Y56.1 E.30215
G1 X62.246 Y56.1 E.01681
G1 X69.046 Y62.9 E.30217
