; generated by PrusaSlicer 2.7.2-alpha2+win64 on 2024-02-20 at 13:19:03 UTC


;
;

;
;
; 

; external perimeters extrusion width = 0.42mm
; perimeters extrusion width = 0.44mm
; infill extrusion width = 0.44mm
; solid infill extrusion width = 0.44mm
; top infill extrusion width = 0.40mm
; first layer extrusion width = 0.42mm

M73 P0 R20

; printing object sprite-pro-cable-guide.stl id:0 copy 0
; stop printing object sprite-pro-cable-guide.stl id:0 copy 0

M190 S60 ; set bed temperature and wait for it to be reached
M104 S205 ; set temperature
;TYPE:Custom
SET_PRINT_STATS_INFO TOTAL_LAYER=31

START_PRINT EXTRUDER_TEMP=205 BED_TEMP=60 AREA_START=94.4344,81.4834 AREA_END=125.566,138.615
SET_VELOCITY_LIMIT ACCEL=3000
M109 S205 ; set temperature and wait for it to be reached
G21 ; set units to millimeters
G90 ; use absolute coordinates
M83 ; use relative distances for extrusion
; Filament gcode
M107
;LAYER_CHANGE
;Z:0.2
;HEIGHT:0.2
G1 E-.8 F1800
G1 Z.2 F9000
G1 X95.017 Y83.466
G1 Z.2
G1 E.8 F1800
M204 S500
;TYPE:Skirt/Brim
;WIDTH:0.42
G1 F1200
G1 X96.107 Y82.252 E.05116
G1 X98 Y81.672 E.06208
G1 X122 Y81.672 E.7525
G1 X123.583 Y82.066 E.05115
G1 X124.797 Y83.156 E.05116
G1 X125.377 Y85.049 E.06208
G1 X125.377 Y131.049 E1.4423
G1 X125.232 Y132.499 E.04569
G1 X124.759 Y134.003 E.04943
G1 X124.277 Y134.922 E.03254
G1 X123.832 Y135.565 E.02452
G1 X123.13 Y136.349 E.033
G1 X122.516 Y136.881 E.02547
G1 X121.65 Y137.458 E.03263
G1 X120.954 Y137.808 E.02443
G1 X120.193 Y138.091 E.02546
G1 X119.169 Y138.332 E.03298
G1 X118 Y138.426 E.03677
G1 X101.879 Y138.424 E.50546
G1 X100.55 Y138.281 E.04191
G1 X99.059 Y137.813 E.049
G1 X98.36 Y137.464 E.0245
G1 X97.484 Y136.881 E.03299
G1 X96.7 Y136.179 E.033
G1 X96.04 Y135.394 E.03216
G1 X95.483 Y134.502 E.03297
G1 X95.057 Y133.538 E.03305
G1 X94.768 Y132.499 E.03381
G1 X94.643 Y131.589 E.0288
G1 X94.623 Y85.049 E1.45923
G1 X95.003 Y83.524 E.04928
; printing object sprite-pro-cable-guide.stl id:0 copy 0
;WIPE_START
G1 F7200
G1 X95.017 Y83.466 E-.01417
G1 X96.107 Y82.252 E-.38749
G1 X97.711 Y81.761 E-.39834
;WIPE_END
G1 X118.615 Y118.421 F9000
G1 E.8 F1800
;TYPE:Perimeter
;WIDTH:0.419999
G1 F1200
G1 X118.891 Y118.169 E.01172
G1 X118.983 Y118.007 E.00584
G1 X119.064 Y117.625 E.01224
G1 X119.064 Y113.591 E.12648
G1 X118.996 Y113.24 E.01121
G1 X118.911 Y113.077 E.00576
G1 X118.688 Y112.866 E.00963
G1 X118.911 Y112.655 E.00963
G1 X118.996 Y112.491 E.00579
G1 X119.064 Y112.14 E.01121
G1 X119.064 Y107.958 E.13112
G1 X118.996 Y107.607 E.01121
G1 X118.911 Y107.443 E.00579
G1 X118.688 Y107.232 E.00963
G1 X118.911 Y107.021 E.00963
G1 X118.996 Y106.858 E.00576
G1 X119.064 Y106.507 E.01121
G1 X119.064 Y105.428 E.03383
G1 X118.992 Y105.065 E.0116
G1 X118.804 Y104.777 E.01078
G1 X118.565 Y104.596 E.0094
G1 X118.328 Y104.508 E.00793
G1 X118.121 Y104.485 E.00653
G1 X117.129 Y104.485 E.0311
G1 X116.846 Y104.528 E.00898
G1 X116.5 Y104.729 E.01255
G1 X116.154 Y104.528 E.01255
G1 X115.871 Y104.485 E.00898
G1 X110.629 Y104.485 E.16436
G1 X110.428 Y104.506 E.00634
G1 X109.99 Y104.716 E.01523
G1 X109.634 Y104.522 E.01271
G1 X109.371 Y104.485 E.00833
G1 X104.129 Y104.485 E.16436
G1 X103.846 Y104.528 E.00898
G1 X103.5 Y104.729 E.01255
G1 X103.154 Y104.528 E.01255
G1 X102.871 Y104.485 E.00898
G1 X101.672 Y104.508 E.0376
G1 X101.435 Y104.596 E.00793
G1 X101.196 Y104.777 E.0094
G1 X101.008 Y105.065 E.01078
G1 X100.936 Y105.428 E.0116
G1 X100.95 Y106.669 E.03891
G1 X101.089 Y107.021 E.01187
G1 X101.312 Y107.232 E.00963
G1 X101.089 Y107.443 E.00963
G1 X101.004 Y107.607 E.00579
G1 X100.936 Y107.958 E.01121
G1 X100.936 Y112.14 E.13112
G1 X100.95 Y112.303 E.00513
M73 P1 R20
G1 X101.089 Y112.655 E.01187
G1 X101.312 Y112.866 E.00963
G1 X101.089 Y113.077 E.00963
G1 X101.004 Y113.24 E.00576
G1 X100.936 Y113.591 E.01121
G1 X100.936 Y117.625 E.12648
G1 X100.95 Y117.788 E.00513
G1 X101.109 Y118.169 E.01294
G1 X101.385 Y118.421 E.01172
G1 X101.109 Y118.673 E.01172
G1 X101.017 Y118.834 E.00581
G1 X100.936 Y119.216 E.01224
G1 X100.936 Y122.265 E.0956
G1 X100.89 Y122.173 E.00323
G1 X100.324 Y121.985 E.0187
G1 X99.064 Y121.985 E.03951
G1 X99.064 Y86.113 E1.12474
G1 X120.936 Y86.113 E.68578
G1 X120.936 Y121.985 E1.12474
M73 P1 R19
G1 X119.676 Y121.985 E.03951
G1 X119.11 Y122.173 E.0187
G1 X119.064 Y122.265 E.00323
G1 X119.064 Y119.216 E.0956
G1 X118.983 Y118.834 E.01224
G1 X118.891 Y118.673 E.00581
G1 X118.66 Y118.461 E.00983
;WIPE_START
G1 F7200
G1 X118.615 Y118.421 E-.0143
G1 X118.891 Y118.169 E-.08876
G1 X118.983 Y118.007 E-.04425
G1 X119.064 Y117.625 E-.09274
G1 X119.064 Y115.268 E-.55995
;WIPE_END
G1 X119.064 Y128.887 F9000
G1 E.8 F1800
G1 F1200
G1 X119.334 Y129.049 E.00987
G1 X119.676 Y129.113 E.01091
G1 X120.936 Y129.113 E.03951
G1 X120.936 Y130.071 E.03004
G1 X120.92 Y131.237 E.03656
G1 X120.839 Y131.762 E.01666
G1 X120.691 Y132.206 E.01467
G1 X120.429 Y132.687 E.01717
G1 X120.069 Y133.118 E.01761
G1 X119.638 Y133.478 E.01761
G1 X119.156 Y133.735 E.01713
G1 X118.518 Y133.93 E.02092
G1 X117.981 Y133.985 E.01693
G1 X101.891 Y133.975 E.50449
G1 X101.386 Y133.899 E.01601
G1 X100.911 Y133.765 E.01547
G1 X100.437 Y133.529 E.0166
G1 X99.927 Y133.12 E.0205
G1 X99.575 Y132.683 E.01759
G1 X99.344 Y132.29 E.01429
G1 X99.139 Y131.68 E.02018
G1 X99.064 Y130.995 E.02161
G1 X99.064 Y129.113 E.05901
G1 X100.324 Y129.113 E.03951
G1 X100.666 Y129.049 E.01091
G1 X100.936 Y128.887 E.00987
G1 X100.99 Y129.198 E.0099
G1 X101.179 Y129.514 E.01154
G1 X101.382 Y129.679 E.0082
G1 X101.179 Y129.843 E.00818
G1 X101.005 Y130.122 E.01031
G1 X100.936 Y130.475 E.01128
G1 X100.941 Y131.273 E.02502
G1 X101.017 Y131.553 E.0091
G1 X101.211 Y131.836 E.01076
G1 X101.515 Y132.04 E.01148
G1 X101.874 Y132.113 E.01149
G1 X105.821 Y132.113 E.12376
G1 X105.983 Y132.099 E.0051
G1 X106.261 Y132.004 E.00921
G1 X106.461 Y131.863 E.00767
G1 X106.75 Y131.346 E.01857
G1 X106.768 Y131.414 E.00221
G1 X107.039 Y131.863 E.01644
G1 X107.239 Y132.004 E.00767
G1 X107.678 Y132.113 E.01418
G1 X112.321 Y132.113 E.14558
G1 X112.483 Y132.099 E.0051
G1 X112.761 Y132.004 E.00921
G1 X112.961 Y131.863 E.00767
G1 X113.25 Y131.346 E.01857
G1 X113.268 Y131.414 E.00221
G1 X113.539 Y131.863 E.01644
G1 X113.739 Y132.004 E.00767
G1 X114.178 Y132.113 E.01418
G1 X118.121 Y132.113 E.12363
G1 X118.501 Y132.034 E.01217
G1 X118.788 Y131.837 E.01091
G1 X118.991 Y131.534 E.01144
G1 X119.064 Y131.17 E.01164
G1 X119.064 Y130.475 E.02179
G1 X118.995 Y130.122 E.01128
G1 X118.821 Y129.843 E.01031
G1 X118.618 Y129.679 E.00818
G1 X118.821 Y129.514 E.0082
G1 X119.01 Y129.198 E.01154
G1 X119.053 Y128.946 E.00802
G1 X119.608 Y128.723 F9000
G1 F1200
G1 X119.676 Y128.736 E.00217
G1 X121.313 Y128.736 E.05133
G1 X121.313 Y130.071 E.04186
G1 X121.296 Y131.263 E.03738
G1 X121.208 Y131.842 E.01836
G1 X121.044 Y132.338 E.01638
G1 X120.786 Y132.839 E.01767
G1 X120.438 Y133.282 E.01766
G1 X119.999 Y133.678 E.01854
G1 X119.486 Y134.001 E.01901
G1 X119.112 Y134.147 E.01259
G1 X118.572 Y134.304 E.01763
G1 X117.988 Y134.362 E.0184
G1 X101.774 Y134.352 E.50838
G1 X101.172 Y134.243 E.01918
G1 X100.71 Y134.093 E.01523
G1 X100.227 Y133.844 E.01704
G1 X99.659 Y133.389 E.02282
G1 X99.281 Y132.919 E.01891
G1 X98.997 Y132.442 E.01741
G1 X98.768 Y131.761 E.02253
G1 X98.687 Y131.016 E.0235
G1 X98.687 Y128.736 E.07149
G1 X100.416 Y128.729 E.05421
G1 X100.693 Y128.599 E.00959
;WIDTH:0.448843
G1 X100.896 Y128.271 E.01302
G1 X100.901 Y128.17 E.00341
;WIDTH:0.442955
G1 X100.89 Y124.124 E.13458
;WIDTH:0.448843
G1 X100.901 Y122.928 E.04037
;WIDTH:0.442955
G1 X100.664 Y122.475 E.01701
;WIDTH:0.419999
G1 X100.324 Y122.362 E.01123
G1 X98.687 Y122.362 E.05133
G1 X98.687 Y85.736 E1.14838
G1 X121.313 Y85.736 E.70942
M73 P2 R19
G1 X121.313 Y122.362 E1.14838
G1 X119.676 Y122.362 E.05133
G1 X119.336 Y122.475 E.01123
;WIDTH:0.442954
G1 X119.099 Y122.928 E.01701
;WIDTH:0.448842
G1 X119.11 Y124.124 E.04037
;WIDTH:0.442954
G1 X119.099 Y128.17 E.13458
;WIDTH:0.448843
G1 X119.104 Y128.271 E.00341
G1 X119.307 Y128.599 E.01302
;WIDTH:0.419999
G1 X119.471 Y128.698 E.00601
G1 X119.549 Y128.712 E.00248
G1 X119.676 Y128.359 F9000
;TYPE:External perimeter
G1 F1200
G1 X121.69 Y128.359 E.06315
G1 X121.69 Y130.071 E.05368
G1 X121.663 Y131.423 E.0424
G1 X121.576 Y131.922 E.01588
G1 X121.423 Y132.402 E.0158
G1 X121.207 Y132.855 E.01574
G1 X120.931 Y133.274 E.01573
G1 X120.602 Y133.651 E.01569
G1 X120.225 Y133.98 E.01569
G1 X119.666 Y134.332 E.02071
G1 X119.231 Y134.505 E.01468
G1 X118.626 Y134.677 E.01972
G1 X117.995 Y134.739 E.01988
G1 X101.74 Y134.729 E.50966
G1 X100.957 Y134.588 E.02495
G1 X100.467 Y134.405 E.0164
G1 X100.017 Y134.159 E.01608
G1 X99.391 Y133.657 E.02516
G1 X98.895 Y133.041 E.0248
G1 X98.65 Y132.594 E.01598
G1 X98.398 Y131.843 E.02484
G1 X98.31 Y131.036 E.02545
G1 X98.31 Y128.359 E.08394
G1 X100.324 Y128.359 E.06315
G1 X100.447 Y128.313 E.00412
G1 X100.513 Y128.17 E.00494
G1 X100.513 Y122.928 E.16436
G1 X100.437 Y122.777 E.0053
G1 X100.324 Y122.739 E.00374
G1 X98.31 Y122.739 E.06315
G1 X98.31 Y85.359 E1.17202
G1 X121.69 Y85.359 E.73306
G1 X121.69 Y122.739 E1.17202
G1 X119.676 Y122.739 E.06315
G1 X119.563 Y122.777 E.00374
G1 X119.487 Y122.928 E.0053
G1 X119.487 Y128.17 E.16436
G1 X119.553 Y128.313 E.00494
G1 X119.619 Y128.338 E.00221
;WIPE_START
G1 F7200
G1 X119.676 Y128.359 E-.01443
G1 X121.69 Y128.359 E-.47832
M73 P3 R19
G1 X121.69 Y129.652 E-.30725
;WIPE_END
G1 X112.785 Y122.915 F9000
G1 E.8 F1800
G1 F1200
G1 X112.716 Y122.984 E.00306
G1 X110.094 Y124.498 E.09493
G1 X109.906 Y124.498 E.00589
G1 X107.284 Y122.984 E.09493
G1 X107.19 Y122.821 E.0059
G1 X107.19 Y119.794 E.09491
G1 X107.27 Y119.639 E.00547
G1 X109.906 Y118.117 E.09544
G1 X110 Y118.092 E.00305
G1 X110.094 Y118.117 E.00305
G1 X112.716 Y119.631 E.09493
G1 X112.785 Y119.7 E.00306
G1 X112.81 Y119.794 E.00305
G1 X112.81 Y122.821 E.09491
G1 X112.8 Y122.857 E.00117
;WIPE_START
G1 F7200
G1 X112.785 Y122.915 E-.01423
G1 X112.716 Y122.984 E-.02318
G1 X110.094 Y124.498 E-.71908
G1 X109.911 Y124.498 E-.04351
;WIPE_END
G1 X109.56 Y117.192 F9000
G1 E.8 F1800
G1 F1200
G1 X109.535 Y117.286 E.00305
G1 X109.466 Y117.355 E.00306
G1 X106.844 Y118.868 E.09492
G1 X106.67 Y118.876 E.00546
G1 X104.034 Y117.355 E.09542
G1 X103.941 Y117.208 E.00545
G1 X103.94 Y114.165 E.09541
G1 X104.034 Y114.001 E.00593
G1 X106.656 Y112.488 E.09492
G1 X106.75 Y112.463 E.00305
G1 X106.844 Y112.488 E.00305
G1 X109.466 Y114.001 E.09492
G1 X109.535 Y114.07 E.00306
G1 X109.56 Y114.165 E.00308
G1 X109.56 Y117.132 E.09303
;WIPE_START
G1 F7200
G1 X109.56 Y117.192 E-.01425
G1 X109.535 Y117.286 E-.0231
G1 X109.466 Y117.355 E-.02318
G1 X106.844 Y118.868 E-.71896
G1 X106.758 Y118.872 E-.02051
;WIPE_END
G1 X109.92 Y113.239 F9000
G1 E.8 F1800
G1 F1200
G1 X109.906 Y113.239 E.00044
G1 X107.284 Y111.726 E.09492
G1 X107.191 Y111.579 E.00545
G1 X107.19 Y108.535 E.09544
G1 X107.27 Y108.381 E.00544
G1 X109.906 Y106.859 E.09544
G1 X110 Y106.833 E.00306
G1 X110.094 Y106.859 E.00306
G1 X112.716 Y108.372 E.09492
G1 X112.785 Y108.441 E.00306
G1 X112.81 Y108.535 E.00305
G1 X112.81 Y111.562 E.09491
G1 X112.785 Y111.657 E.00308
G1 X112.716 Y111.726 E.00306
G1 X110.094 Y113.239 E.09492
G1 X109.98 Y113.239 E.00357
;WIPE_START
G1 F7200
G1 X109.92 Y113.239 E-.01425
G1 X109.906 Y113.239 E-.00332
G1 X107.284 Y111.726 E-.71896
G1 X107.191 Y111.579 E-.04131
G1 X107.191 Y111.486 E-.02216
;WIPE_END
G1 X110.44 Y114.165 F9000
G1 E.8 F1800
G1 F1200
G1 X110.534 Y114.001 E.00593
G1 X113.156 Y112.488 E.09492
G1 X113.25 Y112.463 E.00305
G1 X113.344 Y112.488 E.00305
G1 X115.966 Y114.001 E.09492
G1 X116.035 Y114.07 E.00306
G1 X116.06 Y114.165 E.00308
G1 X116.06 Y117.192 E.09491
G1 X116.035 Y117.286 E.00305
G1 X115.966 Y117.355 E.00306
G1 X113.344 Y118.868 E.09492
G1 X113.17 Y118.876 E.00546
G1 X110.534 Y117.355 E.09542
G1 X110.441 Y117.208 E.00545
G1 X110.44 Y114.225 E.09353
;WIPE_START
G1 F7200
G1 X110.44 Y114.165 E-.01425
G1 X110.534 Y114.001 E-.04489
G1 X113.156 Y112.488 E-.71896
G1 X113.245 Y112.464 E-.0219
;WIPE_END
G1 X101.347 Y106.669 F9000
G1 E.8 F1800
;TYPE:Perimeter
G1 F1200
G1 X101.321 Y106.604 E.0022
G1 X101.313 Y106.507 E.00305
G1 X101.313 Y105.428 E.03383
G1 X101.356 Y105.21 E.00697
G1 X101.469 Y105.037 E.00648
G1 X101.754 Y104.876 E.01026
G1 X102.871 Y104.862 E.03503
G1 X103.112 Y104.916 E.00774
G1 X103.259 Y105.016 E.00557
;WIDTH:0.461947
G1 X103.339 Y105.153 E.00553
;WIDTH:0.503895
G1 X103.42 Y105.29 E.0061
;WIDTH:0.545842
G1 X103.5 Y105.428 E.00667
G1 X103.58 Y105.29 E.00667
;WIDTH:0.503895
G1 X103.661 Y105.153 E.0061
;WIDTH:0.461947
G1 X103.741 Y105.016 E.00553
;WIDTH:0.419999
G1 X104.024 Y104.872 E.00996
G1 X104.129 Y104.862 E.00331
G1 X109.371 Y104.862 E.16436
G1 X109.597 Y104.909 E.00724
G1 X109.743 Y105.001 E.00541
;WIDTH:0.461947
G1 X109.828 Y105.143 E.00577
;WIDTH:0.503895
G1 X109.914 Y105.285 E.00636
;WIDTH:0.545842
G1 X110 Y105.428 E.00698
G1 X110.086 Y105.285 E.00698
;WIDTH:0.503895
G1 X110.172 Y105.143 E.00636
;WIDTH:0.461947
G1 X110.257 Y105.001 E.00577
;WIDTH:0.419999
G1 X110.532 Y104.87 E.00955
G1 X110.629 Y104.862 E.00305
G1 X115.871 Y104.862 E.16436
G1 X116.112 Y104.916 E.00774
G1 X116.259 Y105.016 E.00557
;WIDTH:0.461947
G1 X116.339 Y105.153 E.00553
;WIDTH:0.503895
G1 X116.42 Y105.29 E.0061
;WIDTH:0.545842
G1 X116.5 Y105.428 E.00667
G1 X116.58 Y105.29 E.00667
;WIDTH:0.503895
G1 X116.661 Y105.153 E.0061
;WIDTH:0.461947
G1 X116.741 Y105.016 E.00553
;WIDTH:0.419999
G1 X117.024 Y104.872 E.00996
G1 X118.121 Y104.862 E.0344
G1 X118.388 Y104.928 E.00862
G1 X118.531 Y105.037 E.00564
G1 X118.644 Y105.21 E.00648
G1 X118.687 Y105.428 E.00697
G1 X118.687 Y106.507 E.03383
G1 X118.646 Y106.717 E.00671
G1 X118.595 Y106.815 E.00346
G1 X118.404 Y106.996 E.00825
;WIDTH:0.465122
G1 X118.238 Y107.031 E.00596
;WIDTH:0.510245
G1 X118.071 Y107.066 E.00663
;WIDTH:0.555368
G1 X117.904 Y107.102 E.00728
G1 X118.071 Y107.224 E.00881
;WIDTH:0.510245
G1 X118.238 Y107.346 E.00804
;WIDTH:0.465122
G1 X118.404 Y107.468 E.00723
;WIDTH:0.419999
G1 X118.595 Y107.649 E.00825
G1 X118.687 Y107.958 E.01011
G1 X118.687 Y112.14 E.13112
G1 X118.646 Y112.351 E.00674
G1 X118.595 Y112.449 E.00346
G1 X118.404 Y112.63 E.00825
;WIDTH:0.461947
G1 X118.205 Y112.769 E.00846
;WIDTH:0.503895
G1 X118.006 Y112.908 E.0093
;WIDTH:0.545842
G1 X117.807 Y113.047 E.01015
G1 X118.006 Y113.065 E.00836
;WIDTH:0.503895
G1 X118.205 Y113.083 E.00766
;WIDTH:0.461947
G1 X118.404 Y113.102 E.00697
;WIDTH:0.419999
G1 X118.595 Y113.283 E.00825
G1 X118.687 Y113.591 E.01008
G1 X118.687 Y117.625 E.12648
G1 X118.638 Y117.854 E.00734
G1 X118.404 Y118.115 E.01099
G1 X118.283 Y118.185 E.00438
;WIDTH:0.465122
G1 X118.116 Y118.22 E.00599
;WIDTH:0.510244
G1 X117.95 Y118.255 E.00659
;WIDTH:0.555366
G1 X117.783 Y118.29 E.00727
G1 X117.95 Y118.412 E.00881
;WIDTH:0.510244
G1 X118.116 Y118.534 E.00801
;WIDTH:0.465122
G1 X118.283 Y118.657 E.00728
;WIDTH:0.419999
G1 X118.583 Y118.89 E.01191
G1 X118.687 Y119.216 E.01073
G1 X118.687 Y122.15 E.09199
;WIDTH:0.442954
G1 X118.699 Y122.928 E.02588
;WIDTH:0.448842
G1 X118.693 Y123.498 E.01924
G1 X118.485 Y123.832 E.01328
;WIDTH:0.461947
G1 X118.259 Y123.99 E.00961
;WIDTH:0.503895
G1 X118.033 Y124.148 E.01057
;WIDTH:0.545842
G1 X117.807 Y124.305 E.01151
G1 X118.006 Y124.324 E.00836
;WIDTH:0.503895
G1 X118.205 Y124.342 E.00766
;WIDTH:0.461947
G1 X118.404 Y124.36 E.00696
;WIDTH:0.419999
G1 X118.485 Y124.416 E.00309
;WIDTH:0.442954
G1 X118.699 Y124.85 E.0161
G1 X118.687 Y128.883 E.13415
;WIDTH:0.419999
G1 X118.604 Y129.177 E.00958
G1 X118.404 Y129.373 E.00878
G1 X118.283 Y129.443 E.00438
;WIDTH:0.465121
G1 X118.116 Y129.478 E.00599
;WIDTH:0.510243
G1 X117.95 Y129.513 E.00659
;WIDTH:0.555364
G1 X117.783 Y129.548 E.00727
G1 X117.95 Y129.67 E.00881
;WIDTH:0.510243
G1 X118.116 Y129.793 E.00803
;WIDTH:0.465121
G1 X118.283 Y129.915 E.00726
;WIDTH:0.419999
G1 X118.541 Y130.096 E.00988
G1 X118.674 Y130.355 E.00913
G1 X118.687 Y130.979 E.01957
G1 X118.651 Y131.368 E.01225
G1 X118.489 Y131.6 E.00887
G1 X118.3 Y131.707 E.00681
G1 X117.965 Y131.736 E.01054
G1 X114.179 Y131.736 E.11871
G1 X113.915 Y131.671 E.00852
G1 X113.795 Y131.586 E.00461
;WIDTH:0.453759
G1 X113.664 Y131.329 E.00985
