; generated by PrusaSlicer 2.7.2-rc1+win64 on 2024-02-25 at 18:22:36 UTC


;
;

;
;
; 

; external perimeters extrusion width = 0.42mm
; perimeters extrusion width = 0.44mm
; infill extrusion width = 0.44mm
; solid infill extrusion width = 0.44mm
; top infill extrusion width = 0.40mm
; first layer extrusion width = 0.42mm

M73 P0 R290

; printing object the-drawer.stl id:0 copy 0
; stop printing object the-drawer.stl id:0 copy 0

M190 S60 ; set bed temperature and wait for it to be reached
M104 S205 ; set temperature
;TYPE:Custom
SET_PRINT_STATS_INFO TOTAL_LAYER=138
START_PRINT EXTRUDER_TEMP=205 BED_TEMP=60 AREA_START=61.4844,50.1144 AREA_END=169.516,180.886
M109 S205 ; set temperature and wait for it to be reached
G21 ; set units to millimeters
G90 ; use absolute coordinates
M83 ; use relative distances for extrusion
; Filament gcode
M107
;LAYER_CHANGE
;Z:0.2
;HEIGHT:0.2
G1 E-1.5 F5100
G1 Z.2 F9000
G1 X62.662 Y51.612
G1 Z.2
G1 E1.5 F3600
;TYPE:Skirt/Brim
;WIDTH:0.42
G1 F1200
G1 X62.982 Y51.292 E.01419
G1 X64.38 Y50.451 E.05115
G1 X65.37 Y50.303 E.03139
G1 X165.63 Y50.303 E3.14358
G1 X167.213 Y50.697 E.05115
G1 X168.338 Y51.612 E.04547
G1 X169.179 Y53.01 E.05115
G1 X169.327 Y54 E.03139
G1 X169.327 Y177 E3.85658
G1 X168.933 Y178.583 E.05115
G1 X168.338 Y179.388 E.03139
G1 X168.018 Y179.708 E.01419
G1 X166.62 Y180.549 E.05115
G1 X165.63 Y180.697 E.03139
G1 X65.37 Y180.697 E3.14358
G1 X63.787 Y180.303 E.05115
G1 X62.982 Y179.708 E.03139
G1 X62.662 Y179.388 E.01419
G1 X61.821 Y177.99 E.05115
G1 X61.673 Y177 E.03139
G1 X61.673 Y54 E3.85658
G1 X62.067 Y52.417 E.05115
M73 P0 R289
G1 X62.626 Y51.66 E.02951
; printing object the-drawer.stl id:0 copy 0
G1 E-1.05 F5100
;WIPE_START
G1 F7200
G1 X62.662 Y51.612 E-.04037
G1 X62.982 Y51.292 E-.30453
G1 X63.116 Y51.212 E-.1051
;WIPE_END
G1 X66.114 Y54.964 F9000
G1 E1.5 F3600
;TYPE:Perimeter
;WIDTH:0.419999
G1 F1200
G1 X164.886 Y54.964 E3.09692
G1 X164.886 Y176.036 E3.79612
G1 X66.114 Y176.036 E3.09692
G1 X66.114 Y55.024 E3.79424
G1 X66.114 Y55.024 F9000
G1 X65.737 Y54.587
G1 F1200
G1 X165.263 Y54.587 E3.12056
G1 X165.263 Y176.413 E3.81976
G1 X65.737 Y176.413 E3.12056
G1 X65.737 Y54.647 E3.81788
G1 X65.36 Y54.21 F9000
;TYPE:External perimeter
G1 F1200
G1 X165.64 Y54.21 E3.1442
G1 X165.64 Y176.79 E3.8434
G1 X65.36 Y176.79 E3.1442
G1 X65.36 Y54.27 E3.84152
M73 P0 R288
G1 E-1.5 F5100
G1 X164.002 Y55.085 F9000
G1 E1.5 F3600
;TYPE:Solid infill
;WIDTH:0.420449
G1 F1200
G1 X164.596 Y55.678 E.02635
G1 X164.596 Y56.212 E.01676
G1 X163.638 Y55.255 E.04251
G1 X163.104 Y55.255 E.01676
G1 X164.596 Y56.746 E.06621
G1 X164.596 Y57.28 E.01676
G1 X162.57 Y55.255 E.08992
G1 X162.036 Y55.255 E.01676
G1 X164.596 Y57.814 E.11363
G1 X164.596 Y58.348 E.01676
G1 X161.502 Y55.255 E.13733
G1 X160.968 Y55.255 E.01676
G1 X164.596 Y58.882 E.16104
G1 X164.596 Y59.416 E.01676
G1 X160.434 Y55.255 E.18475
G1 X159.9 Y55.255 E.01676
G1 X164.596 Y59.95 E.20845
G1 X164.596 Y60.484 E.01676
G1 X159.366 Y55.255 E.23216
G1 X158.833 Y55.255 E.01673
G1 X164.596 Y61.017 E.25582
G1 X164.596 Y61.551 E.01676
G1 X158.299 Y55.255 E.27953
G1 X157.765 Y55.255 E.01676
G1 X164.596 Y62.085 E.30324
G1 X164.596 Y62.619 E.01676
G1 X157.231 Y55.255 E.32694
G1 X156.697 Y55.255 E.01676
G1 X164.596 Y63.153 E.35065
G1 X164.596 Y63.687 E.01676
G1 X156.163 Y55.255 E.37436
G1 X155.629 Y55.255 E.01676
G1 X164.596 Y64.221 E.39806
G1 X164.596 Y64.755 E.01676
G1 X155.095 Y55.255 E.42177
G1 X154.561 Y55.255 E.01676
G1 X164.596 Y65.289 E.44548
G1 X164.596 Y65.823 E.01676
G1 X154.027 Y55.255 E.46918
G1 X153.494 Y55.255 E.01673
G1 X164.596 Y66.356 E.49285
G1 X164.596 Y66.89 E.01676
G1 X152.96 Y55.255 E.51655
G1 X152.426 Y55.255 E.01676
G1 X164.596 Y67.424 E.54026
G1 X164.596 Y67.958 E.01676
G1 X151.892 Y55.255 E.56397
G1 X151.358 Y55.255 E.01676
G1 X164.596 Y68.492 E.58767
G1 X164.596 Y69.026 E.01676
G1 X150.824 Y55.255 E.61138
G1 X150.29 Y55.255 E.01676
G1 X164.596 Y69.56 E.63509
G1 X164.596 Y70.094 E.01676
G1 X149.756 Y55.255 E.65879
G1 X149.222 Y55.255 E.01676
G1 X164.596 Y70.628 E.6825
G1 X164.596 Y71.162 E.01676
G1 X148.688 Y55.255 E.70621
G1 X148.154 Y55.255 E.01676
G1 X164.596 Y71.696 E.72991
G1 X164.596 Y72.229 E.01673
G1 X147.621 Y55.255 E.75357
G1 X147.087 Y55.255 E.01676
G1 X164.596 Y72.763 E.77728
G1 X164.596 Y73.297 E.01676
G1 X146.553 Y55.255 E.80099
G1 X146.019 Y55.255 E.01676
G1 X164.596 Y73.831 E.82469
G1 X164.596 Y74.365 E.01676
G1 X145.485 Y55.255 E.8484
G1 X144.951 Y55.255 E.01676
G1 X164.596 Y74.899 E.87211
G1 X164.596 Y75.433 E.01676
G1 X144.417 Y55.255 E.89581
G1 X143.883 Y55.255 E.01676
G1 X164.596 Y75.967 E.91952
G1 X164.596 Y76.501 E.01676
G1 X143.349 Y55.255 E.94323
G1 X142.815 Y55.255 E.01676
G1 X164.596 Y77.035 E.96693
G1 X164.596 Y77.569 E.01676
G1 X142.281 Y55.255 E.99064
G1 X141.748 Y55.255 E.01673
G1 X164.596 Y78.102 E1.0143
G1 X164.596 Y78.636 E.01676
G1 X141.214 Y55.255 E1.03801
G1 X140.68 Y55.255 E.01676
G1 X164.596 Y79.17 E1.06172
G1 X164.596 Y79.704 E.01676
G1 X140.146 Y55.255 E1.08542
G1 X139.612 Y55.255 E.01676
G1 X164.596 Y80.238 E1.10913
G1 X164.596 Y80.772 E.01676
G1 X139.078 Y55.255 E1.13284
G1 X138.544 Y55.255 E.01676
G1 X164.596 Y81.306 E1.15654
G1 X164.596 Y81.84 E.01676
G1 X138.01 Y55.255 E1.18025
G1 X137.476 Y55.255 E.01676
G1 X164.596 Y82.374 E1.20396
G1 X164.596 Y82.908 E.01676
G1 X136.942 Y55.255 E1.22766
G1 X136.409 Y55.255 E.01673
M73 P0 R287
G1 X164.596 Y83.442 E1.25135
G1 X164.596 Y83.975 E.01673
G1 X135.875 Y55.255 E1.27503
G1 X135.341 Y55.255 E.01676
G1 X164.596 Y84.509 E1.29874
G1 X164.596 Y85.043 E.01676
G1 X134.807 Y55.255 E1.32245
G1 X134.273 Y55.255 E.01676
G1 X164.596 Y85.577 E1.34615
G1 X164.596 Y86.111 E.01676
G1 X133.739 Y55.255 E1.36986
G1 X133.205 Y55.255 E.01676
G1 X164.595 Y86.645 E1.39354
G1 X164.595 Y87.179 E.01676
G1 X132.671 Y55.255 E1.41725
G1 X132.137 Y55.255 E.01676
G1 X164.595 Y87.713 E1.44096
G1 X164.595 Y88.247 E.01676
G1 X131.603 Y55.255 E1.46466
G1 X131.069 Y55.255 E.01676
G1 X164.595 Y88.781 E1.48837
G1 X164.595 Y89.314 E.01673
G1 X130.536 Y55.255 E1.51203
G1 X130.002 Y55.255 E.01676
G1 X164.595 Y89.848 E1.53574
G1 X164.595 Y90.382 E.01676
M73 P1 R287
G1 X129.468 Y55.255 E1.55945
G1 X128.934 Y55.255 E.01676
G1 X164.595 Y90.916 E1.58315
G1 X164.595 Y91.45 E.01676
G1 X128.4 Y55.255 E1.60686
G1 X127.866 Y55.255 E.01676
G1 X164.595 Y91.984 E1.63057
G1 X164.595 Y92.518 E.01676
G1 X127.332 Y55.255 E1.65427
G1 X126.798 Y55.255 E.01676
G1 X164.595 Y93.052 E1.67798
G1 X164.595 Y93.586 E.01676
G1 X126.264 Y55.255 E1.70169
G1 X125.73 Y55.255 E.01676
G1 X164.595 Y94.12 E1.72539
G1 X164.595 Y94.654 E.01676
G1 X125.196 Y55.255 E1.7491
G1 X124.663 Y55.255 E.01673
G1 X164.595 Y95.187 E1.77276
G1 X164.595 Y95.721 E.01676
G1 X124.129 Y55.255 E1.79647
G1 X123.595 Y55.255 E.01676
M73 P1 R286
G1 X164.595 Y96.255 E1.82018
G1 X164.595 Y96.789 E.01676
G1 X123.061 Y55.255 E1.84388
G1 X122.527 Y55.255 E.01676
G1 X164.595 Y97.323 E1.86759
G1 X164.595 Y97.857 E.01676
G1 X121.993 Y55.255 E1.8913
G1 X121.459 Y55.255 E.01676
G1 X164.595 Y98.391 E1.915
G1 X164.595 Y98.925 E.01676
G1 X120.925 Y55.255 E1.93871
G1 X120.391 Y55.255 E.01676
G1 X164.595 Y99.459 E1.96242
G1 X164.595 Y99.993 E.01676
G1 X119.857 Y55.255 E1.98612
G1 X119.323 Y55.255 E.01676
G1 X164.595 Y100.527 E2.00983
G1 X164.595 Y101.06 E.01673
G1 X118.79 Y55.255 E2.03349
G1 X118.256 Y55.255 E.01676
G1 X164.595 Y101.594 E2.0572
G1 X164.595 Y102.128 E.01676
G1 X117.722 Y55.255 E2.0809
G1 X117.188 Y55.255 E.01676
G1 X164.595 Y102.662 E2.10461
G1 X164.595 Y103.196 E.01676
G1 X116.654 Y55.255 E2.12832
G1 X116.12 Y55.255 E.01676
G1 X164.595 Y103.73 E2.15202
G1 X164.595 Y104.264 E.01676
G1 X115.586 Y55.255 E2.17573
G1 X115.052 Y55.255 E.01676
G1 X164.595 Y104.798 E2.19944
G1 X164.595 Y105.332 E.01676
G1 X114.518 Y55.255 E2.22314
G1 X113.984 Y55.255 E.01676
G1 X164.595 Y105.866 E2.24685
G1 X164.595 Y106.399 E.01673
M73 P1 R285
G1 X113.451 Y55.255 E2.27051
G1 X112.917 Y55.255 E.01676
G1 X164.595 Y106.933 E2.29422
G1 X164.595 Y107.467 E.01676
G1 X112.383 Y55.255 E2.31793
G1 X111.849 Y55.255 E.01676
G1 X164.595 Y108.001 E2.34163
G1 X164.595 Y108.535 E.01676
G1 X111.315 Y55.255 E2.36534
G1 X110.781 Y55.255 E.01676
G1 X164.595 Y109.069 E2.38905
G1 X164.595 Y109.603 E.01676
G1 X110.247 Y55.255 E2.41275
G1 X109.713 Y55.255 E.01676
G1 X164.595 Y110.137 E2.43646
G1 X164.595 Y110.671 E.01676
G1 X109.179 Y55.255 E2.46017
G1 X108.645 Y55.255 E.01676
G1 X164.595 Y111.205 E2.48387
G1 X164.595 Y111.739 E.01676
G1 X108.111 Y55.255 E2.50758
G1 X107.578 Y55.255 E.01673
G1 X164.595 Y112.272 E2.53124
G1 X164.595 Y112.806 E.01676
G1 X107.044 Y55.255 E2.55495
G1 X106.51 Y55.255 E.01676
G1 X164.595 Y113.34 E2.57866
G1 X164.595 Y113.874 E.01676
G1 X105.976 Y55.255 E2.60236
G1 X105.442 Y55.255 E.01676
M73 P1 R284
G1 X164.595 Y114.408 E2.62607
G1 X164.595 Y114.942 E.01676
G1 X104.908 Y55.255 E2.64978
G1 X104.374 Y55.255 E.01676
G1 X164.595 Y115.476 E2.67348
G1 X164.596 Y116.01 E.01676
G1 X103.84 Y55.255 E2.69721
G1 X103.306 Y55.255 E.01676
G1 X164.596 Y116.544 E2.72092
G1 X164.596 Y117.078 E.01676
G1 X102.772 Y55.255 E2.74462
G1 X102.238 Y55.255 E.01676
M73 P2 R284
G1 X164.596 Y117.612 E2.76833
G1 X164.596 Y118.145 E.01673
G1 X101.705 Y55.255 E2.79199
G1 X101.171 Y55.255 E.01676
G1 X164.596 Y118.679 E2.8157
G1 X164.596 Y119.213 E.01676
G1 X100.637 Y55.255 E2.83941
G1 X100.103 Y55.255 E.01676
G1 X164.596 Y119.747 E2.86311
G1 X164.596 Y120.281 E.01676
G1 X99.569 Y55.255 E2.88682
G1 X99.035 Y55.255 E.01676
G1 X164.596 Y120.815 E2.91053
G1 X164.596 Y121.349 E.01676
G1 X98.501 Y55.255 E2.93423
G1 X97.967 Y55.255 E.01676
M73 P2 R283
G1 X164.596 Y121.883 E2.95794
G1 X164.596 Y122.417 E.01676
G1 X97.433 Y55.255 E2.98165
G1 X96.899 Y55.255 E.01676
G1 X164.596 Y122.951 E3.00535
G1 X164.596 Y123.485 E.01676
G1 X96.366 Y55.255 E3.02904
G1 X95.832 Y55.255 E.01676
G1 X164.596 Y124.018 E3.05272
G1 X164.596 Y124.552 E.01676
G1 X95.298 Y55.255 E3.07643
G1 X94.764 Y55.255 E.01676
G1 X164.596 Y125.086 E3.10014
G1 X164.596 Y125.62 E.01676
G1 X94.23 Y55.255 E3.12384
G1 X93.696 Y55.255 E.01676
G1 X164.596 Y126.154 E3.14755
G1 X164.596 Y126.688 E.01676
G1 X93.162 Y55.255 E3.17126
G1 X92.628 Y55.255 E.01676
G1 X164.596 Y127.222 E3.19496
G1 X164.596 Y127.756 E.01676
G1 X92.094 Y55.255 E3.21867
G1 X91.56 Y55.255 E.01676
M73 P2 R282
G1 X164.596 Y128.29 E3.24238
G1 X164.596 Y128.824 E.01676
G1 X91.026 Y55.255 E3.26608
G1 X90.493 Y55.255 E.01673
G1 X164.596 Y129.357 E3.28974
G1 X164.596 Y129.891 E.01676
G1 X89.959 Y55.255 E3.31345
G1 X89.425 Y55.255 E.01676
G1 X164.596 Y130.425 E3.33716
G1 X164.596 Y130.959 E.01676
G1 X88.891 Y55.255 E3.36086
G1 X88.357 Y55.255 E.01676
G1 X164.596 Y131.493 E3.38457
G1 X164.596 Y132.027 E.01676
G1 X87.823 Y55.255 E3.40828
G1 X87.289 Y55.255 E.01676
G1 X164.596 Y132.561 E3.43198
G1 X164.596 Y133.095 E.01676
G1 X86.755 Y55.255 E3.45569
G1 X86.221 Y55.255 E.01676
G1 X164.596 Y133.629 E3.4794
G1 X164.596 Y134.163 E.01676
M73 P2 R281
G1 X85.687 Y55.255 E3.5031
G1 X85.153 Y55.255 E.01676
G1 X164.596 Y134.697 E3.52681
G1 X164.596 Y135.23 E.01673
G1 X84.62 Y55.255 E3.55047
G1 X84.086 Y55.255 E.01676
M73 P3 R281
G1 X164.596 Y135.764 E3.57418
G1 X164.596 Y136.298 E.01676
G1 X83.552 Y55.255 E3.59789
G1 X83.018 Y55.255 E.01676
G1 X164.596 Y136.832 E3.62159
G1 X164.596 Y137.366 E.01676
G1 X82.484 Y55.255 E3.6453
G1 X81.95 Y55.255 E.01676
G1 X164.596 Y137.9 E3.66901
G1 X164.596 Y138.434 E.01676
G1 X81.416 Y55.255 E3.69271
G1 X80.882 Y55.255 E.01676
G1 X164.596 Y138.968 E3.71642
G1 X164.596 Y139.502 E.01676
G1 X80.348 Y55.255 E3.74013
G1 X79.814 Y55.255 E.01676
M73 P3 R280
G1 X164.596 Y140.036 E3.76383
G1 X164.596 Y140.57 E.01676
G1 X79.28 Y55.255 E3.78754
G1 X78.747 Y55.255 E.01673
G1 X164.596 Y141.103 E3.8112
G1 X164.596 Y141.637 E.01676
G1 X78.213 Y55.255 E3.83491
G1 X77.679 Y55.255 E.01676
G1 X164.596 Y142.171 E3.85862
G1 X164.596 Y142.705 E.01676
G1 X77.145 Y55.255 E3.88232
G1 X76.611 Y55.255 E.01676
G1 X164.596 Y143.239 E3.90603
G1 X164.596 Y143.773 E.01676
G1 X76.077 Y55.255 E3.92974
G1 X75.543 Y55.255 E.01676
G1 X164.596 Y144.307 E3.95344
G1 X164.596 Y144.841 E.01676
M73 P3 R279
G1 X75.009 Y55.255 E3.97715
G1 X74.475 Y55.255 E.01676
G1 X164.596 Y145.375 E4.00086
G1 X164.596 Y145.909 E.01676
G1 X73.941 Y55.255 E4.02456
G1 X73.408 Y55.255 E.01673
G1 X164.596 Y146.442 E4.04823
G1 X164.596 Y146.976 E.01676
G1 X72.874 Y55.255 E4.07193
G1 X72.34 Y55.255 E.01676
G1 X164.596 Y147.51 E4.09564
G1 X164.596 Y148.044 E.01676
G1 X71.806 Y55.255 E4.11935
G1 X71.272 Y55.255 E.01676
G1 X164.596 Y148.578 E4.14305
G1 X164.596 Y149.112 E.01676
G1 X70.738 Y55.255 E4.16676
G1 X70.204 Y55.255 E.01676
M73 P3 R278
G1 X164.596 Y149.646 E4.19047
G1 X164.596 Y150.18 E.01676
G1 X69.67 Y55.255 E4.21417
G1 X69.136 Y55.255 E.01676
M73 P4 R278
G1 X164.596 Y150.714 E4.23788
G1 X164.596 Y151.248 E.01676
G1 X68.602 Y55.255 E4.26159
G1 X68.068 Y55.255 E.01676
G1 X164.596 Y151.782 E4.28529
G1 X164.596 Y152.315 E.01673
G1 X67.535 Y55.255 E4.30895
G1 X67.001 Y55.255 E.01676
G1 X164.596 Y152.849 E4.33266
G1 X164.596 Y153.383 E.01676
G1 X66.467 Y55.255 E4.35637
G1 X66.405 Y55.255 E.00195
G1 X66.405 Y55.726 E.01479
G1 X164.596 Y153.917 E4.35914
G1 X164.596 Y154.451 E.01676
M73 P4 R277
G1 X66.405 Y56.26 E4.35914
G1 X66.405 Y56.794 E.01676
G1 X164.596 Y154.985 E4.35914
G1 X164.596 Y155.519 E.01676
G1 X66.405 Y57.328 E4.35914
G1 X66.405 Y57.862 E.01676
G1 X164.596 Y156.053 E4.35914
G1 X164.596 Y156.587 E.01676
G1 X66.405 Y58.396 E4.35914
G1 X66.405 Y58.93 E.01676
G1 X164.596 Y157.121 E4.35914
G1 X164.596 Y157.655 E.01676
G1 X66.405 Y59.464 E4.35914
G1 X66.405 Y59.997 E.01673
G1 X164.596 Y158.188 E4.35914
G1 X164.596 Y158.722 E.01676
G1 X66.405 Y60.531 E4.35914
G1 X66.405 Y61.065 E.01676
M73 P4 R276
G1 X164.596 Y159.256 E4.35914
G1 X164.596 Y159.79 E.01676
G1 X66.405 Y61.599 E4.35914
G1 X66.405 Y62.133 E.01676
G1 X164.596 Y160.324 E4.35914
G1 X164.596 Y160.858 E.01676
G1 X66.405 Y62.667 E4.35914
G1 X66.405 Y63.201 E.01676
G1 X164.596 Y161.392 E4.35914
G1 X164.596 Y161.926 E.01676
G1 X66.405 Y63.735 E4.35914
G1 X66.405 Y64.269 E.01676
G1 X164.596 Y162.46 E4.35914
G1 X164.596 Y162.994 E.01676
G1 X66.405 Y64.803 E4.35914
G1 X66.405 Y65.337 E.01676
M73 P4 R275
G1 X164.596 Y163.528 E4.35914
G1 X164.596 Y164.061 E.01673
M73 P5 R275
G1 X66.405 Y65.87 E4.35914
G1 X66.405 Y66.404 E.01676
G1 X164.596 Y164.595 E4.35914
G1 X164.596 Y165.129 E.01676
G1 X66.405 Y66.938 E4.35914
G1 X66.405 Y67.472 E.01676
G1 X164.596 Y165.663 E4.35914
G1 X164.596 Y166.197 E.01676
G1 X66.405 Y68.006 E4.35914
G1 X66.405 Y68.54 E.01676
G1 X164.596 Y166.731 E4.35914
G1 X164.596 Y167.265 E.01676
G1 X66.405 Y69.074 E4.35914
G1 X66.405 Y69.608 E.01676
G1 X164.596 Y167.799 E4.35914
G1 X164.596 Y168.333 E.01676
M73 P5 R274
G1 X66.405 Y70.142 E4.35914
G1 X66.405 Y70.676 E.01676
G1 X164.596 Y168.867 E4.35914
G1 X164.596 Y169.4 E.01673
G1 X66.405 Y71.209 E4.35914
G1 X66.405 Y71.743 E.01676
G1 X164.596 Y169.934 E4.35914
G1 X164.596 Y170.468 E.01676
G1 X66.405 Y72.277 E4.35914
G1 X66.405 Y72.811 E.01676
G1 X164.596 Y171.002 E4.35914
G1 X164.596 Y171.536 E.01676
G1 X66.405 Y73.345 E4.35914
G1 X66.405 Y73.879 E.01676
G1 X164.596 Y172.07 E4.35914
G1 X164.596 Y172.604 E.01676
G1 X66.405 Y74.413 E4.35914
G1 X66.405 Y74.947 E.01676
M73 P5 R273
G1 X164.596 Y173.138 E4.35914
G1 X164.596 Y173.672 E.01676
G1 X66.405 Y75.481 E4.35914
G1 X66.405 Y76.015 E.01676
G1 X164.596 Y174.206 E4.35914
G1 X164.596 Y174.74 E.01676
G1 X66.405 Y76.549 E4.35914
G1 X66.405 Y77.082 E.01673
G1 X164.596 Y175.273 E4.35914
G1 X164.596 Y175.745 E.01482
G1 X164.534 Y175.745 E.00195
G1 X66.405 Y77.616 E4.35639
G1 X66.405 Y78.15 E.01676
G1 X164 Y175.745 E4.33268
G1 X163.466 Y175.745 E.01676
G1 X66.405 Y78.684 E4.30898
G1 X66.405 Y79.218 E.01676
M73 P6 R272
G1 X162.932 Y175.745 E4.28527
G1 X162.398 Y175.745 E.01676
G1 X66.405 Y79.752 E4.26156
G1 X66.405 Y80.286 E.01676
G1 X161.864 Y175.745 E4.23786
G1 X161.33 Y175.745 E.01676
G1 X66.405 Y80.82 E4.21415
G1 X66.405 Y81.354 E.01676
G1 X160.796 Y175.745 E4.19044
G1 X160.262 Y175.745 E.01676
G1 X66.405 Y81.888 E4.16674
