; generated by PrusaSlicer 2.7.2-rc1+win64 on 2024-02-25 at 11:45:00 UTC


;
;

;
;
; 

; external perimeters extrusion width = 0.42mm
; perimeters extrusion width = 0.44mm
; infill extrusion width = 0.44mm
; solid infill extrusion width = 0.44mm
; top infill extrusion width = 0.40mm
; first layer extrusion width = 0.42mm

M73 P0 R43

; printing object voron2_topview_pi_camera.stl id:0 copy 0
; stop printing object voron2_topview_pi_camera.stl id:0 copy 0

M190 S60 ; set bed temperature and wait for it to be reached
M104 S205 ; set temperature
;TYPE:Custom
SET_PRINT_STATS_INFO TOTAL_LAYER=125
START_PRINT EXTRUDER_TEMP=205 BED_TEMP=60 AREA_START=98.1073,104.446 AREA_END=132.893,129.65
M109 S205 ; set temperature and wait for it to be reached
G21 ; set units to millimeters
G90 ; use absolute coordinates
M83 ; use relative distances for extrusion
; Filament gcode
M107
;LAYER_CHANGE
;Z:0.2
;HEIGHT:0.2
G1 E-1.5 F5100
G1 Z.2 F9000
G1 X101.805 Y106.308
G1 Z.2
G1 E1.5 F3600
M204 S3000
;TYPE:Skirt/Brim
;WIDTH:0.42
G1 F1200
G1 X103.051 Y105.12 E.05398
G1 X105.419 Y104.633 E.0758
G1 X115.612 Y105.918 E.32212
G1 X116.609 Y106.187 E.03238
G1 X130.417 Y112.048 E.47033
G1 X131.805 Y113.066 E.05397
G1 X132.593 Y114.597 E.05399
G1 X132.704 Y115.504 E.02865
G1 X132.704 Y125.707 E.31991
G1 X132.309 Y127.383 E.05399
G1 X131.208 Y128.706 E.05397
G1 X128.95 Y129.461 E.07465
M73 P0 R42
G1 X104.95 Y129.461 E.7525
G1 X103.274 Y129.066 E.05399
G1 X101.951 Y127.965 E.05397
G1 X101.475 Y127.127 E.03022
G1 X98.575 Y120.027 E.24047
G1 X98.296 Y118.607 E.04537
G1 X98.296 Y112.807 E.18185
G1 X98.905 Y110.757 E.06705
G1 X101.772 Y106.358 E.16464
G1 X101.772 Y106.358 F9000
G1 X102.088 Y106.564
G1 F1200
G1 X102.121 Y106.514 E.00188
G1 X103.316 Y105.403 E.05116
G1 X105.372 Y105.007 E.06565
G1 X115.565 Y106.292 E.32212
G1 X116.462 Y106.534 E.02913
G1 X130.27 Y112.395 E.47033
G1 X131.573 Y113.376 E.05114
G1 X132.327 Y115.504 E.07079
G1 X132.327 Y125.707 E.31991
G1 X131.933 Y127.29 E.05115
G1 X130.843 Y128.504 E.05116
G1 X128.95 Y129.084 E.06208
G1 X104.95 Y129.084 E.7525
G1 X103.367 Y128.69 E.05115
G1 X101.824 Y126.984 E.07212
G1 X98.924 Y119.884 E.24047
G1 X98.673 Y118.607 E.04081
G1 X98.673 Y112.807 E.18185
G1 X99.221 Y110.963 E.06032
G1 X102.055 Y106.614 E.16276
; printing object voron2_topview_pi_camera.stl id:0 copy 0
G1 E-1.05 F5100
;WIPE_START
G1 F7200
G1 X102.088 Y106.564 E-.04031
G1 X102.121 Y106.514 E-.04031
G1 X102.523 Y106.14 E-.36938
;WIPE_END
G1 X105.369 Y113.307 F9000
G1 E1.5 F3600
;TYPE:Perimeter
;WIDTH:0.419999
G1 F1200
G1 X105.581 Y113.174 E.00785
G1 X105.637 Y112.928 E.00791
G1 X105.637 Y109.396 E.11074
G1 X113.892 Y112.9 E.28118
G1 X114.124 Y112.945 E.00741
G1 X114.34 Y112.812 E.00795
G1 X114.395 Y113.06 E.00796
G1 X114.589 Y113.196 E.00743
G1 X125.467 Y117.805 E.37042
G1 X125.767 Y117.796 E.00941
G1 X125.961 Y117.691 E.00692
G1 X126.121 Y117.476 E.0084
G1 X126.994 Y115.42 E.07003
G1 X128.263 Y115.958 E.04322
G1 X128.263 Y116.507 E.01721
G1 X128.263 Y125.02 E.26692
G1 X105.637 Y125.02 E.70942
G1 X105.637 Y118.486 E.20487
G1 X105.582 Y118.241 E.00787
G1 X105.368 Y118.107 E.00792
G1 X105.582 Y117.973 E.00792
G1 X105.637 Y117.728 E.00787
G1 X105.637 Y113.686 E.12673
G1 X105.581 Y113.44 E.00791
G1 X105.42 Y113.339 E.00596
G1 X105.42 Y113.339 F9000
G1 X105.071 Y113.496
;TYPE:External perimeter
;WIDTH:0.421461
G1 F1200
G1 X102.979 Y113.496 E.06585
;WIDTH:0.461539
G1 X102.69 Y113.476 E.01008
;WIDTH:0.501617
G1 X102.401 Y113.456 E.01105
G1 X102.401 Y113.028 E.01632
G1 X102.749 Y112.863 E.01469
G1 X102.784 Y113.05 E.00726
G1 X102.881 Y113.084 E.00392
;WIDTH:0.461539
G1 X102.979 Y113.118 E.00361
;WIDTH:0.421461
G1 X105.071 Y113.118 E.06585
G1 X105.241 Y113.01 E.00634
;WIDTH:0.419999
G1 X105.26 Y112.928 E.00264
G1 X105.26 Y108.826 E.12862
G1 X114.079 Y112.565 E.30034
;WIDTH:0.422905
G1 X114.28 Y112.469 E.00704
G1 X115.307 Y110.05 E.08303
;WIDTH:0.42146
G1 X115.655 Y110.198 E.0119
G1 X114.635 Y112.601 E.08217
G1 X114.671 Y112.803 E.00646
;WIDTH:0.419999
G1 X114.736 Y112.849 E.0025
G1 X125.527 Y117.429 E.36756
G1 X125.656 Y117.436 E.00405
G1 X125.774 Y117.329 E.00499
G1 X126.794 Y114.925 E.08188
G1 X128.64 Y115.709 E.06288
G1 X128.64 Y116.507 E.02502
G1 X128.64 Y125.397 E.27874
G1 X105.26 Y125.397 E.73306
G1 X105.255 Y118.442 E.21807
;WIDTH:0.42146
G1 X105.071 Y118.296 E.00739
G1 X102.979 Y118.296 E.06585
;WIDTH:0.461539
G1 X102.891 Y118.316 E.00314
;WIDTH:0.501617
G1 X102.804 Y118.336 E.0034
G1 X102.749 Y118.551 E.00846
G1 X102.401 Y118.385 E.01471
G1 X102.401 Y117.958 E.01629
G1 X102.69 Y117.938 E.01105
;WIDTH:0.461539
G1 X102.979 Y117.918 E.01008
;WIDTH:0.42146
G1 X105.071 Y117.918 E.06585
G1 X105.242 Y117.81 E.00637
;WIDTH:0.419999
G1 X105.26 Y117.728 E.00263
G1 X105.255 Y113.641 E.12814
;WIDTH:0.421461
G1 X105.119 Y113.533 E.00547
G1 E-1.05 F5100
;WIPE_START
G1 F7200
G1 X105.071 Y113.496 E-.04078
G1 X104.463 Y113.496 E-.40922
;WIPE_END
G1 X128.142 Y116.817 F9000
G1 E1.5 F3600
;TYPE:Solid infill
;WIDTH:0.424691
G1 F1200
G1 X127.141 Y115.816 E.04494
G1 X126.98 Y116.195 E.01307
G1 X127.973 Y117.187 E.04456
G1 X127.973 Y117.727 E.01714
G1 X126.819 Y116.574 E.05178
G1 X126.659 Y116.953 E.01306
G1 X127.973 Y118.267 E.05899
G1 X127.973 Y118.807 E.01714
G1 X126.498 Y117.332 E.06622
G1 X126.383 Y117.601 E.00929
G1 X126.317 Y117.691 E.00354
G1 X127.973 Y119.347 E.07434
G1 X127.973 Y119.887 E.01714
G1 X126.053 Y117.967 E.0862
G1 X125.856 Y118.074 E.00712
G1 X125.651 Y118.105 E.00658
G1 X127.973 Y120.427 E.10424
G1 X127.973 Y120.966 E.01711
G1 X124.872 Y117.866 E.13919
G1 X123.936 Y117.469 E.03227
G1 X127.973 Y121.506 E.18123
G1 X127.973 Y122.046 E.01714
G1 X122.999 Y117.073 E.22328
G1 X122.063 Y116.676 E.03227
G1 X127.973 Y122.586 E.26532
G1 X127.973 Y123.126 E.01714
G1 X121.126 Y116.28 E.30736
G1 X120.19 Y115.883 E.03227
G1 X127.973 Y123.666 E.3494
G1 X127.973 Y124.206 E.01714
G1 X119.253 Y115.486 E.39147
G1 X118.317 Y115.09 E.03226
G1 X127.956 Y124.73 E.43275
G1 X127.416 Y124.73 E.01714
G1 X117.38 Y114.693 E.45057
G1 X116.444 Y114.297 E.03226
M73 P1 R42
G1 X126.877 Y124.73 E.46837
G1 X126.337 Y124.73 E.01714
G1 X115.507 Y113.9 E.48619
G1 X114.571 Y113.504 E.03226
G1 X125.797 Y124.73 E.50397
G1 X125.257 Y124.73 E.01714
G1 X113.633 Y113.105 E.52186
G1 X112.694 Y112.707 E.03237
G1 X124.717 Y124.73 E.53975
G1 X124.177 Y124.73 E.01714
G1 X111.756 Y112.309 E.55762
G1 X110.818 Y111.911 E.03235
G1 X123.637 Y124.73 E.57549
G1 X123.097 Y124.73 E.01714
G1 X109.88 Y111.513 E.59336
G1 X108.942 Y111.114 E.03236
G1 X122.557 Y124.73 E.61125
G1 X122.017 Y124.73 E.01714
G1 X108.004 Y110.716 E.62911
G1 X107.066 Y110.318 E.03235
G1 X121.478 Y124.73 E.647
G1 X120.938 Y124.73 E.01714
G1 X106.128 Y109.92 E.66487
G1 X105.927 Y109.835 E.00693
G1 X105.927 Y110.259 E.01346
G1 X120.398 Y124.73 E.64965
G1 X119.858 Y124.73 E.01714
G1 X105.927 Y110.799 E.62541
G1 X105.927 Y111.339 E.01714
G1 X119.318 Y124.73 E.60117
G1 X118.778 Y124.73 E.01714
G1 X105.927 Y111.879 E.57692
G1 X105.927 Y112.419 E.01714
G1 X118.238 Y124.73 E.55268
G1 X117.698 Y124.73 E.01714
G1 X105.925 Y112.956 E.52855
G1 X105.904 Y113.129 E.00553
G1 X105.841 Y113.307 E.00599
G1 X105.899 Y113.47 E.00549
G1 X117.158 Y124.73 E.50548
G1 X116.618 Y124.73 E.01714
G1 X105.927 Y114.039 E.47995
G1 X105.927 Y114.579 E.01714
G1 X116.078 Y124.73 E.45571
G1 X115.539 Y124.73 E.01711
G1 X105.927 Y115.118 E.43151
G1 X105.927 Y115.658 E.01714
G1 X114.999 Y124.73 E.40727
G1 X114.459 Y124.73 E.01714
G1 X105.927 Y116.198 E.38303
G1 X105.927 Y116.738 E.01714
G1 X113.919 Y124.73 E.35879
G1 X113.379 Y124.73 E.01714
G1 X105.927 Y117.278 E.33455
G1 X105.919 Y117.809 E.01686
G1 X112.839 Y124.73 E.31068
G1 X112.299 Y124.73 E.01714
G1 X105.912 Y118.342 E.28676
G1 X105.927 Y118.898 E.01766
G1 X111.759 Y124.73 E.26182
G1 X111.219 Y124.73 E.01714
G1 X105.927 Y119.438 E.23758
G1 X105.927 Y119.977 E.01711
G1 X110.679 Y124.73 E.21336
G1 X110.139 Y124.73 E.01714
G1 X105.927 Y120.517 E.18911
G1 X105.927 Y121.057 E.01714
G1 X109.6 Y124.73 E.16489
G1 X109.06 Y124.73 E.01714
G1 X105.927 Y121.597 E.14065
G1 X105.927 Y122.137 E.01714
M73 P2 R42
G1 X108.52 Y124.73 E.11641
G1 X107.98 Y124.73 E.01714
G1 X105.927 Y122.677 E.09217
G1 X105.927 Y123.217 E.01714
G1 X107.44 Y124.73 E.06792
G1 X106.9 Y124.73 E.01714
G1 X105.927 Y123.757 E.04368
G1 X105.927 Y124.297 E.01714
G1 X106.53 Y124.899 E.02705
; stop printing object voron2_topview_pi_camera.stl id:0 copy 0
M106 S255
;LAYER_CHANGE
;Z:0.4
;HEIGHT:0.2
;BEFORE_LAYER_CHANGE
G92 E0
;0.4


G1 E-1.05 F5100
;WIPE_START
G1 F7200
G1 X106.057 Y124.426 E-.45
;WIPE_END
G1 Z.4 F9000
;AFTER_LAYER_CHANGE
;0.4

SET_PRINT_STATS_INFO CURRENT_LAYER=2
M104 S200 ; set temperature
G1 Z.4
G1 X106.057 Y129.461
G1 Z.4
G1 E1.5 F3600
;TYPE:Skirt/Brim
;WIDTH:0.42
G1 F2400
G1 X104.95 Y129.461 E.03471
G1 X103.274 Y129.066 E.05399
G1 X101.951 Y127.965 E.05397
G1 X101.475 Y127.127 E.03022
G1 X98.575 Y120.027 E.24047
G1 X98.296 Y118.607 E.04537
G1 X98.296 Y112.807 E.18185
G1 X98.905 Y110.757 E.06705
G1 X101.805 Y106.308 E.16651
G1 X103.051 Y105.12 E.05398
G1 X105.419 Y104.633 E.0758
G1 X115.612 Y105.918 E.32212
G1 X116.609 Y106.187 E.03238
G1 X130.417 Y112.048 E.47033
G1 X131.805 Y113.066 E.05397
G1 X132.593 Y114.597 E.05399
G1 X132.704 Y115.504 E.02865
G1 X132.704 Y125.707 E.31991
G1 X132.309 Y127.383 E.05399
G1 X131.208 Y128.706 E.05397
G1 X128.95 Y129.461 E.07465
G1 X106.117 Y129.461 E.71591
G1 X106.117 Y129.461 F9000
G1 X106.117 Y129.084
G1 F2400
G1 X104.95 Y129.084 E.03659
G1 X103.367 Y128.69 E.05115
G1 X101.824 Y126.984 E.07212
G1 X98.924 Y119.884 E.24047
G1 X98.673 Y118.607 E.04081
G1 X98.673 Y112.807 E.18185
G1 X99.221 Y110.963 E.06032
G1 X102.121 Y106.514 E.16651
G1 X103.316 Y105.403 E.05116
G1 X105.372 Y105.007 E.06565
G1 X115.565 Y106.292 E.32212
G1 X116.462 Y106.534 E.02913
G1 X130.27 Y112.395 E.47033
G1 X131.573 Y113.376 E.05114
G1 X132.327 Y115.504 E.07079
G1 X132.327 Y125.707 E.31991
G1 X131.933 Y127.29 E.05115
G1 X130.843 Y128.504 E.05116
G1 X128.95 Y129.084 E.06208
G1 X106.177 Y129.084 E.71403
; printing object voron2_topview_pi_camera.stl id:0 copy 0
G1 E-1.05 F5100
;WIPE_START
G1 F7200
G1 X106.117 Y129.084 E-.04038
G1 X105.508 Y129.084 E-.40962
;WIPE_END
G1 X105.142 Y118.107 F9000
G1 E1.5 F3600
;TYPE:Perimeter
;WIDTH:0.439999
G1 F2400
G1 X105.466 Y117.923 E.0123
G1 X105.547 Y117.628 E.0101
G1 X105.547 Y113.786 E.12685
G1 X105.467 Y113.492 E.01006
G1 X105.142 Y113.307 E.01235
G1 X105.467 Y113.122 E.01235
G1 X105.547 Y112.828 E.01006
G1 X105.547 Y109.26 E.11781
G1 X113.872 Y112.792 E.29858
G1 X114.179 Y112.811 E.01016
G1 X114.416 Y112.633 E.00979
G1 X114.453 Y112.927 E.00978
G1 X114.553 Y113.048 E.00518
G1 X114.716 Y113.152 E.00638
G1 X125.421 Y117.686 E.38384
G1 X125.725 Y117.672 E.01005
G1 X125.918 Y117.565 E.00729
G1 X126.077 Y117.349 E.00886
G1 X126.946 Y115.302 E.07342
G1 X128.353 Y115.899 E.05046
G1 X128.353 Y116.507 E.02007
G1 X128.353 Y125.11 E.28405
G1 X105.547 Y125.11 E.75299
G1 X105.547 Y118.586 E.2154
G1 X105.466 Y118.291 E.0101
G1 X105.195 Y118.137 E.01029
G1 X105.195 Y118.137 F9000
G1 X104.971 Y117.868
;TYPE:External perimeter
;WIDTH:0.52146
G1 F1500
G1 X105.025 Y117.82 E.00287
;WIDTH:0.48764
G1 X105.079 Y117.773 E.00265
;WIDTH:0.45382
G1 X105.133 Y117.725 E.00247
;WIDTH:0.419999
G1 X105.16 Y117.628 E.00316
G1 X105.156 Y113.749 E.12162
;WIDTH:0.45382
G1 X105.095 Y113.681 E.00312
;WIDTH:0.487641
G1 X105.033 Y113.614 E.00338
;WIDTH:0.52146
G1 X104.971 Y113.546 E.00366
G1 X103.079 Y113.546 E.07528
G1 X102.806 Y113.563 E.01088
;WIDTH:0.48764
G1 X102.533 Y113.58 E.01011
;WIDTH:0.45382
G1 X102.26 Y113.597 E.00935
;WIDTH:0.419999
G1 X102.26 Y112.94 E.0206
G1 X102.89 Y112.64 E.02188
G1 X102.93 Y112.945 E.00964
;WIDTH:0.45382
G1 X102.98 Y112.986 E.00221
;WIDTH:0.48764
G1 X103.029 Y113.027 E.00236
;WIDTH:0.521461
G1 X103.079 Y113.068 E.00257
G1 X104.971 Y113.068 E.07528
G1 X105.026 Y113.02 E.0029
;WIDTH:0.487641
G1 X105.08 Y112.972 E.00267
;WIDTH:0.45382
G1 X105.134 Y112.925 E.00245
;WIDTH:0.419999
G1 X105.16 Y112.828 E.00315
G1 X105.16 Y108.675 E.13021
G1 X114.017 Y112.432 E.30166
;WIDTH:0.454429
G1 X114.102 Y112.408 E.00302
;WIDTH:0.488858
G1 X114.187 Y112.385 E.00327
;WIDTH:0.523287
G1 X114.272 Y112.361 E.00353
G1 X115.281 Y109.985 E.10311
;WIDTH:0.521459
G1 X115.721 Y110.172 E.01902
G1 X114.72 Y112.529 E.10189
G1 X114.741 Y112.593 E.00268
;WIDTH:0.487639
G1 X114.761 Y112.658 E.00251
;WIDTH:0.453819
G1 X114.781 Y112.722 E.00229
;WIDTH:0.419999
G1 X114.867 Y112.796 E.00356
G1 X125.474 Y117.298 E.36129
G1 X125.605 Y117.304 E.00411
G1 X125.721 Y117.198 E.00493
G1 X126.741 Y114.794 E.08188
G1 X128.74 Y115.643 E.0681
G1 X128.74 Y116.507 E.02709
G1 X128.74 Y125.497 E.28187
G1 X105.16 Y125.497 E.73933
G1 X105.156 Y118.549 E.21785
;WIDTH:0.45382
G1 X105.095 Y118.481 E.00312
M73 P2 R41
;WIDTH:0.48764
G1 X105.033 Y118.414 E.00338
;WIDTH:0.52146
G1 X104.971 Y118.346 E.00366
G1 X103.079 Y118.346 E.07528
;WIDTH:0.57006
G1 X102.971 Y118.371 E.00486
;WIDTH:0.618659
G1 X102.863 Y118.395 E.0053
G1 X102.791 Y118.617 E.01117
G1 X102.359 Y118.412 E.02289
G1 X102.359 Y117.916 E.02374
G1 X102.719 Y117.892 E.01727
;WIDTH:0.57006
G1 X103.079 Y117.868 E.01581
;WIDTH:0.52146
G1 X104.911 Y117.868 E.0729
G1 E-1.05 F5100
;WIPE_START
G1 F7200
G1 X104.971 Y117.868 E-.04038
G1 X105.025 Y117.82 E-.04862
G1 X105.079 Y117.773 E-.04817
G1 X105.133 Y117.725 E-.04862
G1 X105.16 Y117.628 E-.06775
G1 X105.16 Y117.336 E-.19646
;WIPE_END
G1 X102.672 Y113.167 F9000
G1 E1.5 F3600
;TYPE:Perimeter
;WIDTH:0.440242
G1 F2400
G1 X102.598 Y113.21 E.00283
G1 X102.672 Y113.253 E.00283
G1 X102.697 Y113.21 E.00164
G1 E-1.05 F5100
;WIPE_START
G1 F7200
G1 X102.672 Y113.253 E-.03347
G1 X102.598 Y113.21 E-.05759
G1 X102.672 Y113.167 E-.05759
;WIPE_END
G1 E-.30135 F5100
G1 X106.036 Y109.8 F9000
G1 E1.5 F3600
;TYPE:Solid infill
;WIDTH:0.439999
G1 F2400
G1 X108.285 Y110.754 E.08066
G1 X105.72 Y113.314 E.11965
G1 X105.807 Y113.103 E.00754
G1 X105.853 Y112.822 E.0094
G1 X105.853 Y109.722 E.10235
G1 X106.25 Y110.322 E.02375
G1 X106.25 Y112.228 E.06293
G1 X107.588 Y110.89 E.06248
G1 X106.433 Y110.4 E.04142
G1 X106.805 Y111.037 E.02436
;WIDTH:0.61689
G1 X106.754 Y110.986 E.00344
G1 X106.685 Y111.005 E.00342
G1 X106.666 Y111.074 E.00342
G1 X106.717 Y111.125 E.00344
G1 X106.786 Y111.106 E.00342
G1 X106.786 Y111.106 F9000
G1 X108.679 Y110.922
;WIDTH:0.439999
G1 F2400
G1 X105.849 Y113.752 E.13214
G1 X105.853 Y114.31 E.01842
G1 X109.073 Y111.089 E.15038
G1 X109.468 Y111.256 E.01416
G1 X105.852 Y114.872 E.16884
G1 X105.852 Y115.433 E.01852
G1 X109.862 Y111.424 E.18722
G1 X110.256 Y111.591 E.01413
G1 X105.852 Y115.995 E.20564
G1 X105.851 Y116.557 E.01856
G1 X110.65 Y111.758 E.22408
G1 X111.045 Y111.925 E.01416
G1 X105.851 Y117.119 E.24253
G1 X105.851 Y117.681 E.01856
G1 X111.439 Y112.093 E.26092
G1 X111.833 Y112.26 E.01413
G1 X105.799 Y118.294 E.28175
G1 X105.718 Y118.194 E.00425
;WIDTH:0.41146
G1 X105.637 Y118.095 E.00392
;WIDTH:0.38292
G1 X105.566 Y118.076 E.00208
G1 X105.585 Y118.147 E.00208
G1 X105.626 Y118.136 E.0012
;WIDTH:0.439999
G1 X105.852 Y118.803 E.02325
G1 X112.227 Y112.427 E.29769
G1 X112.622 Y112.595 E.01417
G1 X105.852 Y119.364 E.31609
G1 X105.852 Y119.926 E.01856
G1 X113.016 Y112.762 E.33451
G1 X113.41 Y112.929 E.01413
G1 X105.852 Y120.487 E.35291
G1 X105.852 Y121.049 E.01856
G1 X113.812 Y113.089 E.37168
G1 X114.274 Y113.188 E.0156
G1 X105.852 Y121.61 E.39325
G1 X105.852 Y122.172 E.01856
G1 X114.592 Y113.432 E.4081
G1 X114.987 Y113.599 E.01416
G1 X105.853 Y122.733 E.4265
G1 X105.853 Y123.295 E.01856
G1 X115.381 Y113.766 E.44492
G1 X115.776 Y113.933 E.01416
G1 X105.853 Y123.856 E.46334
G1 X105.853 Y124.417 E.01852
G1 X116.171 Y114.1 E.48176
G1 X116.565 Y114.267 E.01413
G1 X106.028 Y124.804 E.49201
G1 X105.912 Y124.847 E.00408
;WIDTH:0.41146
G1 X105.797 Y124.89 E.00376
;WIDTH:0.38292
G1 X105.726 Y124.871 E.00208
G1 X105.745 Y124.942 E.00208
G1 X105.786 Y124.931 E.0012
G1 X106.589 Y124.804 F9000
;WIDTH:0.439999
G1 F2400
G1 X116.96 Y114.434 E.48423
G1 X117.354 Y114.601 E.01413
G1 X107.151 Y124.804 E.47641
G1 X107.712 Y124.804 E.01852
